;This Gcode has been generated specifically for the LulzBot TAZ
	;Sliced at: Wed 29-04-2015 20:45:14
	;Basic settings: Layer height: 0.21 Walls: 1.05 Fill: 20
	;Filament Diameter: 2.85
	;Print time: #P_TIME#
	;M190 S0 ;Uncomment to add your own bed temperature line
	;M109 S0 ;Uncomment to add your own temperature line
	G21        ;metric values
	G90        ;absolute positioning
	M82        ;set extruder to absolute mode
	M107       ;start with the fan off
	G28 X0 Y0  ;move X/Y to min endstops
	G28 Z0     ;move Z to min endstops
	G1 Z15.0 F10500 ;move the platform down 15mm
	G92 E0                  ;zero the extruded length
	G1 F200 E0              ;extrude 3mm of feed stock
	G92 E0                  ;zero the extruded length again
	G1 F10500
	M203 X192 Y208 Z3 ;speed limits

;Layer count: 23
;LAYER:0
M107
G0 F10500 X126.276 Y114.595 Z0.300
;TYPE:SKIRT
G1 F1800 X130.291 Y116.037 E0.08767
G1 X132.133 Y114.110 E0.14245
G1 X134.085 Y112.448 E0.19514
G1 X136.163 Y111.007 E0.24711
G1 X137.549 Y110.201 E0.28005
G1 X139.003 Y109.468 E0.31352
G1 X141.335 Y108.529 E0.36518
G1 X141.581 Y108.429 E0.37064
G1 X144.157 Y107.701 E0.42565
G1 X147.015 Y107.201 E0.48527
G1 X149.553 Y107.048 E0.53753
G1 X149.826 Y107.031 E0.54315
G1 X152.377 Y107.152 E0.59563
G1 X152.648 Y107.166 E0.60121
G1 X155.182 Y107.562 E0.65392
G1 X155.450 Y107.606 E0.65950
G1 X158.078 Y108.312 E0.71542
G1 X160.816 Y109.365 E0.77570
G1 X163.110 Y110.539 E0.82866
G1 X165.266 Y111.923 E0.88131
G1 X167.081 Y113.357 E0.92885
G1 X167.272 Y113.507 E0.93384
G1 X168.942 Y115.116 E0.98150
G1 X169.120 Y115.288 E0.98658
G1 X170.613 Y117.042 E1.03392
G1 X170.775 Y117.231 E1.03903
G1 X172.096 Y119.132 E1.08661
G1 X172.219 Y119.308 E1.09102
G1 X173.007 Y120.663 E1.12323
G1 X173.748 Y122.126 E1.15693
G1 X174.708 Y124.494 E1.20944
G1 X174.812 Y124.750 E1.21512
G1 X175.538 Y127.316 E1.26992
G1 X176.034 Y130.158 E1.32921
G1 X176.184 Y132.459 E1.37660
G1 X176.185 Y132.459 E1.37662
G1 X176.202 Y132.708 E1.38175
G1 X175.983 Y139.521 E1.52183
G1 X172.837 Y138.377 E1.59063
G1 X172.560 Y139.519 E1.61477
G1 X172.261 Y140.394 E1.63378
G1 X174.872 Y141.350 E1.69092
G1 X178.583 Y142.708 E1.77213
G1 X175.867 Y147.793 E1.89060
G1 X173.352 Y151.679 E1.98572
G1 X169.786 Y150.385 E2.06368
G1 X169.733 Y150.452 E2.06544
G1 X167.938 Y152.315 E2.11860
G1 X165.989 Y153.974 E2.17120
G1 X163.910 Y155.416 E2.22320
G1 X162.523 Y156.224 E2.25619
G1 X161.606 Y156.686 E2.27729
G1 X157.480 Y165.296 E2.47349
G1 X156.199 Y167.964 E2.53432
G1 X143.747 Y167.964 E2.79021
G1 X142.426 Y165.363 E2.85016
G1 X137.838 Y156.337 E3.05824
G1 X136.857 Y155.825 E3.08098
G1 X134.632 Y154.382 E3.13548
G1 X132.632 Y152.776 E3.18819
G1 X130.805 Y150.986 E3.24075
G1 X129.163 Y149.027 E3.29328
G1 X127.792 Y147.020 E3.34323
G1 X127.011 Y145.676 E3.37518
G1 X126.315 Y144.295 E3.40696
G1 X125.355 Y141.923 E3.45955
G1 X125.253 Y141.672 E3.46511
G1 X124.526 Y139.102 E3.52000
G1 X124.076 Y136.521 E3.57384
G1 X124.030 Y136.260 E3.57929
G1 X123.877 Y133.951 E3.62684
G1 X123.861 Y133.710 E3.63181
G1 X123.986 Y129.680 E3.71467
G1 X123.157 Y129.378 E3.73280
G1 X120.018 Y128.234 E3.80146
G1 X121.686 Y122.860 E3.91709
G1 X122.789 Y120.276 E3.97483
G1 X123.793 Y118.420 E4.01819
G1 X126.276 Y114.595 E4.11191
G1 F1500 E2.61191
G0 F10500 X128.032 Y119.805
;TYPE:WALL-INNER
G1 F1500 E4.11191
G1 F1800 X130.864 Y120.823 E4.17375
G1 X131.753 Y121.143 E4.19317
G1 X133.541 Y118.875 E4.25252
G1 X135.093 Y117.251 E4.29869
G1 X136.724 Y115.863 E4.34270
G1 X138.474 Y114.649 E4.38647
G1 X139.609 Y113.988 E4.41346
G1 X140.776 Y113.401 E4.44031
G1 X142.947 Y112.526 E4.48841
G1 X145.116 Y111.909 E4.53475
G1 X147.520 Y111.488 E4.58491
G1 X149.816 Y111.350 E4.63218
G1 X149.854 Y111.348 E4.63296
G1 X152.163 Y111.457 E4.68046
G1 X152.207 Y111.459 E4.68137
G1 X154.503 Y111.818 E4.72912
G1 X156.746 Y112.417 E4.77683
G1 X159.053 Y113.304 E4.82763
G1 X160.959 Y114.280 E4.87163
G1 X162.759 Y115.436 E4.91560
G1 X164.410 Y116.740 E4.95883
G1 X165.946 Y118.214 E5.00258
G1 X167.334 Y119.838 E5.04648
G1 X167.356 Y119.864 E5.04718
G1 X168.557 Y121.592 E5.09043
G1 X169.221 Y122.727 E5.11745
G1 X169.820 Y123.910 E5.14470
G1 X170.715 Y126.117 E5.19364
G1 X170.730 Y126.153 E5.19445
G1 X171.329 Y128.274 E5.23974
G1 X171.748 Y130.671 E5.28975
G1 X171.884 Y132.751 E5.33258
G1 X171.887 Y132.790 E5.33339
G1 X171.866 Y133.438 E5.34671
G1 X169.438 Y132.555 E5.39980
G1 X168.953 Y136.105 E5.47344
G1 X168.419 Y138.305 E5.51996
G1 X167.818 Y140.066 E5.55820
G1 X166.588 Y142.907 E5.62182
G1 X172.446 Y145.051 E5.75001
G1 X172.153 Y145.599 E5.76278
G1 X171.598 Y146.457 E5.78378
G1 X168.330 Y145.271 E5.85523
G1 X166.484 Y147.612 E5.91650
G1 X164.986 Y149.167 E5.96087
G1 X163.350 Y150.559 E6.00501
G1 X161.604 Y151.770 E6.04868
G1 X160.459 Y152.437 E6.07591
G1 X159.332 Y153.005 E6.10185
G1 X158.413 Y153.376 E6.12221
G1 X153.593 Y163.432 E6.35138
G1 X153.486 Y163.654 E6.35645
G1 X152.465 Y163.654 E6.37743
G1 X152.549 Y163.597 E6.37951
G1 X153.033 Y163.150 E6.39305
G1 X153.448 Y162.635 E6.40665
G1 X153.784 Y162.059 E6.42035
G1 X154.030 Y161.436 E6.43411
G1 X154.180 Y160.793 E6.44768
G1 X154.231 Y160.125 E6.46145
G1 X154.197 Y159.577 E6.47273
G1 X154.098 Y159.043 E6.48390
G1 X153.880 Y158.384 E6.49816
G1 X153.551 Y157.755 E6.51275
G1 X153.124 Y157.183 E6.52742
G1 X152.608 Y156.684 E6.54217
G1 X152.018 Y156.274 E6.55693
G1 X151.421 Y155.985 E6.57056
G1 X150.761 Y155.783 E6.58475
G1 X150.160 Y155.693 E6.59724
G1 X150.000 Y155.686 E6.60053
G1 X149.390 Y155.695 E6.61307
G1 X148.804 Y155.787 E6.62526
G1 X148.129 Y155.998 E6.63979
G1 X147.526 Y156.296 E6.65361
G1 X146.971 Y156.688 E6.66758
G1 X146.680 Y156.951 E6.67564
G1 X146.245 Y157.441 E6.68910
G1 X145.877 Y158.019 E6.70318
G1 X145.592 Y158.671 E6.71781
G1 X145.419 Y159.347 E6.73215
G1 X145.366 Y159.772 E6.74095
G1 X145.351 Y160.132 E6.74835
G1 X145.396 Y160.746 E6.76100
G1 X145.543 Y161.405 E6.77488
G1 X145.656 Y161.733 E6.78201
G1 X145.931 Y162.312 E6.79518
G1 X146.290 Y162.848 E6.80844
G1 X146.758 Y163.361 E6.82271
G1 X147.123 Y163.654 E6.83233
G1 X146.393 Y163.654 E6.84733
G1 X141.606 Y154.239 E7.06439
G1 X141.765 Y153.412 E7.08169
G1 X140.853 Y153.049 E7.10186
G1 X139.030 Y152.098 E7.14412
G1 X137.161 Y150.886 E7.18990
G1 X135.497 Y149.549 E7.23376
G1 X133.972 Y148.055 E7.27764
G1 X132.605 Y146.425 E7.32136
G1 X131.437 Y144.715 E7.36391
G1 X130.798 Y143.616 E7.39004
G1 X130.244 Y142.517 E7.41533
G1 X129.350 Y140.306 E7.46434
G1 X128.735 Y138.144 E7.51053
G1 X128.322 Y135.779 E7.55987
G1 X128.178 Y133.666 E7.60339
G1 X128.175 Y133.626 E7.60422
G1 X128.195 Y132.985 E7.61740
G1 X130.625 Y133.870 E7.67055
G1 X131.133 Y130.729 E7.73593
G1 X131.812 Y127.942 E7.79488
G1 X125.351 Y125.590 E7.93618
G1 X125.738 Y124.345 E7.96298
G1 X126.674 Y122.151 E8.01200
G1 X127.499 Y120.627 E8.04761
G1 X128.032 Y119.805 E8.06774
G0 F10500 X134.238 Y123.641
G1 F1800 X134.170 Y123.755 E8.07047
G1 X133.436 Y125.488 E8.10915
G1 X133.386 Y125.604 E8.11174
G1 X132.824 Y127.432 E8.15105
G1 X132.159 Y130.258 E8.21071
G1 X137.558 Y132.341 E8.32963
G1 X137.442 Y133.205 E8.34755
G1 X137.406 Y134.016 E8.36423
G1 X135.683 Y133.391 E8.40189
G1 X133.858 Y132.728 E8.44180
G1 X134.328 Y136.243 E8.51468
G1 X134.778 Y138.032 E8.55259
G1 X134.813 Y138.167 E8.55545
G1 X135.473 Y139.853 E8.59266
G1 X135.526 Y139.986 E8.59560
G1 X136.512 Y141.781 E8.63769
G1 X137.703 Y143.415 E8.67924
G1 X137.794 Y143.538 E8.68239
G1 X139.163 Y144.956 E8.72289
G1 X139.269 Y145.065 E8.72602
G1 X140.824 Y146.295 E8.76676
G1 X140.943 Y146.389 E8.76988
G1 X142.650 Y147.401 E8.81066
G1 X142.784 Y147.482 E8.81388
G1 X144.767 Y148.324 E8.85815
G1 X146.636 Y148.851 E8.89806
G1 X148.169 Y149.106 E8.92999
G1 X149.726 Y149.212 E8.96206
G1 X149.848 Y149.220 E8.96458
G1 X151.650 Y149.135 E9.00165
G1 X151.789 Y149.127 E9.00451
G1 X153.589 Y148.817 E9.04205
G1 X153.721 Y148.793 E9.04480
G1 X155.215 Y148.358 E9.07678
G1 X156.745 Y147.744 E9.11066
G1 X158.395 Y146.854 E9.14919
G1 X158.518 Y146.785 E9.15209
G1 X159.951 Y145.757 E9.18833
G1 X160.065 Y145.676 E9.19120
G1 X160.922 Y144.895 E9.21503
G1 X162.669 Y145.531 E9.25324
G1 X163.481 Y145.829 E9.27101
G1 X164.833 Y144.246 E9.31380
G1 X165.631 Y143.088 E9.34270
G1 X166.312 Y141.936 E9.37020
G1 X167.020 Y140.756 E9.39848
G1 X160.746 Y138.471 E9.53570
G1 X161.059 Y137.810 E9.55073
G1 X161.124 Y137.672 E9.55386
G1 X161.729 Y135.774 E9.59480
G1 X161.778 Y135.628 E9.59796
G1 X162.106 Y133.843 E9.63526
G1 X162.130 Y133.713 E9.63798
G1 X162.232 Y132.290 E9.66730
G1 X162.235 Y132.255 E9.66802
G1 X164.377 Y133.030 E9.71483
G1 X166.220 Y133.706 E9.75517
G1 X165.749 Y130.184 E9.82820
G1 X165.293 Y128.394 E9.86616
G1 X165.257 Y128.260 E9.86901
G1 X164.570 Y126.514 E9.90757
G1 X163.515 Y124.576 E9.95291
G1 X162.273 Y122.891 E9.99593
G1 X160.797 Y121.362 E10.03960
G1 X159.123 Y120.038 E10.08346
G1 X157.278 Y118.944 E10.12754
G1 X155.375 Y118.135 E10.17004
G1 X153.428 Y117.574 E10.21168
G1 X151.577 Y117.286 E10.25018
G1 X149.564 Y117.210 E10.29157
G1 X147.763 Y117.371 E10.32873
G1 X147.624 Y117.384 E10.33160
G1 X145.812 Y117.773 E10.36969
G1 X144.492 Y118.194 E10.39816
G1 X143.303 Y118.689 E10.42463
G1 X141.618 Y119.599 E10.46398
G1 X140.107 Y120.665 E10.50198
G1 X139.993 Y120.746 E10.50486
G1 X139.137 Y121.527 E10.52867
G1 X136.445 Y120.547 E10.58755
G1 X135.033 Y122.298 E10.63377
G1 X134.238 Y123.641 E10.66584
G0 F10500 X134.614 Y123.863
G1 F1800 X134.562 Y123.952 E10.66796
G1 X133.841 Y125.653 E10.70593
G1 X133.797 Y125.756 E10.70823
G1 X133.246 Y127.547 E10.74674
G1 X132.672 Y129.988 E10.79827
G1 X138.037 Y132.057 E10.91644
G1 X137.878 Y133.244 E10.94105
G1 X137.827 Y134.399 E10.96481
G1 X137.823 Y134.470 E10.96627
G1 X137.829 Y134.634 E10.96964
G1 X135.535 Y133.802 E11.01979
G1 X134.386 Y133.385 E11.04491
G1 X134.758 Y136.161 E11.10247
G1 X135.201 Y137.923 E11.13981
G1 X135.229 Y138.031 E11.14210
G1 X135.879 Y139.692 E11.17875
G1 X135.922 Y139.798 E11.18110
G1 X136.882 Y141.546 E11.22209
G1 X138.055 Y143.156 E11.26302
G1 X138.128 Y143.254 E11.26554
G1 X139.478 Y144.652 E11.30547
G1 X139.563 Y144.740 E11.30799
G1 X141.095 Y145.952 E11.34813
G1 X141.191 Y146.028 E11.35065
G1 X142.876 Y147.027 E11.39091
G1 X142.983 Y147.092 E11.39348
G1 X144.912 Y147.911 E11.43655
G1 X146.731 Y148.424 E11.47538
G1 X148.220 Y148.671 E11.50640
G1 X149.755 Y148.776 E11.53802
G1 X149.853 Y148.782 E11.54004
G1 X151.628 Y148.698 E11.57656
G1 X151.740 Y148.692 E11.57886
G1 X153.513 Y148.387 E11.61583
G1 X155.072 Y147.945 E11.64913
G1 X156.559 Y147.348 E11.68206
G1 X158.185 Y146.470 E11.72004
G1 X158.284 Y146.415 E11.72237
G1 X159.699 Y145.400 E11.75815
G1 X160.822 Y144.394 E11.78914
G1 X162.822 Y145.122 E11.83288
G1 X163.346 Y145.314 E11.84435
G1 X164.486 Y143.980 E11.88041
G1 X165.262 Y142.853 E11.90853
G1 X165.938 Y141.711 E11.93580
G1 X166.373 Y140.985 E11.95319
G1 X160.145 Y138.718 E12.08940
G1 X160.664 Y137.623 E12.11430
G1 X160.717 Y137.511 E12.11684
G1 X161.314 Y135.638 E12.15724
G1 X161.353 Y135.519 E12.15982
G1 X161.676 Y133.764 E12.19649
G1 X161.796 Y132.252 E12.22766
G1 X161.805 Y132.159 E12.22958
G1 X161.792 Y131.630 E12.24045
G1 X164.525 Y132.619 E12.30018
G1 X165.691 Y133.046 E12.32570
G1 X165.319 Y130.267 E12.38332
G1 X164.870 Y128.504 E12.42071
G1 X164.174 Y126.699 E12.46046
G1 X163.146 Y124.811 E12.50464
G1 X161.938 Y123.173 E12.54647
G1 X160.503 Y121.686 E12.58893
G1 X158.875 Y120.399 E12.63158
G1 X157.080 Y119.334 E12.67447
G1 X155.229 Y118.548 E12.71580
G1 X153.334 Y118.001 E12.75633
G1 X151.535 Y117.722 E12.79375
G1 X149.575 Y117.648 E12.83405
G1 X147.803 Y117.806 E12.87061
G1 X147.691 Y117.817 E12.87293
G1 X145.924 Y118.196 E12.91007
G1 X144.642 Y118.604 E12.93771
G1 X143.492 Y119.084 E12.96332
G1 X141.848 Y119.971 E13.00171
G1 X140.359 Y121.022 E13.03917
G1 X139.236 Y122.028 E13.07015
G1 X136.589 Y121.064 E13.12804
G1 X135.392 Y122.548 E13.16722
G1 X134.614 Y123.863 E13.19862
G0 F10500 X131.605 Y120.625
G1 F1800 X133.215 Y118.584 E13.25205
G1 X134.792 Y116.933 E13.29897
G1 X136.456 Y115.517 E13.34387
G1 X138.244 Y114.277 E13.38858
G1 X139.388 Y113.611 E13.41579
G1 X140.597 Y113.002 E13.44361
G1 X142.783 Y112.121 E13.49204
G1 X145.018 Y111.482 E13.53981
G1 X147.463 Y111.054 E13.59082
G1 X149.790 Y110.914 E13.63873
G1 X149.857 Y110.910 E13.64011
G1 X152.186 Y111.020 E13.68802
G1 X152.250 Y111.023 E13.68934
G1 X154.565 Y111.385 E13.73749
G1 X156.884 Y112.002 E13.78681
G1 X159.230 Y112.904 E13.83846
G1 X161.180 Y113.902 E13.88348
G1 X163.014 Y115.079 E13.92826
G1 X164.681 Y116.396 E13.97192
G1 X164.725 Y116.431 E13.97308
G1 X166.250 Y117.900 E14.01659
G1 X167.666 Y119.555 E14.06135
G1 X168.916 Y121.342 E14.10617
G1 X169.602 Y122.512 E14.13404
G1 X170.218 Y123.729 E14.16207
G1 X171.120 Y125.952 E14.21137
G1 X171.756 Y128.176 E14.25891
G1 X172.182 Y130.614 E14.30977
G1 X172.320 Y132.722 E14.35318
G1 X172.324 Y132.774 E14.35426
G1 X172.283 Y134.054 E14.38057
G1 X169.798 Y133.151 E14.43491
G1 X169.384 Y136.180 E14.49774
G1 X168.835 Y138.442 E14.54557
G1 X168.229 Y140.218 E14.58413
G1 X167.173 Y142.655 E14.63872
G1 X173.067 Y144.814 E14.76771
G1 X172.525 Y145.828 E14.79134
G1 X171.775 Y146.986 E14.81969
G1 X168.478 Y145.790 E14.89177
G1 X166.815 Y147.898 E14.94695
G1 X165.280 Y149.490 E14.99239
G1 X163.618 Y150.905 E15.03725
G1 X161.834 Y152.143 E15.08187
G1 X160.674 Y152.818 E15.10946
G1 X159.512 Y153.404 E15.13620
G1 X158.734 Y153.718 E15.15344
G1 X153.987 Y163.621 E15.37913
G1 X153.761 Y164.091 E15.38984
G1 X150.156 Y164.091 E15.46393
G1 X150.576 Y164.041 E15.47262
G1 X151.199 Y163.863 E15.48594
G1 X151.786 Y163.587 E15.49927
G1 X152.276 Y163.253 E15.51145
G1 X152.713 Y162.851 E15.52365
G1 X153.087 Y162.387 E15.53590
G1 X153.390 Y161.867 E15.54827
G1 X153.612 Y161.306 E15.56067
G1 X153.746 Y160.727 E15.57288
G1 X153.793 Y160.122 E15.58535
G1 X153.762 Y159.630 E15.59548
G1 X153.674 Y159.152 E15.60547
G1 X153.476 Y158.555 E15.61840
G1 X153.180 Y157.988 E15.63154
G1 X152.795 Y157.473 E15.64476
G1 X152.330 Y157.023 E15.65805
G1 X151.797 Y156.653 E15.67139
G1 X151.261 Y156.393 E15.68363
G1 X150.664 Y156.211 E15.69646
G1 X150.118 Y156.128 E15.70781
G1 X149.994 Y156.123 E15.71036
G1 X149.427 Y156.132 E15.72201
G1 X148.904 Y156.213 E15.73289
G1 X148.292 Y156.405 E15.74607
G1 X147.750 Y156.672 E15.75848
G1 X147.244 Y157.030 E15.77122
G1 X146.991 Y157.259 E15.77824
G1 X146.595 Y157.705 E15.79049
G1 X146.263 Y158.226 E15.80319
G1 X146.007 Y158.813 E15.81635
G1 X145.849 Y159.429 E15.82942
G1 X145.802 Y159.808 E15.83727
G1 X145.789 Y160.125 E15.84379
G1 X145.830 Y160.690 E15.85543
G1 X145.961 Y161.279 E15.86783
G1 X146.061 Y161.567 E15.87409
G1 X146.312 Y162.096 E15.88613
G1 X146.635 Y162.578 E15.89805
G1 X147.058 Y163.041 E15.91094
G1 X147.536 Y163.424 E15.92352
G1 X148.088 Y163.740 E15.93660
G1 X148.679 Y163.962 E15.94957
G1 X149.300 Y164.089 E15.96260
G1 X149.345 Y164.091 E15.96352
G1 X146.124 Y164.091 E16.02971
G1 X145.879 Y163.608 E16.04084
G1 X141.149 Y154.303 E16.25536
G1 X141.268 Y153.684 E16.26831
G1 X140.676 Y153.448 E16.28141
G1 X138.810 Y152.475 E16.32465
G1 X136.904 Y151.239 E16.37134
G1 X135.204 Y149.873 E16.41615
G1 X133.654 Y148.355 E16.46074
G1 X132.252 Y146.682 E16.50560
G1 X131.068 Y144.949 E16.54873
G1 X130.421 Y143.837 E16.57517
G1 X129.844 Y142.692 E16.60152
G1 X128.945 Y140.470 E16.65078
G1 X128.308 Y138.242 E16.69840
G1 X127.891 Y135.855 E16.74819
G1 X127.742 Y133.695 E16.79269
G1 X127.738 Y133.643 E16.79376
G1 X127.778 Y132.368 E16.81998
G1 X130.278 Y133.278 E16.87465
G1 X130.707 Y130.634 E16.92970
G1 X131.295 Y128.219 E16.98078
G1 X124.811 Y125.859 E17.12258
G1 X125.328 Y124.190 E17.15848
G1 X126.278 Y121.966 E17.20818
G1 X127.127 Y120.396 E17.24486
G1 X127.854 Y119.276 E17.27230
G1 X131.011 Y120.411 E17.34125
G1 X131.605 Y120.625 E17.35422
G0 F10500 X131.457 Y120.107
;TYPE:WALL-OUTER
G1 F1800 X132.878 Y118.305 E17.40138
G1 X134.500 Y116.607 E17.44964
G1 X136.183 Y115.175 E17.49505
G1 X138.008 Y113.908 E17.54071
G1 X139.181 Y113.226 E17.56859
G1 X140.428 Y112.598 E17.59729
G1 X142.619 Y111.716 E17.64582
G1 X142.698 Y111.684 E17.64757
G1 X144.921 Y111.055 E17.69505
G1 X147.415 Y110.619 E17.74708
G1 X149.763 Y110.478 E17.79542
G1 X149.851 Y110.473 E17.79723
G1 X152.208 Y110.584 E17.84572
G1 X152.300 Y110.589 E17.84762
G1 X154.637 Y110.954 E17.89623
G1 X154.716 Y110.967 E17.89787
G1 X157.023 Y111.587 E17.94696
G1 X159.410 Y112.505 E17.99952
G1 X161.396 Y113.521 E18.04537
G1 X163.267 Y114.723 E18.09107
G1 X164.951 Y116.053 E18.13516
G1 X165.013 Y116.102 E18.13679
G1 X166.554 Y117.587 E18.18077
G1 X166.618 Y117.649 E18.18260
G1 X167.999 Y119.271 E18.22638
G1 X168.051 Y119.331 E18.22801
G1 X169.274 Y121.093 E18.27209
G1 X169.325 Y121.166 E18.27392
G1 X169.990 Y122.310 E18.30111
G1 X170.614 Y123.542 E18.32949
G1 X171.525 Y125.788 E18.37930
G1 X171.557 Y125.867 E18.38105
G1 X172.183 Y128.080 E18.42831
G1 X172.617 Y130.564 E18.48014
G1 X172.756 Y132.693 E18.52398
G1 X172.762 Y132.766 E18.52549
G1 X172.701 Y134.671 E18.56465
G1 X170.158 Y133.747 E18.62026
G1 X169.814 Y136.265 E18.67248
G1 X169.256 Y138.562 E18.72106
G1 X168.641 Y140.366 E18.76023
G1 X167.758 Y142.404 E18.80587
G1 X173.690 Y144.577 E18.93570
G1 X172.903 Y146.049 E18.97000
G1 X171.953 Y147.516 E19.00592
G1 X168.625 Y146.308 E19.07868
G1 X167.140 Y148.191 E19.12796
G1 X165.581 Y149.808 E19.17412
G1 X163.891 Y151.247 E19.21974
G1 X162.064 Y152.515 E19.26544
G1 X160.889 Y153.199 E19.29338
G1 X159.696 Y153.800 E19.32083
G1 X159.055 Y154.060 E19.33505
G1 X154.381 Y163.810 E19.55725
G1 X154.036 Y164.528 E19.57362
G1 X145.856 Y164.528 E19.74172
G1 X145.489 Y163.806 E19.75837
G1 X140.662 Y154.310 E19.97728
G1 X140.703 Y154.310 E19.97812
G1 X140.771 Y153.956 E19.98553
G1 X140.480 Y153.839 E19.99197
G1 X138.594 Y152.856 E20.03568
G1 X136.648 Y151.594 E20.08335
G1 X134.917 Y150.204 E20.12897
G1 X133.326 Y148.645 E20.17474
G1 X131.905 Y146.950 E20.22020
G1 X130.695 Y145.178 E20.26429
G1 X130.036 Y144.044 E20.29125
G1 X129.446 Y142.872 E20.31821
G1 X128.540 Y140.634 E20.36783
G1 X128.508 Y140.555 E20.36958
G1 X127.881 Y138.338 E20.41693
G1 X127.461 Y135.930 E20.46716
G1 X127.446 Y135.847 E20.46890
G1 X127.306 Y133.724 E20.51262
G1 X127.300 Y133.651 E20.51413
G1 X127.360 Y131.751 E20.55319
G1 X129.931 Y132.687 E20.60942
G1 X130.274 Y130.566 E20.65357
G1 X130.778 Y128.496 E20.69736
G1 X124.333 Y126.149 E20.83831
G1 X124.270 Y126.126 E20.83969
G1 X124.915 Y124.044 E20.88448
G1 X125.882 Y121.780 E20.93508
G1 X126.750 Y120.175 E20.97257
G1 X127.676 Y118.749 E21.00752
G1 X131.159 Y120.000 E21.08357
G1 X131.457 Y120.107 E21.09008
G0 F10500 X131.706 Y120.304
G0 X135.505 Y122.598
G0 X135.752 Y122.797
G1 F1800 X134.990 Y124.085 E21.12083
G1 X134.242 Y125.827 E21.15979
G1 X134.207 Y125.907 E21.16159
G1 X133.668 Y127.661 E21.19929
G1 X133.184 Y129.717 E21.24270
G1 X138.466 Y131.754 E21.35904
G1 X138.515 Y131.773 E21.36012
G1 X138.314 Y133.283 E21.39143
G1 X138.263 Y134.419 E21.41480
G1 X138.261 Y134.472 E21.41589
G1 X138.290 Y135.266 E21.43221
G1 X135.385 Y134.213 E21.49571
G1 X134.915 Y134.042 E21.50599
G1 X135.188 Y136.078 E21.54821
G1 X135.624 Y137.813 E21.58497
G1 X136.285 Y139.530 E21.62278
G1 X136.318 Y139.611 E21.62458
G1 X137.252 Y141.311 E21.66444
G1 X138.407 Y142.897 E21.70476
G1 X138.462 Y142.971 E21.70665
G1 X139.792 Y144.348 E21.74600
G1 X139.857 Y144.416 E21.74793
G1 X141.366 Y145.609 E21.78746
G1 X141.439 Y145.667 E21.78938
G1 X143.101 Y146.653 E21.82909
G1 X143.183 Y146.702 E21.83105
G1 X145.057 Y147.498 E21.87290
G1 X146.826 Y147.997 E21.91067
G1 X148.271 Y148.237 E21.94077
G1 X149.784 Y148.340 E21.97194
G1 X149.857 Y148.344 E21.97344
G1 X151.605 Y148.262 E22.00940
G1 X151.691 Y148.257 E22.01117
G1 X153.437 Y147.957 E22.04758
G1 X154.929 Y147.531 E22.07946
G1 X156.374 Y146.952 E22.11145
G1 X157.975 Y146.087 E22.14885
G1 X159.447 Y145.043 E22.18594
G1 X160.723 Y143.893 E22.22124
G1 X162.971 Y144.711 E22.27040
G1 X163.211 Y144.799 E22.27565
G1 X164.139 Y143.713 E22.30501
G1 X164.894 Y142.617 E22.33236
G1 X165.563 Y141.486 E22.35936
G1 X165.726 Y141.215 E22.36586
G1 X159.564 Y138.971 E22.50063
G1 X159.545 Y138.964 E22.50105
G1 X160.269 Y137.436 E22.53579
G1 X160.899 Y135.501 E22.57761
G1 X160.929 Y135.411 E22.57956
G1 X161.246 Y133.685 E22.61563
G1 X161.262 Y133.603 E22.61734
G1 X161.361 Y132.214 E22.64596
G1 X161.367 Y132.145 E22.64738
G1 X161.339 Y131.002 E22.67088
G1 X164.673 Y132.208 E22.74374
G1 X165.162 Y132.387 E22.75444
G1 X164.889 Y130.350 E22.79668
G1 X164.447 Y128.614 E22.83349
G1 X163.777 Y126.885 E22.87160
G1 X162.776 Y125.047 E22.91461
G1 X161.604 Y123.456 E22.95522
G1 X160.209 Y122.011 E22.99649
G1 X158.627 Y120.760 E23.03794
G1 X156.883 Y119.725 E23.07962
G1 X155.082 Y118.960 E23.11983
G1 X153.239 Y118.429 E23.15924
G1 X151.493 Y118.158 E23.19556
G1 X149.586 Y118.086 E23.23477
G1 X147.844 Y118.241 E23.27071
G1 X147.758 Y118.249 E23.27249
G1 X146.037 Y118.619 E23.30866
G1 X144.793 Y119.015 E23.33549
G1 X143.680 Y119.479 E23.36027
G1 X142.079 Y120.343 E23.39766
G1 X140.611 Y121.379 E23.43458
G1 X139.335 Y122.529 E23.46989
G1 X136.733 Y121.582 E23.52679
G1 X135.752 Y122.797 E23.55888
G1 F1500 E22.05888
G0 F10500 X148.455 Y156.812
G1 F1500 E23.55888
G1 F1800 X147.974 Y157.049 E23.56990
G1 X147.518 Y157.371 E23.58137
G1 X147.302 Y157.566 E23.58735
G1 X146.945 Y157.969 E23.59842
G1 X146.650 Y158.432 E23.60970
G1 X146.421 Y158.956 E23.62145
G1 X146.279 Y159.510 E23.63320
G1 X146.238 Y159.844 E23.64012
G1 X146.227 Y160.118 E23.64575
G1 X146.264 Y160.634 E23.65639
G1 X146.380 Y161.153 E23.66731
G1 X146.466 Y161.402 E23.67273
G1 X146.693 Y161.879 E23.68358
G1 X146.980 Y162.308 E23.69419
G1 X147.357 Y162.721 E23.70568
G1 X147.782 Y163.062 E23.71688
G1 X148.275 Y163.343 E23.72854
G1 X148.800 Y163.541 E23.74007
G1 X149.353 Y163.654 E23.75167
G1 X149.921 Y163.679 E23.76336
G1 X150.490 Y163.611 E23.77513
G1 X151.045 Y163.453 E23.78699
G1 X151.568 Y163.206 E23.79888
G1 X152.004 Y162.910 E23.80971
G1 X152.393 Y162.551 E23.82059
G1 X152.726 Y162.138 E23.83149
G1 X152.996 Y161.676 E23.84249
G1 X153.194 Y161.175 E23.85356
G1 X153.313 Y160.660 E23.86442
G1 X153.355 Y160.119 E23.87557
G1 X153.328 Y159.683 E23.88455
G1 X153.250 Y159.261 E23.89337
G1 X153.072 Y158.726 E23.90495
G1 X152.809 Y158.222 E23.91664
G1 X152.466 Y157.762 E23.92843
G1 X152.052 Y157.362 E23.94026
G1 X151.575 Y157.031 E23.95219
G1 X151.101 Y156.801 E23.96302
G1 X150.566 Y156.638 E23.97451
G1 X150.076 Y156.564 E23.98469
G1 X149.988 Y156.560 E23.98651
G1 X149.464 Y156.568 E23.99727
G1 X149.003 Y156.640 E24.00686
G1 X148.455 Y156.812 E24.01867
G0 F10500 X148.080 Y155.806
;TYPE:FILL
G1 F1800 X128.622 Y136.347 E24.58419
G0 F10500 X128.507 Y135.615
G1 F1800 X148.551 Y155.658 E25.16671
G0 F10500 X149.057 Y155.547
G1 F1800 X128.462 Y134.952 E25.76526
G0 F10500 X128.416 Y134.288
G1 F1800 X137.233 Y143.104 E26.02149
G0 F10500 X135.995 Y141.248
G1 F1800 X128.372 Y133.626 E26.24302
G0 F10500 X128.765 Y133.401
G1 F1800 X135.291 Y139.927 E26.43268
G0 F10500 X134.893 Y138.911
G1 F1800 X129.737 Y133.755 E26.58253
G0 F10500 X130.710 Y134.109
G1 F1800 X134.556 Y137.955 E26.69431
G0 F10500 X134.348 Y137.130
G1 F1800 X130.860 Y133.641 E26.79569
G0 F10500 X130.946 Y133.110
G1 F1800 X134.140 Y136.304 E26.88852
G0 F10500 X134.042 Y135.588
G1 F1800 X131.031 Y132.577 E26.97603
G0 F10500 X131.118 Y132.045
G1 F1800 X133.947 Y134.874 E27.05825
G0 F10500 X133.851 Y134.161
G1 F1800 X131.203 Y131.513 E27.13521
G0 F10500 X131.289 Y130.981
G1 F1800 X133.756 Y133.448 E27.20690
G0 F10500 X133.660 Y132.734
G1 F1800 X131.397 Y130.471 E27.27267
G0 F10500 X131.518 Y129.974
G1 F1800 X134.179 Y132.635 E27.35001
G0 F10500 X135.150 Y132.988
G1 F1800 X132.928 Y130.765 E27.41460
G0 F10500 X133.934 Y131.154
G1 F1800 X136.120 Y133.340 E27.47813
G0 F10500 X137.089 Y133.691
G1 F1800 X134.940 Y131.542 E27.54059
G0 F10500 X135.946 Y131.929
G1 F1800 X137.243 Y133.227 E27.57830
G0 F10500 X137.313 Y132.679
G1 F1800 X136.952 Y132.318 E27.58879
G0 F10500 X132.043 Y129.881
G1 F1800 X131.699 Y129.227 E27.60054
G1 X132.220 Y129.130 E27.61220
G1 X131.941 Y128.234 E27.62372
G1 X132.397 Y128.380 E27.63356
G0 F10500 X132.514 Y127.880
G1 F1800 X126.857 Y122.223 E27.79797
G0 F10500 X127.074 Y121.822
G1 F1800 X132.632 Y127.380 E27.95950
G0 F10500 X132.778 Y126.907
G1 F1800 X127.291 Y121.421 E28.11895
G0 F10500 X127.509 Y121.020
G1 F1800 X132.923 Y126.434 E28.27630
G0 F10500 X133.069 Y125.962
G1 F1800 X127.733 Y120.626 E28.43138
G0 F10500 X127.975 Y120.251
G1 F1800 X133.218 Y125.493 E28.58374
G0 F10500 X133.402 Y125.059
G1 F1800 X128.541 Y120.198 E28.72501
G0 F10500 X129.505 Y120.545
G1 F1800 X133.586 Y124.626 E28.84362
G0 F10500 X133.770 Y124.191
G1 F1800 X130.470 Y120.891 E28.93952
G0 F10500 X131.434 Y121.237
G1 F1800 X133.954 Y123.757 E29.01276
G0 F10500 X134.175 Y123.361
G1 F1800 X131.982 Y121.167 E29.07651
G0 F10500 X132.255 Y120.822
G1 F1800 X134.404 Y122.972 E29.13898
G0 F10500 X134.634 Y122.584
G1 F1800 X132.527 Y120.476 E29.20023
G0 F10500 X132.799 Y120.131
G1 F1800 X134.864 Y122.195 E29.26023
G0 F10500 X135.138 Y121.852
G1 F1800 X133.071 Y119.785 E29.32031
G0 F10500 X133.344 Y119.440
G1 F1800 X135.414 Y121.509 E29.38045
G0 F10500 X135.690 Y121.167
G1 F1800 X133.617 Y119.094 E29.44070
G0 F10500 X133.911 Y118.771
G1 F1800 X135.966 Y120.826 E29.50042
G0 F10500 X136.242 Y120.483
G1 F1800 X134.213 Y118.455 E29.55938
G0 F10500 X134.516 Y118.139
G1 F1800 X136.869 Y120.492 E29.62776
G0 F10500 X137.840 Y120.845
G1 F1800 X134.818 Y117.823 E29.71559
G0 F10500 X135.120 Y117.507
G1 F1800 X138.811 Y121.198 E29.82286
G0 F10500 X139.321 Y121.091
G1 F1800 X135.442 Y117.212 E29.93560
G0 F10500 X135.777 Y116.928
G1 F1800 X139.645 Y120.796 E30.04801
G0 F10500 X139.979 Y120.512
G1 F1800 X136.110 Y116.644 E30.16044
G0 F10500 X136.444 Y116.360
G1 F1800 X140.341 Y120.256 E30.27368
G0 F10500 X140.703 Y120.000
G1 F1800 X136.778 Y116.075 E30.38776
G0 F10500 X137.136 Y115.816
G1 F1800 X141.066 Y119.745 E30.50196
G0 F10500 X141.428 Y119.489
G1 F1800 X137.501 Y115.563 E30.61607
G0 F10500 X137.866 Y115.310
G1 F1800 X141.820 Y119.263 E30.73097
G0 F10500 X142.221 Y119.047
G1 F1800 X138.230 Y115.056 E30.84696
G0 F10500 X138.597 Y114.804
G1 F1800 X142.623 Y118.830 E30.96397
G0 F10500 X143.024 Y118.613
G1 F1800 X138.988 Y114.577 E31.08127
G0 F10500 X139.378 Y114.349
G1 F1800 X143.444 Y118.415 E31.19944
G0 F10500 X143.880 Y118.233
G1 F1800 X139.773 Y114.127 E31.31878
G0 F10500 X140.184 Y113.919
G1 F1800 X144.316 Y118.052 E31.43889
G0 F10500 X144.777 Y117.895
G1 F1800 X140.595 Y113.712 E31.56044
G0 F10500 X141.016 Y113.516
G1 F1800 X145.246 Y117.746 E31.68338
G0 F10500 X145.714 Y117.596
G1 F1800 X141.457 Y113.338 E31.80711
G0 F10500 X141.897 Y113.161
G1 F1800 X146.220 Y117.483 E31.93274
G0 F10500 X146.728 Y117.374
G1 F1800 X142.338 Y112.983 E32.06034
G0 F10500 X142.779 Y112.806
G1 F1800 X147.238 Y117.265 E32.18993
G0 F10500 X147.763 Y117.172
G1 F1800 X143.239 Y112.648 E32.32141
G0 F10500 X143.720 Y112.511
G1 F1800 X148.330 Y117.121 E32.45539
G0 F10500 X148.898 Y117.071
G1 F1800 X144.201 Y112.374 E32.59190
G0 F10500 X144.683 Y112.238
G1 F1800 X149.465 Y117.020 E32.73087
G0 F10500 X150.095 Y117.032
G1 F1800 X145.164 Y112.101 E32.87418
G0 F10500 X145.690 Y112.009
G1 F1800 X150.738 Y117.057 E33.02089
G0 F10500 X151.380 Y117.081
G1 F1800 X146.216 Y111.917 E33.17097
G0 F10500 X146.741 Y111.824
G1 F1800 X152.082 Y117.165 E33.32620
G0 F10500 X152.814 Y117.279
G1 F1800 X147.267 Y111.732 E33.48741
G0 F10500 X147.820 Y111.667
G1 F1800 X153.560 Y117.407 E33.65423
G0 F10500 X154.427 Y117.656
G1 F1800 X148.404 Y111.633 E33.82928
G0 F10500 X148.987 Y111.598
G1 F1800 X155.295 Y117.906 E34.01260
G0 F10500 X156.336 Y118.329
G1 F1800 X149.570 Y111.563 E34.20924
G0 F10500 X150.187 Y111.562
G1 F1800 X157.430 Y118.805 E34.41975
G0 F10500 X158.949 Y119.706
G1 F1800 X150.835 Y111.592 E34.65556
G0 F10500 X151.484 Y111.623
G1 F1800 X171.621 Y131.760 E35.24080
G0 F10500 X171.578 Y131.099
G1 F1800 X152.132 Y111.653 E35.80596
G0 F10500 X152.856 Y111.759
G1 F1800 X171.500 Y130.403 E36.34780
G0 F10500 X171.370 Y129.655
G1 F1800 X153.589 Y111.874 E36.86457
G0 F10500 X154.321 Y111.988
G1 F1800 X171.240 Y128.906 E37.35627
G0 F10500 X171.085 Y128.134
G1 F1800 X155.144 Y112.193 E37.81956
G0 F10500 X155.989 Y112.420
G1 F1800 X170.841 Y127.272 E38.25120
G0 F10500 X170.597 Y126.410
G1 F1800 X156.859 Y112.672 E38.65047
G0 F10500 X157.863 Y113.057
G1 F1800 X170.214 Y125.409 E39.00944
G0 F10500 X169.794 Y124.370
G1 F1800 X158.866 Y113.443 E39.32702
G0 F10500 X160.106 Y114.065
G1 F1800 X169.238 Y123.197 E39.59242
G0 F10500 X168.435 Y121.776
G1 F1800 X161.559 Y114.900 E39.79226
G0 F10500 X163.736 Y116.459
G1 F1800 X166.833 Y119.556 E39.88227
G0 F10500 X163.592 Y124.349
G1 F1800 X171.665 Y132.422 E40.11689
G0 F10500 X171.681 Y133.056
G1 F1800 X164.381 Y125.756 E40.32905
G0 F10500 X164.947 Y126.940
G1 F1800 X170.875 Y132.868 E40.50133
G0 F10500 X169.904 Y132.515
G1 F1800 X165.348 Y127.959 E40.63374
G0 F10500 X165.607 Y128.836
G1 F1800 X169.249 Y132.478 E40.73959
G0 F10500 X169.175 Y133.022
G1 F1800 X165.818 Y129.665 E40.83716
G0 F10500 X165.980 Y130.445
G1 F1800 X169.101 Y133.566 E40.92786
G0 F10500 X169.026 Y134.109
G1 F1800 X166.076 Y131.159 E41.01360
G0 F10500 X166.172 Y131.873
G1 F1800 X168.952 Y134.653 E41.09439
G0 F10500 X168.877 Y135.196
G1 F1800 X166.267 Y132.586 E41.17024
G0 F10500 X166.363 Y133.300
G1 F1800 X168.803 Y135.740 E41.24116
G0 F10500 X168.710 Y136.265
G1 F1800 X166.442 Y133.997 E41.30707
G0 F10500 X165.467 Y133.640
G1 F1800 X168.589 Y136.762 E41.39781
G0 F10500 X168.469 Y137.260
G1 F1800 X164.491 Y133.282 E41.51342
G0 F10500 X163.521 Y132.931
G1 F1800 X168.348 Y137.757 E41.65369
G0 F10500 X168.227 Y138.254
G1 F1800 X162.553 Y132.580 E41.81859
G0 F10500 X162.375 Y133.020
G1 F1800 X168.070 Y138.715 E41.98411
G0 F10500 X167.913 Y139.176
G1 F1800 X162.334 Y133.597 E42.14625
G0 F10500 X162.251 Y134.132
G1 F1800 X167.756 Y139.638 E42.30625
G0 F10500 X167.592 Y140.091
G1 F1800 X162.155 Y134.655 E42.46425
G0 F10500 X162.060 Y135.177
G1 F1800 X167.405 Y140.522 E42.61959
G0 F10500 X166.693 Y140.428
G1 F1800 X161.961 Y135.696 E42.75712
G0 F10500 X161.810 Y136.163
G1 F1800 X165.721 Y140.074 E42.87078
G0 F10500 X166.931 Y141.284
G1 F1800 X166.865 Y141.527 E42.87371
G1 X166.656 Y141.936 E42.87794
G1 X166.448 Y142.346 E42.88348
G1 X166.472 Y142.679 E42.89034
G0 F10500 X166.008 Y142.834
G1 F1800 X168.240 Y145.065 E42.95519
G0 F10500 X167.967 Y145.410
G1 F1800 X165.777 Y143.220 E43.01884
G0 F10500 X165.525 Y143.586
G1 F1800 X167.695 Y145.756 E43.08191
G0 F10500 X167.423 Y146.102
G1 F1800 X165.273 Y143.952 E43.14439
G0 F10500 X165.021 Y144.318
G1 F1800 X167.150 Y146.448 E43.20628
G0 F10500 X166.877 Y146.793
G1 F1800 X164.740 Y144.655 E43.26840
G0 F10500 X164.456 Y144.989
G1 F1800 X166.605 Y147.139 E43.33087
G0 F10500 X166.333 Y147.484
G1 F1800 X164.171 Y145.322 E43.39371
G0 F10500 X163.886 Y145.655
G1 F1800 X166.030 Y147.799 E43.45602
G0 F10500 X165.726 Y148.114
G1 F1800 X163.601 Y145.988 E43.51779
G0 F10500 X162.775 Y145.780
G1 F1800 X165.423 Y148.428 E43.59475
G0 F10500 X165.120 Y148.743
G1 F1800 X161.802 Y145.425 E43.69118
G0 F10500 X160.921 Y145.162
G1 F1800 X164.812 Y149.053 E43.80426
G0 F10500 X164.478 Y149.338
G1 F1800 X160.597 Y145.456 E43.91707
G0 F10500 X160.274 Y145.751
G1 F1800 X164.144 Y149.622 E44.02956
G0 F10500 X163.811 Y149.906
G1 F1800 X159.923 Y146.018 E44.14255
G0 F10500 X159.563 Y146.277
G1 F1800 X163.477 Y150.190 E44.25629
G0 F10500 X163.135 Y150.467
G1 F1800 X159.204 Y146.535 E44.37055
G0 F10500 X158.844 Y146.793
G1 F1800 X162.771 Y150.720 E44.48468
G0 F10500 X162.406 Y150.973
G1 F1800 X158.470 Y147.037 E44.59907
G0 F10500 X158.068 Y147.254
G1 F1800 X162.041 Y151.226 E44.71453
G0 F10500 X161.676 Y151.479
G1 F1800 X157.667 Y147.471 E44.83102
G0 F10500 X157.266 Y147.687
G1 F1800 X161.298 Y151.719 E44.94821
G0 F10500 X160.907 Y151.947
G1 F1800 X156.864 Y147.904 E45.06571
G0 F10500 X156.426 Y148.084
G1 F1800 X160.516 Y152.174 E45.18457
G0 F10500 X160.113 Y152.388
G1 F1800 X155.985 Y148.261 E45.30453
G0 F10500 X155.544 Y148.437
G1 F1800 X159.702 Y152.595 E45.42537
G0 F10500 X159.291 Y152.802
G1 F1800 X155.088 Y148.599 E45.54752
G0 F10500 X154.609 Y148.739
G1 F1800 X158.854 Y152.983 E45.67088
G0 F10500 X158.414 Y153.162
G1 F1800 X154.130 Y148.878 E45.79539
G0 F10500 X153.641 Y149.007
G1 F1800 X158.135 Y153.500 E45.92598
G0 F10500 X157.935 Y153.918
G1 F1800 X153.114 Y149.098 E46.06608
G0 F10500 X152.587 Y149.189
G1 F1800 X157.734 Y154.335 E46.21565
G0 F10500 X157.534 Y154.753
G1 F1800 X152.060 Y149.280 E46.37473
G0 F10500 X151.501 Y149.339
G1 F1800 X157.334 Y155.171 E46.54423
G0 F10500 X157.133 Y155.589
G1 F1800 X150.911 Y149.367 E46.72506
G0 F10500 X150.321 Y149.394
G1 F1800 X156.933 Y156.006 E46.91723
G0 F10500 X156.733 Y156.424
G1 F1800 X149.717 Y149.409 E47.12112
G0 F10500 X149.054 Y149.364
G1 F1800 X156.532 Y156.842 E47.33845
G0 F10500 X156.332 Y157.260
G1 F1800 X148.390 Y149.318 E47.56927
G0 F10500 X147.677 Y149.223
G1 F1800 X156.132 Y157.677 E47.81498
G0 F10500 X155.931 Y158.095
G1 F1800 X146.936 Y149.099 E48.07641
G0 F10500 X146.130 Y148.912
G1 F1800 X155.731 Y158.513 E48.35545
G0 F10500 X155.531 Y158.931
G1 F1800 X145.270 Y148.669 E48.65367
G0 F10500 X144.337 Y148.355
G1 F1800 X152.053 Y156.071 E48.87792
G0 F10500 X151.019 Y155.655
G1 F1800 X143.263 Y147.899 E49.10333
G0 F10500 X141.977 Y147.231
G1 F1800 X150.253 Y155.507 E49.34386
G0 F10500 X149.621 Y155.493
G1 F1800 X140.104 Y145.975 E49.62046
G0 F10500 X140.686 Y152.738
G1 F1800 X130.465 Y142.517 E49.91752
G0 F10500 X130.031 Y141.465
G1 F1800 X141.765 Y153.198 E50.25852
G0 F10500 X141.967 Y153.401
G1 F1800 X146.009 Y157.443 E50.37600
G0 F10500 X146.284 Y157.100
G1 F1800 X129.611 Y140.427 E50.86056
G0 F10500 X131.136 Y143.806
G1 F1800 X139.395 Y152.065 E51.10059
G0 F10500 X137.731 Y151.019
G1 F1800 X132.210 Y145.498 E51.26105
G0 F10500 X129.335 Y139.533
G1 F1800 X146.578 Y156.776 E51.76218
G0 F10500 X146.909 Y156.489
G1 F1800 X129.090 Y138.670 E52.28005
G0 F10500 X128.883 Y137.845
G1 F1800 X147.271 Y156.233 E52.81446
G0 F10500 X147.663 Y156.007
G1 F1800 X128.752 Y137.096 E53.36406
G0 F10500 X130.206 Y133.155
G0 X131.714 Y127.697
G1 F1800 X126.672 Y122.656 E53.51058
G0 F10500 X126.487 Y123.088
G1 F1800 X130.741 Y127.343 E53.63423
G0 F10500 X129.769 Y126.989
G1 F1800 X126.302 Y123.522 E53.73499
G0 F10500 X126.118 Y123.955
G1 F1800 X128.798 Y126.635 E53.81288
G0 F10500 X127.825 Y126.281
G1 F1800 X125.932 Y124.388 E53.86790
G0 F10500 X125.783 Y124.857
G1 F1800 X126.853 Y125.927 E53.89899
G0 F10500 X125.881 Y125.572
G1 F1800 X125.638 Y125.329 E53.90606
G0 F10500 X131.213 Y128.263
G0 X130.206 Y133.155
G0 X141.867 Y153.919
G1 F1800 X145.769 Y157.821 E54.01946
G0 F10500 X145.566 Y158.236
G1 F1800 X142.094 Y154.764 E54.12037
G0 F10500 X142.733 Y156.021
G1 F1800 X145.386 Y158.674 E54.19747
G0 F10500 X145.261 Y159.167
G1 F1800 X143.372 Y157.278 E54.25237
G0 F10500 X144.012 Y158.536
G1 F1800 X145.176 Y159.700 E54.28620
G0 F10500 X144.651 Y159.793
G1 F1800 X145.166 Y160.308 E54.30117
G0 F10500 X147.547 Y163.409
G0 X149.936 Y164.097
G0 X152.264 Y163.238
G0 X154.250 Y161.358
G1 F1800 X154.429 Y161.228 E54.30344
G1 X154.548 Y160.729 E54.30815
G1 X154.672 Y160.235 E54.31730
G1 X154.398 Y159.652 E54.33054
G0 F10500 X155.130 Y159.766
G1 F1800 X154.254 Y158.890 E54.35600
G0 F10500 X153.811 Y157.829
G1 F1800 X155.330 Y159.348 E54.40014
G0 F10500 X158.758 Y153.743
G0 X169.152 Y145.359
G1 F1800 X167.095 Y143.302 E54.45992
G0 F10500 X168.070 Y143.660
G1 F1800 X170.122 Y145.712 E54.51956
G0 F10500 X171.092 Y146.064
G1 F1800 X169.045 Y144.017 E54.57905
G0 F10500 X170.020 Y144.373
G1 F1800 X171.654 Y146.007 E54.62654
G0 F10500 X171.896 Y145.632
G1 F1800 X170.995 Y144.730 E54.65274
G0 F10500 X171.970 Y145.087
G1 F1800 X172.121 Y145.239 E54.65714
G0 F10500 X167.282 Y142.609
G0 X167.558 Y141.822
G0 X164.748 Y139.720
G1 F1800 X161.660 Y136.632 E54.74689
G0 F10500 X161.510 Y137.100
G1 F1800 X163.775 Y139.365 E54.81272
G0 F10500 X162.803 Y139.010
G1 F1800 X161.361 Y137.569 E54.85461
G0 F10500 X161.182 Y138.007
G1 F1800 X161.831 Y138.656 E54.87347
;LAYER:1
M106 S63
G0 F10500 X160.448 Y138.594 Z0.510
;TYPE:WALL-INNER
G1 F2520 X160.825 Y137.796 E54.88364
G1 X160.922 Y137.594 E54.88622
G1 X161.500 Y135.780 E54.90816
G1 X161.567 Y135.572 E54.91068
G1 X161.879 Y133.880 E54.93050
G1 X161.914 Y133.686 E54.93277
G1 X162.013 Y132.319 E54.94856
G1 X162.025 Y132.160 E54.95040
G1 X162.020 Y131.947 E54.95285
G1 X164.289 Y132.768 E54.98065
G1 X165.957 Y133.374 E55.00110
G1 X165.552 Y130.347 E55.03629
G1 X165.525 Y130.152 E55.03856
G1 X165.102 Y128.523 E55.05795
G1 X165.051 Y128.329 E55.06026
G1 X164.402 Y126.680 E55.08068
G1 X163.333 Y124.695 E55.10665
G1 X162.107 Y123.031 E55.13046
G1 X160.651 Y121.523 E55.15462
G1 X159.000 Y120.217 E55.17887
G1 X157.180 Y119.138 E55.20325
G1 X155.432 Y118.395 E55.22513
G1 X155.228 Y118.307 E55.22769
G1 X153.379 Y117.785 E55.24983
G1 X151.682 Y117.522 E55.26961
G1 X151.483 Y117.491 E55.27193
G1 X149.568 Y117.428 E55.29401
G1 X147.860 Y117.580 E55.31376
G1 X147.659 Y117.599 E55.31609
G1 X145.945 Y117.966 E55.33629
G1 X144.568 Y118.397 E55.35291
G1 X143.447 Y118.865 E55.36691
G1 X141.846 Y119.722 E55.38783
G1 X141.665 Y119.821 E55.39020
G1 X140.290 Y120.801 E55.40966
G1 X140.128 Y120.916 E55.41195
G1 X139.186 Y121.776 E55.42664
G1 X136.517 Y120.804 E55.45937
G1 X135.290 Y122.325 E55.48189
G1 X135.174 Y122.469 E55.48402
G1 X134.454 Y123.701 E55.50046
G1 X134.365 Y123.852 E55.50248
G1 X133.668 Y125.497 E55.52306
G1 X133.589 Y125.682 E55.52538
G1 X133.058 Y127.411 E55.54622
G1 X132.411 Y130.123 E55.57834
G1 X137.796 Y132.199 E55.64483
G1 X137.675 Y133.107 E55.65539
G1 X137.648 Y133.294 E55.65756
G1 X137.610 Y134.320 E55.66939
G1 X135.751 Y133.647 E55.69217
G1 X134.120 Y133.052 E55.71217
G1 X134.525 Y136.082 E55.74740
G1 X134.552 Y136.276 E55.74965
G1 X134.969 Y137.904 E55.76901
G1 X135.019 Y138.098 E55.77132
G1 X135.646 Y139.698 E55.79112
G1 X135.722 Y139.890 E55.79350
G1 X136.628 Y141.540 E55.81519
G1 X136.735 Y141.735 E55.81775
G1 X137.830 Y143.220 E55.83901
G1 X137.959 Y143.396 E55.84152
G1 X139.262 Y144.745 E55.86313
G1 X139.415 Y144.904 E55.86567
G1 X140.892 Y146.071 E55.88736
G1 X141.065 Y146.209 E55.88991
G1 X142.693 Y147.175 E55.91172
G1 X142.885 Y147.289 E55.91430
G1 X144.839 Y148.119 E55.93876
G1 X146.683 Y148.639 E55.96083
G1 X148.130 Y148.879 E55.97773
G1 X149.675 Y148.991 E55.99558
G1 X149.851 Y149.002 E55.99761
G1 X151.561 Y148.922 E56.01733
G1 X151.764 Y148.911 E56.01967
G1 X153.473 Y148.617 E56.03965
G1 X153.670 Y148.583 E56.04196
G1 X155.043 Y148.183 E56.05843
G1 X156.551 Y147.589 E56.07711
G1 X156.715 Y147.522 E56.07915
G1 X158.222 Y146.701 E56.09892
G1 X158.400 Y146.603 E56.10126
G1 X159.769 Y145.621 E56.12067
G1 X159.930 Y145.506 E56.12295
G1 X160.872 Y144.646 E56.13765
G1 X162.641 Y145.290 E56.15934
G1 X163.415 Y145.572 E56.16883
G1 X164.594 Y144.192 E56.18974
G1 X164.696 Y144.073 E56.19155
G1 X165.417 Y143.017 E56.20628
G1 X166.101 Y141.868 E56.22168
G1 X166.693 Y140.867 E56.23508
G1 X160.448 Y138.594 E56.31165
G0 F10500 X166.107 Y141.077
G0 X166.881 Y142.783
G1 F2520 X172.754 Y144.934 E56.38371
G1 X172.338 Y145.713 E56.39389
G1 X171.686 Y146.720 E56.40771
G1 X168.403 Y145.529 E56.44795
G1 X166.643 Y147.760 E56.48069
G1 X165.130 Y149.330 E56.50581
G1 X163.494 Y150.722 E56.53056
G1 X161.705 Y151.964 E56.55565
G1 X160.570 Y152.625 E56.57078
G1 X159.448 Y153.190 E56.58526
G1 X158.571 Y153.550 E56.59618
G1 X154.223 Y162.621 E56.71208
G1 X153.623 Y163.871 E56.72805
G1 X151.698 Y163.871 E56.75023
G1 X151.895 Y163.778 E56.75274
G1 X152.414 Y163.426 E56.75996
G1 X152.874 Y163.001 E56.76718
G1 X153.269 Y162.512 E56.77442
G1 X153.588 Y161.964 E56.78173
G1 X153.823 Y161.371 E56.78908
G1 X153.964 Y160.760 E56.79630
G1 X154.013 Y160.124 E56.80365
G1 X153.981 Y159.601 E56.80969
G1 X153.878 Y159.060 E56.81603
G1 X153.676 Y158.462 E56.82331
G1 X153.367 Y157.871 E56.83099
G1 X152.961 Y157.327 E56.83881
G1 X152.470 Y156.853 E56.84667
G1 X151.908 Y156.462 E56.85456
G1 X151.342 Y156.188 E56.86181
G1 X150.714 Y155.996 E56.86937
G1 X150.083 Y155.903 E56.87672
G1 X149.448 Y155.906 E56.88404
G1 X148.817 Y156.006 E56.89140
G1 X148.207 Y156.202 E56.89878
G1 X147.642 Y156.481 E56.90604
G1 X147.234 Y156.757 E56.91172
G1 X146.822 Y157.115 E56.91800
G1 X146.418 Y157.574 E56.92505
G1 X146.057 Y158.142 E56.93280
G1 X145.796 Y158.750 E56.94043
G1 X145.690 Y159.116 E56.94482
G1 X145.625 Y159.431 E56.94852
G1 X145.582 Y159.792 E56.95271
G1 X145.569 Y160.129 E56.95660
G1 X145.613 Y160.734 E56.96359
G1 X145.749 Y161.345 E56.97080
G1 X145.978 Y161.933 E56.97807
G1 X146.292 Y162.483 E56.98536
G1 X146.681 Y162.973 E56.99257
G1 X146.959 Y163.247 E56.99707
G1 X147.441 Y163.623 E57.00411
G1 X147.735 Y163.802 E57.00808
G1 X147.874 Y163.871 E57.00987
G1 X146.259 Y163.871 E57.02847
G1 X145.615 Y162.604 E57.04485
G1 X141.378 Y154.269 E57.15258
G1 X141.518 Y153.551 E57.16100
G1 X140.767 Y153.248 E57.17033
G1 X138.980 Y152.315 E57.19356
G1 X138.706 Y152.155 E57.19722
G1 X137.035 Y151.063 E57.22022
G1 X135.351 Y149.710 E57.24510
G1 X133.817 Y148.207 E57.26985
G1 X132.428 Y146.550 E57.29476
G1 X131.291 Y144.885 E57.31799
G1 X130.634 Y143.765 E57.33295
G1 X130.069 Y142.650 E57.34735
G1 X129.187 Y140.483 E57.37431
G1 X129.131 Y140.343 E57.37604
G1 X128.538 Y138.245 E57.40116
G1 X128.497 Y138.102 E57.40288
G1 X128.126 Y135.924 E57.42833
G1 X128.099 Y135.764 E57.43020
G1 X127.968 Y133.774 E57.45318
G1 X127.958 Y133.636 E57.45477
G1 X127.988 Y132.679 E57.46580
G1 X130.453 Y133.576 E57.49603
G1 X130.921 Y130.683 E57.52979
G1 X131.556 Y128.080 E57.56066
G1 X125.083 Y125.724 E57.64003
G1 X125.515 Y124.331 E57.65683
G1 X126.450 Y122.123 E57.68446
G1 X126.515 Y121.974 E57.68633
G1 X127.283 Y120.570 E57.70477
G1 X127.945 Y119.543 E57.71884
G1 X130.775 Y120.560 E57.75349
G1 X131.680 Y120.885 E57.76457
G1 X133.346 Y118.773 E57.79556
G1 X133.439 Y118.655 E57.79729
G1 X134.946 Y117.090 E57.82233
G1 X136.580 Y115.700 E57.84704
G1 X138.367 Y114.460 E57.87210
G1 X139.500 Y113.801 E57.88720
G1 X140.684 Y113.204 E57.90248
G1 X142.766 Y112.365 E57.92834
G1 X142.911 Y112.306 E57.93015
G1 X144.975 Y111.723 E57.95486
G1 X147.494 Y111.272 E57.98434
G1 X149.700 Y111.140 E58.00980
G1 X149.854 Y111.130 E58.01158
G1 X152.071 Y111.235 E58.03715
G1 X152.233 Y111.243 E58.03902
G1 X154.430 Y111.587 E58.06464
G1 X156.706 Y112.181 E58.09174
G1 X159.145 Y113.108 E58.12181
G1 X161.070 Y114.093 E58.14672
G1 X162.885 Y115.258 E58.17157
G1 X164.467 Y116.508 E58.19480
G1 X164.584 Y116.601 E58.19652
G1 X166.030 Y117.994 E58.21965
G1 X167.438 Y119.626 E58.24449
G1 X168.664 Y121.364 E58.26899
G1 X169.382 Y122.572 E58.28518
G1 X169.992 Y123.768 E58.30065
G1 X170.877 Y125.937 E58.32764
G1 X170.935 Y126.079 E58.32941
G1 X171.515 Y128.133 E58.35400
G1 X171.964 Y130.645 E58.38340
G1 X172.104 Y132.775 E58.40799
G1 X172.073 Y133.744 E58.41916
G1 X169.617 Y132.851 E58.44927
G1 X169.175 Y136.085 E58.48688
G1 X169.153 Y136.242 E58.48871
G1 X168.653 Y138.265 E58.51272
G1 X168.049 Y140.064 E58.53458
G1 X166.881 Y142.783 E58.56868
G0 F10500 X167.349 Y142.581
G1 F2520 X173.253 Y144.743 E58.64112
G1 X172.641 Y145.888 E58.65607
G1 X171.828 Y147.144 E58.67331
G1 X168.522 Y145.944 E58.71383
G1 X166.909 Y147.988 E58.74383
G1 X165.373 Y149.583 E58.76934
G1 X163.700 Y151.006 E58.79465
G1 X161.905 Y152.252 E58.81983
G1 X160.734 Y152.933 E58.83543
G1 X159.606 Y153.502 E58.84999
G1 X158.828 Y153.824 E58.85969
G1 X154.539 Y162.772 E58.97401
G1 X153.844 Y164.221 E58.99253
G1 X146.044 Y164.221 E59.08240
G1 X145.303 Y162.762 E59.10125
G1 X141.012 Y154.320 E59.21036
G1 X141.119 Y153.768 E59.21684
G1 X140.609 Y153.561 E59.22318
G1 X138.822 Y152.628 E59.24641
G1 X138.518 Y152.450 E59.25046
G1 X136.832 Y151.348 E59.27367
G1 X135.118 Y149.972 E59.29899
G1 X133.555 Y148.440 E59.32421
G1 X132.155 Y146.770 E59.34932
G1 X131.002 Y145.083 E59.37286
G1 X130.324 Y143.928 E59.38829
G1 X129.752 Y142.799 E59.40287
G1 X128.863 Y140.616 E59.43003
G1 X128.797 Y140.451 E59.43208
G1 X128.201 Y138.341 E59.45734
G1 X128.154 Y138.177 E59.45930
G1 X127.781 Y135.983 E59.48495
G1 X127.751 Y135.807 E59.48700
G1 X127.619 Y133.798 E59.51020
G1 X127.608 Y133.640 E59.51202
G1 X127.653 Y132.184 E59.52881
G1 X130.175 Y133.102 E59.55973
G1 X130.577 Y130.619 E59.58871
G1 X131.141 Y128.302 E59.61618
G1 X124.715 Y125.962 E59.69498
G1 X124.649 Y125.938 E59.69579
G1 X125.180 Y124.228 E59.71642
G1 X125.232 Y124.061 E59.71843
G1 X126.129 Y121.983 E59.74451
G1 X126.199 Y121.822 E59.74653
G1 X126.979 Y120.396 E59.76526
G1 X127.802 Y119.120 E59.78275
G1 X130.894 Y120.231 E59.82061
G1 X131.561 Y120.471 E59.82877
G1 X133.071 Y118.555 E59.85688
G1 X133.169 Y118.431 E59.85870
G1 X134.704 Y116.837 E59.88420
G1 X136.374 Y115.416 E59.90946
G1 X138.167 Y114.171 E59.93461
G1 X139.336 Y113.492 E59.95019
G1 X140.547 Y112.881 E59.96581
G1 X142.635 Y112.040 E59.99175
G1 X142.799 Y111.974 E59.99379
G1 X144.890 Y111.383 E60.01882
G1 X147.454 Y110.924 E60.04883
G1 X149.679 Y110.791 E60.07451
G1 X149.857 Y110.780 E60.07657
G1 X152.088 Y110.885 E60.10230
G1 X152.257 Y110.893 E60.10425
G1 X154.487 Y111.242 E60.13026
G1 X156.814 Y111.848 E60.15796
G1 X159.292 Y112.789 E60.18850
G1 X161.235 Y113.784 E60.21365
G1 X163.095 Y114.978 E60.23912
G1 X164.685 Y116.233 E60.26245
G1 X164.809 Y116.331 E60.26427
G1 X166.273 Y117.742 E60.28770
G1 X166.386 Y117.851 E60.28951
G1 X167.704 Y119.399 E60.31293
G1 X167.809 Y119.522 E60.31480
G1 X168.961 Y121.179 E60.33805
G1 X169.680 Y122.388 E60.35426
G1 X170.315 Y123.633 E60.37036
G1 X171.202 Y125.806 E60.39740
G1 X171.268 Y125.972 E60.39946
G1 X171.855 Y128.048 E60.42431
G1 X172.312 Y130.605 E60.45424
G1 X172.454 Y132.766 E60.47919
G1 X172.407 Y134.238 E60.49616
G1 X169.905 Y133.328 E60.52683
G1 X169.522 Y136.134 E60.55946
G1 X169.499 Y136.297 E60.56136
G1 X168.986 Y138.374 E60.58601
G1 X168.374 Y140.196 E60.60815
G1 X167.349 Y142.581 E60.63806
G0 F10500 X166.177 Y141.052
G1 F2520 X159.967 Y138.791 E60.71421
G1 X160.510 Y137.645 E60.72882
G1 X160.595 Y137.465 E60.73111
G1 X161.165 Y135.676 E60.75274
G1 X161.227 Y135.486 E60.75505
G1 X161.534 Y133.817 E60.77460
G1 X161.567 Y133.641 E60.77666
G1 X161.664 Y132.294 E60.79222
G1 X161.674 Y132.151 E60.79387
G1 X161.657 Y131.444 E60.80202
G1 X164.408 Y132.439 E60.83573
G1 X164.587 Y131.945 E60.84178
G1 X164.408 Y132.438 E60.84782
G1 X165.533 Y132.847 E60.86161
G1 X165.205 Y130.395 E60.89012
G1 X165.181 Y130.220 E60.89215
G1 X164.763 Y128.611 E60.91130
G1 X164.718 Y128.438 E60.91336
G1 X164.084 Y126.828 E60.93330
G1 X163.037 Y124.882 E60.95876
G1 X161.839 Y123.257 E60.98202
G1 X160.415 Y121.783 E61.00563
G1 X158.801 Y120.506 E61.02935
G1 X157.022 Y119.451 E61.05318
G1 X155.294 Y118.716 E61.07481
G1 X155.111 Y118.638 E61.07710
G1 X153.304 Y118.128 E61.09874
G1 X151.629 Y117.868 E61.11826
G1 X151.450 Y117.840 E61.12035
G1 X149.577 Y117.778 E61.14194
G1 X147.892 Y117.928 E61.16143
G1 X147.712 Y117.945 E61.16352
G1 X146.034 Y118.305 E61.18329
G1 X144.688 Y118.726 E61.19954
G1 X143.597 Y119.181 E61.21316
G1 X142.012 Y120.030 E61.23387
G1 X141.851 Y120.118 E61.23599
G1 X140.493 Y121.086 E61.25520
G1 X140.348 Y121.189 E61.25725
G1 X139.265 Y122.177 E61.27414
G1 X136.632 Y121.218 E61.30643
G1 X135.562 Y122.544 E61.32606
G1 X135.463 Y122.668 E61.32789
G1 X134.758 Y123.875 E61.34399
G1 X134.678 Y124.010 E61.34580
G1 X133.990 Y125.634 E61.36612
G1 X133.918 Y125.802 E61.36823
G1 X133.396 Y127.503 E61.38873
G1 X132.823 Y129.907 E61.41720
G1 X138.128 Y131.953 E61.48271
G1 X138.179 Y131.973 E61.48334
G1 X138.022 Y133.155 E61.49708
G1 X137.997 Y133.325 E61.49906
G1 X137.958 Y134.362 E61.51101
G1 X137.954 Y134.471 E61.51227
G1 X137.966 Y134.822 E61.51632
G1 X135.632 Y133.976 E61.54492
G1 X134.544 Y133.579 E61.55826
G1 X134.872 Y136.034 E61.58680
G1 X134.896 Y136.208 E61.58882
G1 X135.308 Y137.816 E61.60795
G1 X135.353 Y137.989 E61.61001
G1 X135.971 Y139.570 E61.62957
G1 X136.039 Y139.741 E61.63169
G1 X136.935 Y141.372 E61.65313
G1 X137.031 Y141.546 E61.65542
G1 X138.111 Y143.013 E61.67641
G1 X138.227 Y143.169 E61.67864
G1 X139.513 Y144.502 E61.69999
G1 X139.651 Y144.644 E61.70227
G1 X141.108 Y145.796 E61.72367
G1 X141.264 Y145.920 E61.72596
G1 X142.873 Y146.875 E61.74752
G1 X143.044 Y146.976 E61.74981
G1 X144.955 Y147.788 E61.77373
G1 X146.759 Y148.297 E61.79533
G1 X148.171 Y148.531 E61.81182
G1 X149.699 Y148.642 E61.82947
G1 X149.854 Y148.652 E61.83126
G1 X151.543 Y148.572 E61.85074
G1 X151.725 Y148.563 E61.85284
G1 X153.413 Y148.272 E61.87257
G1 X153.590 Y148.241 E61.87464
G1 X154.944 Y147.847 E61.89089
G1 X155.089 Y147.804 E61.89263
G1 X156.419 Y147.265 E61.90917
G1 X156.564 Y147.206 E61.91097
G1 X158.054 Y146.394 E61.93052
G1 X158.213 Y146.306 E61.93262
G1 X159.566 Y145.336 E61.95180
G1 X159.710 Y145.233 E61.95384
G1 X160.793 Y144.245 E61.97073
G1 X162.761 Y144.961 E61.99486
G1 X163.307 Y145.160 E62.00155
G1 X164.328 Y143.964 E62.01967
G1 X165.122 Y142.829 E62.03563
G1 X165.800 Y141.690 E62.05090
G1 X166.177 Y141.052 E62.05944
G0 F10500 X163.302 Y145.147
G0 X152.247 Y157.124
G1 F2520 X151.731 Y156.765 E62.06668
G1 X151.213 Y156.515 E62.07331
G1 X150.637 Y156.338 E62.08025
G1 X150.058 Y156.253 E62.08699
G1 X149.476 Y156.256 E62.09370
G1 X148.898 Y156.348 E62.10044
G1 X148.338 Y156.527 E62.10721
G1 X147.818 Y156.784 E62.11390
G1 X147.448 Y157.035 E62.11905
G1 X147.069 Y157.364 E62.12483
G1 X146.699 Y157.785 E62.13129
G1 X146.367 Y158.306 E62.13841
G1 X146.126 Y158.869 E62.14546
G1 X145.971 Y159.487 E62.15280
G1 X145.931 Y159.820 E62.15667
G1 X145.919 Y160.123 E62.16016
G1 X145.960 Y160.683 E62.16663
G1 X146.085 Y161.243 E62.17324
G1 X146.295 Y161.782 E62.17991
G1 X146.583 Y162.286 E62.18659
G1 X146.942 Y162.738 E62.19324
G1 X147.190 Y162.983 E62.19726
G1 X147.640 Y163.335 E62.20384
G1 X147.904 Y163.495 E62.20740
G1 X148.262 Y163.674 E62.21201
G1 X148.719 Y163.838 E62.21761
G1 X149.316 Y163.960 E62.22463
G1 X149.933 Y163.986 E62.23174
G1 X150.551 Y163.913 E62.23891
G1 X151.153 Y163.741 E62.24612
G1 X151.721 Y163.473 E62.25336
G1 X152.195 Y163.151 E62.25996
G1 X152.617 Y162.762 E62.26658
G1 X152.980 Y162.313 E62.27323
G1 X153.273 Y161.810 E62.27993
G1 X153.488 Y161.267 E62.28666
G1 X153.617 Y160.707 E62.29328
G1 X153.662 Y160.121 E62.30006
G1 X153.633 Y159.645 E62.30555
G1 X153.539 Y159.149 E62.31137
G1 X153.353 Y158.600 E62.31804
G1 X153.070 Y158.058 E62.32509
G1 X152.697 Y157.559 E62.33227
G1 X152.247 Y157.124 E62.33948
G0 F10500 X152.024 Y157.395
;TYPE:WALL-OUTER
G1 F2220 X151.554 Y157.068 E62.34607
G1 X151.085 Y156.842 E62.35207
G1 X150.560 Y156.681 E62.35840
G1 X150.033 Y156.603 E62.36454
G1 X149.505 Y156.606 E62.37062
G1 X148.979 Y156.689 E62.37676
G1 X148.470 Y156.852 E62.38291
G1 X147.995 Y157.087 E62.38902
G1 X147.661 Y157.313 E62.39367
G1 X147.316 Y157.613 E62.39893
G1 X146.980 Y157.996 E62.40480
G1 X146.678 Y158.470 E62.41128
G1 X146.456 Y158.987 E62.41776
G1 X146.370 Y159.283 E62.42131
G1 X146.317 Y159.543 E62.42437
G1 X146.280 Y159.848 E62.42791
G1 X146.270 Y160.117 E62.43101
G1 X146.307 Y160.632 E62.43696
G1 X146.421 Y161.141 E62.44297
G1 X146.612 Y161.631 E62.44903
G1 X146.874 Y162.089 E62.45511
G1 X147.203 Y162.504 E62.46121
G1 X147.421 Y162.720 E62.46475
G1 X147.839 Y163.046 E62.47085
G1 X148.400 Y163.351 E62.47821
G1 X148.814 Y163.500 E62.48328
G1 X149.359 Y163.611 E62.48969
G1 X149.920 Y163.635 E62.49616
G1 X150.482 Y163.569 E62.50268
G1 X151.030 Y163.412 E62.50925
G1 X151.547 Y163.168 E62.51583
G1 X151.977 Y162.876 E62.52182
G1 X152.361 Y162.522 E62.52784
G1 X152.691 Y162.114 E62.53388
G1 X152.957 Y161.657 E62.53998
G1 X153.153 Y161.162 E62.54611
G1 X153.270 Y160.654 E62.55212
G1 X153.311 Y160.118 E62.55831
G1 X153.285 Y159.688 E62.56327
G1 X153.200 Y159.238 E62.56855
G1 X153.030 Y158.738 E62.57463
G1 X152.773 Y158.245 E62.58104
G1 X152.434 Y157.791 E62.58757
G1 X152.024 Y157.395 E62.59413
G0 F10500 X152.181 Y157.170
G0 X153.375 Y158.591
G0 X154.602 Y162.814
G0 X154.854 Y162.923
G1 F2220 X154.063 Y164.571 E62.61520
G1 X145.829 Y164.571 E62.71006
G1 X144.991 Y162.921 E62.73139
G1 X140.592 Y154.267 E62.84323
G1 X140.665 Y154.267 E62.84408
G1 X140.720 Y153.984 E62.84740
G1 X140.468 Y153.882 E62.85053
G1 X138.646 Y152.931 E62.87421
G1 X138.335 Y152.749 E62.87836
G1 X136.624 Y151.630 E62.90192
G1 X134.885 Y150.233 E62.92762
G1 X133.298 Y148.679 E62.95321
G1 X131.876 Y146.982 E62.97872
G1 X130.713 Y145.280 E63.00247
G1 X130.021 Y144.103 E63.01820
G1 X129.433 Y142.943 E63.03318
G1 X128.539 Y140.747 E63.06050
G1 X128.466 Y140.566 E63.06275
G1 X127.864 Y138.437 E63.08824
G1 X127.813 Y138.260 E63.09036
G1 X127.436 Y136.042 E63.11628
G1 X127.403 Y135.851 E63.11851
G1 X127.270 Y133.822 E63.14194
G1 X127.257 Y133.644 E63.14400
G1 X127.318 Y131.690 E63.16652
G1 X129.897 Y132.629 E63.19814
G1 X130.235 Y130.542 E63.22250
G1 X130.727 Y128.523 E63.24644
G1 X124.595 Y126.291 E63.32163
G1 X124.216 Y126.153 E63.32628
G1 X124.846 Y124.124 E63.35075
G1 X124.904 Y123.939 E63.35299
G1 X125.809 Y121.842 E63.37930
G1 X125.884 Y121.669 E63.38147
G1 X126.679 Y120.215 E63.40057
G1 X127.659 Y118.697 E63.42139
G1 X131.012 Y119.902 E63.46244
G1 X131.442 Y120.056 E63.46770
G1 X132.797 Y118.338 E63.49291
G1 X134.466 Y116.579 E63.52084
G1 X136.150 Y115.146 E63.54632
G1 X137.992 Y113.868 E63.57215
G1 X139.162 Y113.187 E63.58775
G1 X140.405 Y112.561 E63.60378
G1 X142.504 Y111.715 E63.62986
G1 X142.683 Y111.643 E63.63208
G1 X144.814 Y111.041 E63.65759
G1 X147.406 Y110.577 E63.68793
G1 X149.657 Y110.442 E63.71391
G1 X149.851 Y110.430 E63.71615
G1 X152.105 Y110.536 E63.74215
G1 X152.300 Y110.546 E63.74440
G1 X154.540 Y110.896 E63.77052
G1 X154.736 Y110.927 E63.77281
G1 X156.919 Y111.513 E63.79885
G1 X159.431 Y112.468 E63.82981
G1 X161.419 Y113.486 E63.85555
G1 X163.300 Y114.693 E63.88130
G1 X164.902 Y115.959 E63.90482
G1 X166.516 Y117.490 E63.93045
G1 X166.644 Y117.613 E63.93250
G1 X167.970 Y119.172 E63.95608
G1 X168.083 Y119.304 E63.95808
G1 X169.255 Y120.989 E63.98173
G1 X169.992 Y122.229 E63.99835
G1 X170.633 Y123.486 E64.01460
G1 X171.526 Y125.675 E64.04184
G1 X171.599 Y125.856 E64.04409
G1 X172.197 Y127.972 E64.06942
G1 X172.659 Y130.555 E64.09966
G1 X172.805 Y132.771 E64.12524
G1 X172.742 Y134.732 E64.14785
G1 X170.193 Y133.805 E64.17910
G1 X169.869 Y136.182 E64.20674
G1 X169.845 Y136.358 E64.20879
G1 X169.323 Y138.470 E64.23385
G1 X168.704 Y140.314 E64.25626
G1 X167.816 Y142.380 E64.28217
G1 X173.452 Y144.443 E64.35132
G1 X173.752 Y144.553 E64.35500
G1 X172.945 Y146.063 E64.37473
G1 X171.971 Y147.567 E64.39537
G1 X168.640 Y146.359 E64.43619
G1 X167.175 Y148.217 E64.46346
G1 X165.610 Y149.841 E64.48944
G1 X163.924 Y151.276 E64.51495
G1 X162.080 Y152.555 E64.54081
G1 X160.908 Y153.238 E64.55643
G1 X159.763 Y153.815 E64.57121
G1 X159.085 Y154.098 E64.57967
G1 X154.854 Y162.923 E64.69243
G0 F10500 X154.602 Y162.814
G0 X151.700 Y148.489
G0 X151.686 Y148.214
G1 F2220 X153.353 Y147.927 E64.71192
G1 X153.511 Y147.900 E64.71377
G1 X154.846 Y147.511 E64.72979
G1 X154.974 Y147.473 E64.73132
G1 X156.287 Y146.941 E64.74765
G1 X156.413 Y146.889 E64.74922
G1 X157.886 Y146.087 E64.76854
G1 X158.026 Y146.009 E64.77039
G1 X159.362 Y145.051 E64.78933
G1 X159.489 Y144.960 E64.79113
G1 X160.685 Y143.869 E64.80978
G1 X160.714 Y143.843 E64.81023
G1 X162.881 Y144.632 E64.83680
G1 X163.198 Y144.748 E64.84069
G1 X164.062 Y143.737 E64.85601
G1 X164.139 Y143.647 E64.85738
G1 X164.827 Y142.640 E64.87143
G1 X165.499 Y141.511 E64.88656
G1 X165.661 Y141.237 E64.89023
G1 X159.811 Y139.107 E64.96196
G1 X159.486 Y138.989 E64.96594
G1 X160.193 Y137.495 E64.98499
G1 X160.269 Y137.336 E64.98702
G1 X160.833 Y135.567 E65.00841
G1 X160.887 Y135.400 E65.01043
G1 X161.190 Y133.754 E65.02972
G1 X161.219 Y133.597 E65.03156
G1 X161.315 Y132.269 E65.04690
G1 X161.324 Y132.142 E65.04836
G1 X161.294 Y130.940 E65.06222
G1 X164.527 Y132.110 E65.10183
G1 X164.587 Y131.945 E65.10385
G1 X164.527 Y132.109 E65.10586
G1 X165.110 Y132.321 E65.11301
G1 X164.858 Y130.442 E65.13485
G1 X164.837 Y130.289 E65.13663
G1 X164.424 Y128.699 E65.15556
G1 X164.385 Y128.547 E65.15737
G1 X163.766 Y126.975 E65.17683
G1 X162.740 Y125.070 E65.20176
G1 X161.571 Y123.484 E65.22446
G1 X160.180 Y122.043 E65.24754
G1 X158.602 Y120.795 E65.27072
G1 X156.863 Y119.764 E65.29401
G1 X155.157 Y119.038 E65.31537
G1 X154.994 Y118.969 E65.31741
G1 X153.229 Y118.471 E65.33854
G1 X151.575 Y118.214 E65.35783
G1 X151.417 Y118.189 E65.35967
G1 X149.587 Y118.129 E65.38076
G1 X147.924 Y118.277 E65.40000
G1 X147.765 Y118.292 E65.40184
G1 X146.123 Y118.644 E65.42119
G1 X144.808 Y119.055 E65.43706
G1 X143.748 Y119.498 E65.45030
G1 X142.179 Y120.338 E65.47080
G1 X142.037 Y120.415 E65.47266
G1 X140.696 Y121.371 E65.49164
G1 X140.569 Y121.462 E65.49344
G1 X139.373 Y122.553 E65.51209
G1 X139.344 Y122.579 E65.51254
G1 X136.747 Y121.633 E65.54438
G1 X135.835 Y122.764 E65.56112
G1 X135.752 Y122.867 E65.56265
G1 X135.059 Y124.053 E65.57847
G1 X134.991 Y124.168 E65.58001
G1 X134.312 Y125.771 E65.60007
G1 X134.247 Y125.923 E65.60197
G1 X133.734 Y127.595 E65.62212
G1 X133.234 Y129.690 E65.64694
G1 X138.255 Y131.626 E65.70894
G1 X138.563 Y131.745 E65.71275
G1 X138.368 Y133.204 E65.72970
G1 X138.346 Y133.356 E65.73147
G1 X138.308 Y134.374 E65.74321
G1 X138.304 Y134.472 E65.74434
G1 X138.335 Y135.327 E65.75420
G1 X135.513 Y134.305 E65.78878
G1 X134.967 Y134.106 E65.79547
G1 X135.219 Y135.987 E65.81734
G1 X135.240 Y136.140 E65.81912
G1 X135.647 Y137.729 E65.83802
G1 X135.686 Y137.881 E65.83983
G1 X136.297 Y139.442 E65.85914
G1 X136.356 Y139.592 E65.86100
G1 X137.242 Y141.203 E65.88218
G1 X137.326 Y141.357 E65.88420
G1 X138.393 Y142.805 E65.90492
G1 X138.495 Y142.943 E65.90690
G1 X139.765 Y144.259 E65.92797
G1 X139.886 Y144.384 E65.92998
G1 X141.326 Y145.522 E65.95112
G1 X141.463 Y145.631 E65.95314
G1 X143.052 Y146.574 E65.97443
G1 X143.203 Y146.663 E65.97645
G1 X145.072 Y147.457 E65.99984
G1 X146.836 Y147.955 E66.02096
G1 X148.212 Y148.183 E66.03703
G1 X149.723 Y148.293 E66.05449
G1 X149.857 Y148.301 E66.05603
G1 X151.526 Y148.223 E66.07528
G1 X151.686 Y148.214 E66.07713
G0 F10500 X151.620 Y149.076
;TYPE:FILL
G1 F2820 X143.197 Y157.499 E66.21437
G0 F10500 X143.364 Y157.827
G1 F2820 X152.196 Y148.995 E66.35828
G0 F10500 X152.793 Y148.893
G1 F2820 X143.531 Y158.155 E66.50919
G0 F10500 X143.698 Y158.483
G1 F2820 X153.391 Y148.790 E66.66713
G0 F10500 X154.036 Y148.640
G1 F2820 X143.865 Y158.811 E66.83285
G0 F10500 X144.031 Y159.140
G1 F2820 X154.734 Y148.437 E67.00725
G0 F10500 X155.490 Y148.176
G1 F2820 X144.198 Y159.468 E67.19124
G0 F10500 X144.365 Y159.796
G1 F2820 X145.783 Y158.378 E67.21434
G0 F10500 X145.525 Y159.131
G1 F2820 X144.532 Y160.124 E67.23052
G0 F10500 X144.698 Y160.453
G1 F2820 X145.430 Y159.721 E67.24245
G0 F10500 X143.030 Y157.171
G1 F2820 X151.100 Y149.101 E67.37394
G0 F10500 X150.581 Y149.125
G1 F2820 X142.863 Y156.843 E67.49969
G0 F10500 X142.696 Y156.515
G1 F2820 X150.062 Y149.149 E67.61971
G0 F10500 X149.575 Y149.141
G1 F2820 X142.530 Y156.187 E67.73451
G0 F10500 X142.363 Y155.858
G1 F2820 X149.113 Y149.108 E67.84450
G0 F10500 X148.652 Y149.074
G1 F2820 X142.197 Y155.530 E67.94968
G0 F10500 X142.030 Y155.202
G1 F2820 X148.191 Y149.041 E68.05007
G0 F10500 X147.760 Y148.976
G1 F2820 X141.863 Y154.874 E68.14616
G0 F10500 X141.696 Y154.545
G1 F2820 X147.336 Y148.906 E68.23805
G0 F10500 X146.912 Y148.835
G1 F2820 X141.553 Y154.193 E68.32536
G0 F10500 X141.673 Y153.579
G1 F2820 X146.501 Y148.750 E68.40403
G0 F10500 X146.115 Y148.641
G1 F2820 X141.416 Y153.341 E68.48061
G0 F10500 X141.064 Y153.198
G1 F2820 X145.729 Y148.532 E68.55662
G0 F10500 X145.342 Y148.424
G1 F2820 X140.721 Y153.046 E68.63193
G0 F10500 X140.396 Y152.876
G1 F2820 X144.956 Y148.315 E68.70623
G0 F10500 X144.593 Y148.184
G1 F2820 X140.070 Y152.706 E68.77992
G0 F10500 X139.746 Y152.536
G1 F2820 X144.246 Y148.036 E68.85325
G0 F10500 X143.898 Y147.889
G1 F2820 X139.420 Y152.366 E68.92620
G0 F10500 X139.095 Y152.196
G1 F2820 X143.551 Y147.741 E68.99880
G0 F10500 X143.203 Y147.594
G1 F2820 X138.781 Y152.015 E69.07084
G0 F10500 X138.481 Y151.820
G1 F2820 X142.856 Y147.446 E69.14212
G0 F10500 X142.541 Y147.266
G1 F2820 X138.182 Y151.624 E69.21314
G0 F10500 X137.883 Y151.429
G1 F2820 X142.230 Y147.081 E69.28397
G0 F10500 X141.919 Y146.897
G1 F2820 X137.583 Y151.233 E69.35462
G0 F10500 X137.284 Y151.038
G1 F2820 X141.609 Y146.713 E69.42509
G0 F10500 X141.299 Y146.528
G1 F2820 X136.996 Y150.830 E69.49520
G0 F10500 X136.722 Y150.610
G1 F2820 X140.987 Y146.344 E69.56470
G0 F10500 X140.710 Y146.127
G1 F2820 X136.448 Y150.389 E69.63414
G0 F10500 X136.173 Y150.168
G1 F2820 X140.433 Y145.909 E69.70355
G0 F10500 X140.157 Y145.690
G1 F2820 X135.899 Y149.948 E69.77293
G0 F10500 X135.625 Y149.727
G1 F2820 X139.880 Y145.472 E69.84226
G0 F10500 X139.604 Y145.253
G1 F2820 X135.360 Y149.497 E69.91141
G0 F10500 X135.110 Y149.252
G1 F2820 X139.327 Y145.035 E69.98012
G0 F10500 X139.081 Y144.786
G1 F2820 X134.860 Y149.007 E70.04889
G0 F10500 X134.609 Y148.763
G1 F2820 X138.838 Y144.534 E70.11780
G0 F10500 X138.595 Y144.283
G1 F2820 X134.360 Y148.517 E70.18680
G0 F10500 X134.109 Y148.273
G1 F2820 X138.352 Y144.030 E70.25593
G0 F10500 X138.109 Y143.778
G1 F2820 X133.867 Y148.020 E70.32505
G0 F10500 X133.641 Y147.751
G1 F2820 X137.866 Y143.527 E70.39388
G0 F10500 X137.652 Y143.245
G1 F2820 X133.416 Y147.481 E70.46290
G0 F10500 X133.190 Y147.212
G1 F2820 X137.442 Y142.960 E70.53218
G0 F10500 X137.232 Y142.675
G1 F2820 X132.964 Y146.943 E70.60173
G0 F10500 X132.738 Y146.674
G1 F2820 X137.022 Y142.390 E70.67153
G0 F10500 X136.812 Y142.105
G1 F2820 X132.518 Y146.400 E70.74150
G0 F10500 X132.317 Y146.105
G1 F2820 X136.602 Y141.820 E70.81132
G0 F10500 X136.427 Y141.501
G1 F2820 X132.116 Y145.811 E70.88156
G0 F10500 X131.915 Y145.517
G1 F2820 X136.250 Y141.182 E70.95219
G0 F10500 X136.075 Y140.862
G1 F2820 X131.714 Y145.223 E71.02325
G0 F10500 X131.514 Y144.929
G1 F2820 X135.900 Y140.543 E71.09471
G0 F10500 X135.724 Y140.224
G1 F2820 X131.323 Y144.625 E71.16642
G0 F10500 X131.140 Y144.313
G1 F2820 X135.554 Y139.898 E71.23835
G0 F10500 X135.415 Y139.543
G1 F2820 X130.956 Y144.001 E71.31100
G0 F10500 X130.774 Y143.689
G1 F2820 X135.275 Y139.187 E71.38434
G0 F10500 X135.136 Y138.831
G1 F2820 X130.607 Y143.360 E71.45814
G0 F10500 X130.441 Y143.032
G1 F2820 X134.997 Y138.476 E71.53237
G0 F10500 X134.860 Y138.117
G1 F2820 X130.275 Y142.703 E71.60709
G0 F10500 X130.123 Y142.360
G1 F2820 X134.759 Y137.723 E71.68263
G0 F10500 X134.658 Y137.330
G1 F2820 X129.980 Y142.008 E71.75886
G0 F10500 X129.836 Y141.656
G1 F2820 X134.557 Y136.936 E71.83577
G0 F10500 X134.456 Y136.542
G1 F2820 X129.693 Y141.305 E71.91338
G0 F10500 X129.550 Y140.953
G1 F2820 X134.372 Y136.130 E71.99196
G0 F10500 X134.314 Y135.694
G1 F2820 X129.406 Y140.601 E72.07192
G0 F10500 X129.268 Y140.245
G1 F2820 X134.255 Y135.258 E72.15317
G0 F10500 X134.196 Y134.821
G1 F2820 X129.159 Y139.859 E72.23525
G0 F10500 X129.049 Y139.473
G1 F2820 X134.138 Y134.384 E72.31817
G0 F10500 X134.080 Y133.948
G1 F2820 X128.940 Y139.087 E72.40192
G0 F10500 X128.832 Y138.701
G1 F2820 X134.021 Y133.512 E72.48646
G0 F10500 X133.962 Y133.076
G1 F2820 X128.723 Y138.315 E72.57183
G0 F10500 X128.626 Y137.917
G1 F2820 X135.183 Y131.360 E72.67867
G0 F10500 X135.540 Y131.498
G1 F2820 X134.145 Y132.893 E72.70140
G0 F10500 X134.507 Y133.025
G1 F2820 X135.897 Y131.636 E72.72404
G0 F10500 X136.255 Y131.773
G1 F2820 X134.870 Y133.158 E72.74660
G0 F10500 X135.233 Y133.290
G1 F2820 X136.612 Y131.911 E72.76907
G0 F10500 X136.969 Y132.049
G1 F2820 X135.596 Y133.422 E72.79144
G0 F10500 X135.959 Y133.554
G1 F2820 X137.326 Y132.187 E72.81372
G0 F10500 X137.610 Y132.398
G1 F2820 X136.323 Y133.685 E72.83469
G0 F10500 X136.686 Y133.817
G1 F2820 X137.533 Y132.970 E72.84849
G0 F10500 X137.479 Y133.518
G1 F2820 X137.050 Y133.948 E72.85549
G0 F10500 X134.826 Y131.222
G1 F2820 X128.554 Y137.494 E72.95768
G0 F10500 X128.482 Y137.071
G1 F2820 X134.468 Y131.085 E73.05522
G0 F10500 X134.111 Y130.947
G1 F2820 X128.410 Y136.648 E73.14811
G0 F10500 X128.338 Y136.225
G1 F2820 X133.754 Y130.809 E73.23635
G0 F10500 X133.397 Y130.671
G1 F2820 X130.635 Y133.433 E73.28136
G0 F10500 X130.359 Y133.709
G1 F2820 X128.266 Y135.802 E73.31546
G0 F10500 X128.230 Y135.343
G1 F2820 X129.996 Y133.577 E73.34424
G0 F10500 X129.633 Y133.445
G1 F2820 X128.199 Y134.879 E73.36760
G0 F10500 X128.169 Y134.414
G1 F2820 X129.271 Y133.312 E73.38556
G0 F10500 X128.908 Y133.180
G1 F2820 X128.139 Y133.950 E73.39810
G0 F10500 X128.120 Y133.473
G1 F2820 X128.545 Y133.048 E73.40502
G0 F10500 X130.731 Y132.842
G1 F2820 X133.039 Y130.534 E73.44263
G0 F10500 X132.682 Y130.396
G1 F2820 X130.826 Y132.252 E73.47287
G0 F10500 X130.921 Y131.662
G1 F2820 X132.325 Y130.258 E73.49574
G0 F10500 X132.336 Y129.752
G1 F2820 X131.016 Y131.072 E73.51725
G0 F10500 X131.137 Y130.456
G1 F2820 X132.491 Y129.102 E73.53931
G0 F10500 X132.646 Y128.452
G1 F2820 X131.297 Y129.802 E73.56130
G0 F10500 X131.456 Y129.147
G1 F2820 X132.801 Y127.802 E73.58322
G0 F10500 X132.976 Y127.132
G1 F2820 X131.616 Y128.492 E73.60538
G0 F10500 X131.662 Y127.951
G1 F2820 X133.195 Y126.418 E73.63036
G0 F10500 X133.414 Y125.704
G1 F2820 X131.299 Y127.819 E73.66482
G0 F10500 X130.937 Y127.687
G1 F2820 X133.766 Y124.858 E73.71091
G0 F10500 X134.130 Y123.998
G1 F2820 X130.574 Y127.554 E73.76885
G0 F10500 X130.211 Y127.422
G1 F2820 X134.744 Y122.889 E73.84271
G0 F10500 X136.222 Y120.917
G1 F2820 X129.848 Y127.291 E73.94657
G0 F10500 X129.485 Y127.159
G1 F2820 X144.672 Y111.971 E74.19403
G0 F10500 X145.318 Y111.821
G1 F2820 X136.506 Y120.632 E74.33760
G0 F10500 X136.869 Y120.764
G1 F2820 X145.920 Y111.713 E74.48508
G0 F10500 X146.523 Y111.605
G1 F2820 X137.232 Y120.896 E74.63647
G0 F10500 X137.595 Y121.029
G1 F2820 X147.126 Y111.498 E74.79176
G0 F10500 X147.701 Y111.418
G1 F2820 X137.957 Y121.161 E74.95052
G0 F10500 X138.320 Y121.293
G1 F2820 X148.227 Y111.386 E75.11194
G0 F10500 X148.754 Y111.355
G1 F2820 X138.683 Y121.425 E75.27603
G0 F10500 X139.046 Y121.558
G1 F2820 X149.280 Y111.323 E75.44279
G0 F10500 X149.806 Y111.292
G1 F2820 X140.996 Y120.102 E75.58634
G0 F10500 X147.709 Y117.921
G0 X151.632 Y117.844
G0 X155.304 Y118.693
G0 X159.221 Y120.191
G1 F2820 X163.482 Y115.930 E75.65577
G0 F10500 X163.758 Y116.149
G1 F2820 X159.497 Y120.410 E75.72519
G0 F10500 X159.774 Y120.628
G1 F2820 X164.035 Y116.367 E75.79462
G0 F10500 X164.311 Y116.586
G1 F2820 X160.050 Y120.847 E75.86405
G0 F10500 X160.327 Y121.065
G1 F2820 X164.579 Y116.814 E75.93332
G0 F10500 X164.830 Y117.057
G1 F2820 X160.603 Y121.284 E76.00220
G0 F10500 X160.866 Y121.517
G1 F2820 X165.083 Y117.299 E76.07092
G0 F10500 X165.335 Y117.543
G1 F2820 X161.108 Y121.769 E76.13978
G0 F10500 X161.351 Y122.021
G1 F2820 X165.586 Y117.786 E76.20879
G0 F10500 X165.839 Y118.028
G1 F2820 X161.595 Y122.272 E76.27794
G0 F10500 X161.838 Y122.524
G1 F2820 X166.073 Y118.289 E76.34694
G0 F10500 X166.303 Y118.554
G1 F2820 X162.080 Y122.777 E76.41575
G0 F10500 X162.310 Y123.042
G1 F2820 X166.532 Y118.820 E76.48454
G0 F10500 X166.761 Y119.086
G1 F2820 X162.520 Y123.327 E76.55364
G0 F10500 X162.731 Y123.611
G1 F2820 X166.990 Y119.352 E76.62304
G0 F10500 X167.219 Y119.618
G1 F2820 X162.941 Y123.896 E76.69275
G0 F10500 X163.151 Y124.181
G1 F2820 X167.433 Y119.899 E76.76252
G0 F10500 X163.206 Y115.711
G1 F2820 X158.927 Y119.991 E76.83224
G0 F10500 X158.616 Y119.807
G1 F2820 X162.930 Y115.493 E76.90254
G0 F10500 X162.640 Y115.288
G1 F2820 X158.304 Y119.623 E76.97318
G0 F10500 X157.994 Y119.438
G1 F2820 X162.338 Y115.094 E77.04396
G0 F10500 X162.037 Y114.901
G1 F2820 X157.683 Y119.254 E77.11489
G0 F10500 X157.372 Y119.071
G1 F2820 X161.735 Y114.707 E77.18599
G0 F10500 X161.433 Y114.514
G1 F2820 X157.039 Y118.908 E77.25759
G0 F10500 X156.692 Y118.760
G1 F2820 X161.132 Y114.320 E77.32993
G0 F10500 X160.817 Y114.141
G1 F2820 X156.345 Y118.612 E77.40279
G0 F10500 X155.998 Y118.465
G1 F2820 X160.489 Y113.973 E77.47597
G0 F10500 X160.162 Y113.806
G1 F2820 X155.651 Y118.317 E77.54947
G0 F10500 X155.304 Y118.168
G1 F2820 X159.835 Y113.638 E77.62329
G0 F10500 X159.507 Y113.470
G1 F2820 X154.921 Y118.057 E77.69802
G0 F10500 X154.535 Y117.948
G1 F2820 X159.180 Y113.303 E77.77371
G0 F10500 X158.831 Y113.157
G1 F2820 X154.149 Y117.839 E77.85000
G0 F10500 X153.763 Y117.730
G1 F2820 X158.472 Y113.021 E77.92672
G0 F10500 X158.113 Y112.885
G1 F2820 X153.372 Y117.625 E78.00397
G0 F10500 X152.944 Y117.559
G1 F2820 X157.754 Y112.748 E78.08235
G0 F10500 X157.396 Y112.612
G1 F2820 X152.516 Y117.492 E78.16186
G0 F10500 X152.088 Y117.425
G1 F2820 X157.037 Y112.475 E78.24251
G0 F10500 X156.679 Y112.339
G1 F2820 X151.659 Y117.359 E78.32430
G0 F10500 X151.199 Y117.323
G1 F2820 X156.288 Y112.234 E78.40722
G0 F10500 X155.896 Y112.132
G1 F2820 X150.720 Y117.308 E78.49156
G0 F10500 X150.241 Y117.292
G1 F2820 X155.504 Y112.029 E78.57731
G0 F10500 X155.111 Y111.927
G1 F2820 X149.761 Y117.277 E78.66448
G0 F10500 X149.245 Y117.298
G1 F2820 X154.719 Y111.824 E78.75368
G0 F10500 X154.320 Y111.728
G1 F2820 X148.701 Y117.347 E78.84523
G0 F10500 X148.158 Y117.395
G1 F2820 X153.891 Y111.662 E78.93864
G0 F10500 X153.463 Y111.595
G1 F2820 X147.609 Y117.449 E79.03403
G0 F10500 X146.979 Y117.584
G1 F2820 X153.035 Y111.528 E79.13270
G0 F10500 X152.607 Y111.461
G1 F2820 X146.350 Y117.718 E79.23465
G0 F10500 X145.695 Y117.878
G1 F2820 X152.175 Y111.398 E79.34024
G0 F10500 X151.703 Y111.375
G1 F2820 X144.976 Y118.102 E79.44985
G0 F10500 X144.207 Y118.376
G1 F2820 X151.231 Y111.353 E79.56429
G0 F10500 X150.757 Y111.331
G1 F2820 X143.351 Y118.738 E79.68497
G0 F10500 X142.286 Y119.307
G1 F2820 X150.284 Y111.309 E79.81528
G0 F10500 X143.982 Y112.166
G1 F2820 X129.122 Y127.026 E80.05741
G0 F10500 X128.759 Y126.894
G1 F2820 X143.293 Y112.361 E80.29422
G0 F10500 X142.529 Y112.630
G1 F2820 X128.397 Y126.762 E80.52448
G0 F10500 X128.034 Y126.630
G1 F2820 X141.700 Y112.963 E80.74716
G0 F10500 X140.871 Y113.297
G1 F2820 X127.671 Y126.497 E80.96224
G0 F10500 X127.308 Y126.365
G1 F2820 X139.898 Y113.776 E81.16737
G0 F10500 X138.775 Y114.404
G1 F2820 X126.945 Y126.234 E81.36012
G0 F10500 X126.582 Y126.101
G1 F2820 X131.644 Y121.040 E81.44260
G0 F10500 X131.280 Y120.908
G1 F2820 X126.219 Y125.969 E81.52506
G0 F10500 X125.857 Y125.837
G1 F2820 X130.916 Y120.778 E81.60749
G0 F10500 X130.552 Y120.647
G1 F2820 X125.494 Y125.705 E81.68990
G0 F10500 X125.367 Y125.336
G1 F2820 X130.188 Y120.516 E81.76845
G0 F10500 X129.824 Y120.385
G1 F2820 X125.590 Y124.619 E81.83744
G0 F10500 X125.907 Y123.807
G1 F2820 X129.459 Y120.254 E81.89532
G0 F10500 X129.095 Y120.124
G1 F2820 X126.270 Y122.948 E81.94134
G0 F10500 X126.636 Y122.088
G1 F2820 X128.731 Y119.993 E81.97548
G0 F10500 X128.368 Y119.861
G1 F2820 X127.224 Y121.005 E81.99412
G0 F10500 X132.181 Y120.503
G1 F2820 X137.272 Y115.412 E82.07707
G0 F10500 X155.119 Y118.615
G0 X158.815 Y120.487
G0 X161.857 Y123.242
G0 X163.361 Y124.466
G1 F2820 X167.638 Y120.189 E82.14676
G0 F10500 X167.843 Y120.478
G1 F2820 X163.553 Y124.769 E82.21667
G0 F10500 X163.726 Y125.091
G1 F2820 X168.048 Y120.769 E82.28709
G0 F10500 X168.253 Y121.059
G1 F2820 X163.899 Y125.413 E82.35803
G0 F10500 X164.072 Y125.734
G1 F2820 X168.458 Y121.349 E82.42949
G0 F10500 X168.649 Y121.652
G1 F2820 X164.246 Y126.056 E82.50124
G0 F10500 X164.419 Y126.378
G1 F2820 X168.835 Y121.962 E82.57319
G0 F10500 X169.019 Y122.272
G1 F2820 X164.583 Y126.709 E82.64548
G0 F10500 X164.723 Y127.064
G1 F2820 X169.204 Y122.583 E82.71849
G0 F10500 X169.374 Y122.907
G1 F2820 X164.862 Y127.419 E82.79201
G0 F10500 X165.002 Y127.774
G1 F2820 X169.541 Y123.235 E82.86597
G0 F10500 X169.708 Y123.564
G1 F2820 X165.142 Y128.129 E82.94036
G0 F10500 X165.260 Y128.506
G1 F2820 X169.871 Y123.895 E83.01549
G0 F10500 X170.015 Y124.247
G1 F2820 X165.362 Y128.899 E83.09129
G0 F10500 X165.465 Y129.292
G1 F2820 X170.158 Y124.598 E83.16777
G0 F10500 X170.302 Y124.950
G1 F2820 X165.566 Y129.685 E83.24493
G0 F10500 X165.668 Y130.078
G1 F2820 X170.445 Y125.301 E83.32276
G0 F10500 X170.589 Y125.652
G1 F2820 X165.732 Y130.509 E83.40190
G0 F10500 X165.790 Y130.946
G1 F2820 X170.733 Y126.004 E83.48243
G0 F10500 X170.854 Y126.377
G1 F2820 X165.849 Y131.383 E83.56399
G0 F10500 X165.907 Y131.819
G1 F2820 X170.963 Y126.763 E83.64637
G0 F10500 X171.072 Y127.149
G1 F2820 X165.966 Y132.255 E83.72957
G0 F10500 X166.024 Y132.692
G1 F2820 X171.181 Y127.535 E83.81360
G0 F10500 X171.290 Y127.921
G1 F2820 X166.083 Y133.129 E83.89845
G0 F10500 X166.141 Y133.565
G1 F2820 X171.387 Y128.320 E83.98392
G0 F10500 X171.462 Y128.740
G1 F2820 X161.420 Y138.781 E84.14753
G0 F10500 X161.783 Y138.913
G1 F2820 X171.537 Y129.160 E84.30645
G0 F10500 X171.612 Y129.579
G1 F2820 X162.145 Y139.046 E84.46071
G0 F10500 X162.509 Y139.177
G1 F2820 X171.687 Y129.999 E84.61025
G0 F10500 X171.762 Y130.419
G1 F2820 X169.530 Y132.651 E84.64662
G0 F10500 X169.476 Y132.705
G1 F2820 X162.872 Y139.309 E84.75422
G0 F10500 X163.234 Y139.442
G1 F2820 X169.398 Y133.279 E84.85465
G0 F10500 X169.319 Y133.852
G1 F2820 X163.597 Y139.574 E84.94788
G0 F10500 X163.961 Y139.705
G1 F2820 X169.241 Y134.425 E85.03391
G0 F10500 X169.163 Y134.998
G1 F2820 X164.323 Y139.838 E85.11278
G0 F10500 X164.686 Y139.970
G1 F2820 X169.084 Y135.572 E85.18444
G0 F10500 X169.007 Y136.144
G1 F2820 X165.049 Y140.102 E85.24893
G0 F10500 X165.412 Y140.234
G1 F2820 X168.852 Y136.794 E85.30498
G0 F10500 X168.690 Y137.451
G1 F2820 X165.775 Y140.366 E85.35248
G0 F10500 X166.138 Y140.498
G1 F2820 X168.526 Y138.109 E85.39139
G0 F10500 X168.292 Y138.839
G1 F2820 X166.501 Y140.630 E85.42058
G0 F10500 X166.863 Y140.763
G1 F2820 X168.041 Y139.584 E85.43978
G0 F10500 X166.110 Y133.596
G1 F2820 X161.057 Y138.649 E85.52211
G0 F10500 X160.694 Y138.517
G1 F2820 X165.747 Y133.464 E85.60444
G0 F10500 X165.383 Y133.333
G1 F2820 X161.071 Y137.645 E85.67470
G0 F10500 X161.303 Y136.918
G1 F2820 X165.021 Y133.201 E85.73527
G0 F10500 X164.657 Y133.069
G1 F2820 X161.535 Y136.192 E85.78615
G0 F10500 X161.742 Y135.490
G1 F2820 X164.294 Y132.938 E85.82773
G0 F10500 X163.931 Y132.805
G1 F2820 X161.853 Y134.883 E85.86159
G0 F10500 X161.965 Y134.276
G1 F2820 X163.567 Y132.674 E85.88769
G0 F10500 X163.204 Y132.542
G1 F2820 X162.073 Y133.674 E85.90613
G0 F10500 X162.112 Y133.140
G1 F2820 X162.841 Y132.411 E85.91801
G0 F10500 X162.477 Y132.279
G1 F2820 X162.150 Y132.606 E85.92334
G0 F10500 X169.893 Y132.783
G1 F2820 X171.818 Y130.858 E85.95470
G0 F10500 X171.848 Y131.323
G1 F2820 X170.256 Y132.915 E85.98064
G0 F10500 X170.619 Y133.047
G1 F2820 X171.879 Y131.787 E86.00117
G0 F10500 X171.909 Y132.252
G1 F2820 X170.981 Y133.180 E86.01629
G0 F10500 X171.345 Y133.311
G1 F2820 X171.940 Y132.716 E86.02599
G0 F10500 X171.930 Y133.221
G1 F2820 X171.708 Y133.443 E86.02961
G0 F10500 X169.946 Y133.396
G0 X167.739 Y140.382
G1 F2820 X166.326 Y141.795 E86.05263
G0 F10500 X166.993 Y142.117
G1 F2820 X164.105 Y145.006 E86.09969
G0 F10500 X163.384 Y145.727
G1 F2820 X152.459 Y156.652 E86.27770
G0 F10500 X152.725 Y156.880
G1 F2820 X166.715 Y142.890 E86.50565
G0 F10500 X167.078 Y143.022
G1 F2820 X152.978 Y157.123 E86.73540
G0 F10500 X153.206 Y157.389
G1 F2820 X167.440 Y143.155 E86.96733
G0 F10500 X167.802 Y143.288
G1 F2820 X153.418 Y157.673 E87.20171
G0 F10500 X153.604 Y157.981
G1 F2820 X168.165 Y143.421 E87.43895
G0 F10500 X168.527 Y143.553
G1 F2820 X158.794 Y153.287 E87.59755
G0 F10500 X158.267 Y153.814
G1 F2820 X153.774 Y158.307 E87.67076
G0 F10500 X153.912 Y158.664
G1 F2820 X157.812 Y154.764 E87.73430
G0 F10500 X157.356 Y155.715
G1 F2820 X154.035 Y159.036 E87.78842
G0 F10500 X154.113 Y159.452
G1 F2820 X156.900 Y156.665 E87.83383
G0 F10500 X156.445 Y157.616
G1 F2820 X154.157 Y159.903 E87.87110
G0 F10500 X154.149 Y160.406
G1 F2820 X155.989 Y158.567 E87.90107
G0 F10500 X155.533 Y159.517
G1 F2820 X154.076 Y160.974 E87.92481
G0 F10500 X154.622 Y161.419
G1 F2820 X153.230 Y162.810 E87.94748
G0 F10500 X153.712 Y163.319
G1 F2820 X153.319 Y163.712 E87.95389
G0 F10500 X152.824 Y163.712
G1 F2820 X154.166 Y162.369 E87.97576
G0 F10500 X153.873 Y161.672
G1 F2820 X155.078 Y160.467 E87.99540
G0 F10500 X152.452 Y163.589
G1 F2820 X152.329 Y163.712 E87.99740
G0 F10500 X148.713 Y163.861
G0 X147.066 Y163.529
G1 F2820 X146.839 Y163.509 E88.00038
G1 X146.294 Y163.559 E88.00699
G1 X146.437 Y162.920 E88.01264
G1 X145.949 Y162.913 E88.01743
G1 X146.028 Y162.340 E88.02150
G1 X145.616 Y162.257 E88.02537
G1 X145.706 Y161.672 E88.02931
G1 X145.282 Y161.601 E88.03373
G1 X145.491 Y160.897 E88.03916
G1 X145.032 Y161.109 E88.04499
G0 F10500 X144.865 Y160.781
G1 F2820 X145.417 Y160.229 E88.05398
G0 F10500 X146.679 Y157.770
G0 X148.068 Y156.093
G1 F2820 X156.308 Y147.853 E88.18825
G0 F10500 X157.243 Y147.413
G1 F2820 X148.810 Y155.846 E88.32565
G0 F10500 X149.398 Y155.753
G1 F2820 X158.331 Y146.820 E88.47120
G0 F10500 X159.994 Y145.652
G1 F2820 X149.900 Y155.745 E88.63567
G0 F10500 X150.358 Y155.783
G1 F2820 X161.206 Y144.935 E88.81242
G0 F10500 X161.568 Y145.067
G1 F2820 X150.784 Y155.851 E88.98813
G0 F10500 X151.163 Y155.967
G1 F2820 X161.932 Y145.199 E89.16359
G0 F10500 X162.295 Y145.331
G1 F2820 X151.525 Y156.100 E89.33907
G0 F10500 X151.859 Y156.262
G1 F2820 X162.658 Y145.463 E89.51503
G0 F10500 X163.021 Y145.595
G1 F2820 X152.167 Y156.449 E89.69188
G0 F10500 X159.682 Y152.894
G1 F2820 X168.889 Y143.686 E89.84190
G0 F10500 X169.251 Y143.819
G1 F2820 X160.711 Y152.360 E89.98106
G0 F10500 X162.002 Y151.564
G1 F2820 X169.614 Y143.952 E90.10509
G0 F10500 X169.976 Y144.085
G1 F2820 X168.620 Y145.440 E90.12718
G0 F10500 X168.984 Y145.572
G1 F2820 X170.338 Y144.217 E90.14925
G0 F10500 X170.701 Y144.350
G1 F2820 X169.347 Y145.704 E90.17131
G0 F10500 X169.710 Y145.835
G1 F2820 X171.063 Y144.483 E90.19335
G0 F10500 X171.425 Y144.616
G1 F2820 X170.073 Y145.968 E90.21537
G0 F10500 X170.436 Y146.099
G1 F2820 X171.787 Y144.749 E90.23738
G0 F10500 X172.150 Y144.881
G1 F2820 X170.800 Y146.231 E90.25938
G0 F10500 X171.162 Y146.363
G1 F2820 X172.512 Y145.014 E90.28136
G0 F10500 X171.857 Y146.163
G1 F2820 X171.526 Y146.494 E90.28676
G0 F10500 X168.527 Y145.960
G0 X166.963 Y147.098
G1 F2820 X163.854 Y150.207 E90.33742
G0 F10500 X165.600 Y143.016
G1 F2820 X167.366 Y141.250 E90.36619
;LAYER:2
G0 F10500 X166.691 Y140.867 Z0.720
;TYPE:WALL-INNER
G1 F3300 X160.447 Y138.594 E90.44275
G1 X160.788 Y137.874 E90.45193
G1 X160.922 Y137.593 E90.45551
G1 X161.473 Y135.864 E90.47642
G1 X161.567 Y135.571 E90.47997
G1 X161.865 Y133.955 E90.49890
G1 X161.914 Y133.686 E90.50205
G1 X162.009 Y132.380 E90.51714
G1 X162.025 Y132.159 E90.51969
G1 X162.020 Y131.947 E90.52213
G1 X164.128 Y132.710 E90.54796
G1 X165.956 Y133.372 E90.57036
G1 X165.562 Y130.421 E90.60466
G1 X165.525 Y130.152 E90.60779
G1 X165.121 Y128.596 E90.62631
G1 X165.051 Y128.329 E90.62949
G1 X164.449 Y126.800 E90.64843
G1 X164.346 Y126.538 E90.65167
G1 X163.331 Y124.692 E90.67594
G1 X162.107 Y123.031 E90.69971
G1 X160.651 Y121.523 E90.72386
G1 X159.000 Y120.217 E90.74812
G1 X157.180 Y119.138 E90.77250
G1 X155.509 Y118.427 E90.79342
G1 X155.227 Y118.307 E90.79695
G1 X153.378 Y117.785 E90.81909
G1 X151.758 Y117.534 E90.83797
G1 X151.484 Y117.491 E90.84117
G1 X149.568 Y117.428 E90.86326
G1 X147.938 Y117.573 E90.88211
G1 X147.659 Y117.599 E90.88534
G1 X146.059 Y117.942 E90.90419
G1 X145.794 Y117.999 E90.90731
G1 X144.564 Y118.399 E90.92222
G1 X143.533 Y118.828 E90.93508
G1 X143.349 Y118.906 E90.93738
G1 X141.912 Y119.686 E90.95622
G1 X141.665 Y119.821 E90.95947
G1 X140.352 Y120.756 E90.97804
G1 X140.128 Y120.916 E90.98121
G1 X139.186 Y121.776 E90.99590
G1 X136.517 Y120.804 E91.02863
G1 X135.330 Y122.276 E91.05042
G1 X135.174 Y122.468 E91.05327
G1 X134.486 Y123.646 E91.06899
G1 X134.365 Y123.853 E91.07175
G1 X133.589 Y125.683 E91.09465
G1 X133.086 Y127.323 E91.11441
G1 X132.957 Y127.799 E91.12010
G1 X132.415 Y130.125 E91.14761
G1 X137.776 Y132.192 E91.21381
G1 X137.796 Y132.200 E91.21406
G1 X137.685 Y133.034 E91.22375
G1 X137.648 Y133.295 E91.22679
G1 X137.611 Y134.297 E91.23834
G1 X137.610 Y134.320 E91.23861
G1 X135.893 Y133.698 E91.25965
G1 X134.120 Y133.055 E91.28138
G1 X134.515 Y136.007 E91.31569
G1 X134.552 Y136.275 E91.31881
G1 X134.950 Y137.829 E91.33729
G1 X135.019 Y138.096 E91.34047
G1 X135.617 Y139.626 E91.35940
G1 X135.721 Y139.889 E91.36265
G1 X136.587 Y141.467 E91.38339
G1 X136.735 Y141.736 E91.38693
G1 X137.780 Y143.152 E91.40721
G1 X137.959 Y143.395 E91.41068
G1 X139.203 Y144.684 E91.43132
G1 X139.415 Y144.904 E91.43484
G1 X140.825 Y146.019 E91.45555
G1 X141.066 Y146.210 E91.45910
G1 X142.621 Y147.133 E91.47993
G1 X142.886 Y147.289 E91.48347
G1 X144.839 Y148.119 E91.50792
G1 X146.683 Y148.639 E91.53000
G1 X148.025 Y148.862 E91.54567
G1 X148.255 Y148.900 E91.54836
G1 X149.852 Y149.002 E91.56679
G1 X151.483 Y148.925 E91.58561
G1 X151.762 Y148.911 E91.58883
G1 X153.395 Y148.630 E91.60792
G1 X153.669 Y148.583 E91.61112
G1 X154.982 Y148.201 E91.62687
G1 X155.205 Y148.135 E91.62955
G1 X156.490 Y147.614 E91.64553
G1 X156.713 Y147.523 E91.64830
G1 X158.154 Y146.738 E91.66721
G1 X158.400 Y146.603 E91.67044
G1 X159.710 Y145.664 E91.68901
G1 X159.932 Y145.504 E91.69217
G1 X160.872 Y144.646 E91.70683
G1 X162.537 Y145.252 E91.72724
G1 X163.415 Y145.572 E91.73801
G1 X164.558 Y144.234 E91.75829
G1 X164.696 Y144.073 E91.76073
G1 X165.384 Y143.064 E91.77480
G1 X166.072 Y141.917 E91.79021
G1 X166.691 Y140.867 E91.80425
G0 F10500 X168.078 Y139.984
G1 F3300 X166.883 Y142.784 E91.83933
G1 X172.754 Y144.933 E91.91136
G1 X172.338 Y145.713 E91.92154
G1 X171.686 Y146.720 E91.93537
G1 X168.403 Y145.529 E91.97560
G1 X166.643 Y147.760 E92.00834
G1 X165.130 Y149.330 E92.03346
G1 X163.494 Y150.722 E92.05821
G1 X161.705 Y151.964 E92.08331
G1 X160.570 Y152.624 E92.09843
G1 X159.539 Y153.144 E92.11174
G1 X158.576 Y153.539 E92.12373
G1 X154.657 Y161.715 E92.22819
G1 X153.623 Y163.871 E92.25574
G1 X151.698 Y163.871 E92.27792
G1 X151.895 Y163.778 E92.28043
G1 X152.414 Y163.426 E92.28765
G1 X152.874 Y163.001 E92.29487
G1 X153.269 Y162.512 E92.30211
G1 X153.588 Y161.964 E92.30942
G1 X153.823 Y161.371 E92.31677
G1 X153.964 Y160.760 E92.32399
G1 X154.013 Y160.124 E92.33134
G1 X153.981 Y159.601 E92.33738
G1 X153.878 Y159.060 E92.34372
G1 X153.675 Y158.459 E92.35103
G1 X153.367 Y157.870 E92.35869
G1 X152.961 Y157.327 E92.36650
G1 X152.470 Y156.853 E92.37436
G1 X151.907 Y156.462 E92.38226
G1 X151.334 Y156.186 E92.38959
G1 X150.718 Y155.996 E92.39702
G1 X150.082 Y155.903 E92.40442
G1 X149.448 Y155.906 E92.41173
G1 X148.817 Y156.006 E92.41909
G1 X148.209 Y156.201 E92.42644
G1 X147.684 Y156.457 E92.43317
G1 X147.259 Y156.737 E92.43904
G1 X146.804 Y157.134 E92.44599
G1 X146.418 Y157.575 E92.45275
G1 X146.057 Y158.142 E92.46049
G1 X145.789 Y158.766 E92.46832
G1 X145.628 Y159.412 E92.47599
G1 X145.582 Y159.792 E92.48040
G1 X145.569 Y160.129 E92.48428
G1 X145.612 Y160.718 E92.49109
G1 X145.673 Y161.049 E92.49496
G1 X145.849 Y161.635 E92.50201
G1 X146.121 Y162.205 E92.50929
G1 X146.475 Y162.732 E92.51660
G1 X146.901 Y163.196 E92.52386
G1 X147.225 Y163.467 E92.52873
G1 X147.744 Y163.806 E92.53587
G1 X147.874 Y163.871 E92.53755
G1 X146.259 Y163.871 E92.55615
G1 X141.378 Y154.269 E92.68025
G1 X141.518 Y153.551 E92.68868
G1 X140.767 Y153.248 E92.69801
G1 X138.847 Y152.245 E92.72297
G1 X137.029 Y151.057 E92.74799
G1 X135.351 Y149.710 E92.77278
G1 X133.817 Y148.207 E92.79753
G1 X132.428 Y146.550 E92.82244
G1 X131.363 Y144.990 E92.84420
G1 X130.662 Y143.813 E92.85998
G1 X130.095 Y142.702 E92.87436
G1 X129.226 Y140.579 E92.90079
G1 X129.130 Y140.342 E92.90373
G1 X128.566 Y138.345 E92.92764
G1 X128.497 Y138.106 E92.93051
G1 X128.143 Y136.026 E92.95482
G1 X128.099 Y135.771 E92.95780
G1 X127.974 Y133.869 E92.97976
G1 X127.958 Y133.638 E92.98243
G1 X127.988 Y132.679 E92.99348
G1 X130.453 Y133.576 E93.02370
G1 X130.921 Y130.683 E93.05747
G1 X131.556 Y128.080 E93.08834
G1 X125.112 Y125.734 E93.16735
G1 X125.083 Y125.723 E93.16771
G1 X125.482 Y124.434 E93.18325
G1 X125.561 Y124.180 E93.18632
G1 X126.409 Y122.219 E93.21093
G1 X126.523 Y121.957 E93.21423
G1 X127.236 Y120.655 E93.23133
G1 X127.948 Y119.544 E93.24653
G1 X130.614 Y120.502 E93.27917
G1 X131.680 Y120.886 E93.29223
G1 X133.287 Y118.847 E93.32214
G1 X133.435 Y118.660 E93.32488
G1 X134.946 Y117.090 E93.34999
G1 X136.580 Y115.700 E93.37471
G1 X138.367 Y114.460 E93.39977
G1 X139.500 Y113.801 E93.41487
G1 X140.684 Y113.204 E93.43014
G1 X142.668 Y112.404 E93.45479
G1 X142.910 Y112.307 E93.45780
G1 X144.914 Y111.740 E93.48179
G1 X145.159 Y111.670 E93.48473
G1 X147.498 Y111.272 E93.51206
G1 X149.595 Y111.146 E93.53627
G1 X149.852 Y111.130 E93.53923
G1 X151.966 Y111.230 E93.56362
G1 X152.233 Y111.243 E93.56670
G1 X154.327 Y111.571 E93.59112
G1 X154.584 Y111.611 E93.59411
G1 X156.647 Y112.166 E93.61873
G1 X156.908 Y112.237 E93.62184
G1 X159.136 Y113.103 E93.64938
G1 X161.070 Y114.093 E93.67442
G1 X162.885 Y115.258 E93.69927
G1 X164.393 Y116.449 E93.72141
G1 X164.580 Y116.597 E93.72415
G1 X165.961 Y117.928 E93.74625
G1 X166.138 Y118.099 E93.74909
G1 X167.376 Y119.552 E93.77108
G1 X167.530 Y119.734 E93.77383
G1 X168.626 Y121.311 E93.79595
G1 X168.767 Y121.514 E93.79880
G1 X169.354 Y122.523 E93.81225
G1 X169.982 Y123.747 E93.82810
G1 X170.043 Y123.870 E93.82968
G1 X170.838 Y125.839 E93.85415
G1 X170.933 Y126.076 E93.85709
G1 X171.498 Y128.073 E93.88100
G1 X171.567 Y128.314 E93.88389
G1 X171.964 Y130.649 E93.91118
G1 X172.088 Y132.547 E93.93309
G1 X172.104 Y132.778 E93.93576
G1 X172.073 Y133.744 E93.94689
G1 X169.616 Y132.851 E93.97701
G1 X169.189 Y135.985 E94.01346
G1 X169.154 Y136.233 E94.01634
G1 X168.666 Y138.212 E94.03983
G1 X168.604 Y138.461 E94.04278
G1 X168.078 Y139.984 E94.06135
G0 F10500 X168.407 Y140.104
G1 F3300 X167.350 Y142.582 E94.09239
G1 X173.078 Y144.679 E94.16266
G1 X173.253 Y144.743 E94.16481
G1 X172.641 Y145.888 E94.17977
G1 X171.828 Y147.144 E94.19701
G1 X168.522 Y145.944 E94.23753
G1 X166.909 Y147.988 E94.26753
G1 X165.373 Y149.583 E94.29304
G1 X163.700 Y151.006 E94.31835
G1 X161.905 Y152.252 E94.34352
G1 X160.734 Y152.933 E94.35913
G1 X159.679 Y153.465 E94.37274
G1 X158.833 Y153.812 E94.38328
G1 X154.973 Y161.866 E94.48618
G1 X153.844 Y164.221 E94.51627
G1 X146.044 Y164.221 E94.60613
G1 X141.012 Y154.320 E94.73410
G1 X141.119 Y153.768 E94.74057
G1 X140.609 Y153.561 E94.74692
G1 X138.673 Y152.550 E94.77208
G1 X136.825 Y151.343 E94.79751
G1 X135.118 Y149.972 E94.82274
G1 X133.555 Y148.440 E94.84795
G1 X132.155 Y146.770 E94.87306
G1 X131.064 Y145.172 E94.89535
G1 X130.355 Y143.983 E94.91130
G1 X129.776 Y142.847 E94.92599
G1 X128.902 Y140.712 E94.95257
G1 X128.798 Y140.454 E94.95578
G1 X128.229 Y138.441 E94.97988
G1 X128.155 Y138.179 E94.98301
G1 X127.798 Y136.085 E95.00749
G1 X127.751 Y135.815 E95.01065
G1 X127.625 Y133.893 E95.03284
G1 X127.608 Y133.641 E95.03575
G1 X127.653 Y132.184 E95.05254
G1 X130.175 Y133.102 E95.08347
G1 X130.577 Y130.619 E95.11245
G1 X131.141 Y128.301 E95.13993
G1 X124.992 Y126.063 E95.21532
G1 X124.649 Y125.938 E95.21953
G1 X125.147 Y124.330 E95.23892
G1 X125.233 Y124.058 E95.24221
G1 X126.088 Y122.080 E95.26704
G1 X126.206 Y121.808 E95.27045
G1 X126.938 Y120.471 E95.28802
G1 X127.803 Y119.121 E95.30649
G1 X130.732 Y120.173 E95.34235
G1 X131.561 Y120.471 E95.35250
G1 X133.013 Y118.630 E95.37951
G1 X133.175 Y118.425 E95.38252
G1 X134.704 Y116.837 E95.40792
G1 X136.374 Y115.416 E95.43318
G1 X138.167 Y114.171 E95.45833
G1 X139.336 Y113.492 E95.47391
G1 X140.547 Y112.881 E95.48954
G1 X142.537 Y112.080 E95.51425
G1 X142.802 Y111.973 E95.51754
G1 X144.818 Y111.403 E95.54168
G1 X145.080 Y111.329 E95.54482
G1 X147.455 Y110.924 E95.57258
G1 X149.574 Y110.797 E95.59703
G1 X149.856 Y110.780 E95.60029
G1 X151.983 Y110.880 E95.62482
G1 X152.258 Y110.893 E95.62799
G1 X154.382 Y111.226 E95.65277
G1 X154.663 Y111.270 E95.65604
G1 X156.738 Y111.828 E95.68080
G1 X157.016 Y111.903 E95.68412
G1 X159.287 Y112.786 E95.71219
G1 X161.235 Y113.784 E95.73741
G1 X163.095 Y114.978 E95.76287
G1 X164.610 Y116.175 E95.78512
G1 X164.815 Y116.337 E95.78813
G1 X166.204 Y117.676 E95.81036
G1 X166.390 Y117.856 E95.81334
G1 X167.642 Y119.325 E95.83558
G1 X167.805 Y119.517 E95.83848
G1 X168.913 Y121.111 E95.86085
G1 X169.658 Y122.351 E95.87751
G1 X170.295 Y123.592 E95.89358
G1 X170.362 Y123.723 E95.89528
G1 X171.162 Y125.708 E95.91994
G1 X171.267 Y125.968 E95.92317
G1 X171.835 Y127.978 E95.94723
G1 X171.909 Y128.238 E95.95035
G1 X172.311 Y130.598 E95.97793
G1 X172.437 Y132.524 E96.00017
G1 X172.454 Y132.766 E96.00296
G1 X172.407 Y134.238 E96.01993
G1 X169.905 Y133.328 E96.05061
G1 X169.536 Y136.033 E96.08206
G1 X169.499 Y136.298 E96.08514
G1 X169.006 Y138.296 E96.10885
G1 X168.941 Y138.560 E96.11198
G1 X168.407 Y140.104 E96.13081
G0 F10500 X166.176 Y141.052
G1 F3300 X160.193 Y138.874 E96.20417
G1 X159.967 Y138.792 E96.20694
G1 X160.473 Y137.723 E96.22056
G1 X160.595 Y137.464 E96.22386
G1 X161.139 Y135.757 E96.24450
G1 X161.227 Y135.486 E96.24779
G1 X161.520 Y133.892 E96.26646
G1 X161.567 Y133.642 E96.26939
G1 X161.660 Y132.355 E96.28426
G1 X161.674 Y132.151 E96.28661
G1 X161.657 Y131.444 E96.29476
G1 X164.247 Y132.381 E96.32649
G1 X165.533 Y132.846 E96.34225
G1 X165.215 Y130.468 E96.36989
G1 X165.181 Y130.221 E96.37276
G1 X164.782 Y128.684 E96.39106
G1 X164.718 Y128.438 E96.39399
G1 X164.123 Y126.929 E96.41268
G1 X164.028 Y126.687 E96.41567
G1 X163.035 Y124.881 E96.43942
G1 X161.839 Y123.257 E96.46265
G1 X160.415 Y121.783 E96.48627
G1 X158.801 Y120.506 E96.50998
G1 X157.022 Y119.451 E96.53381
G1 X155.372 Y118.749 E96.55447
G1 X155.110 Y118.638 E96.55775
G1 X153.304 Y118.128 E96.57937
G1 X151.705 Y117.880 E96.59801
G1 X151.451 Y117.840 E96.60098
G1 X149.577 Y117.778 E96.62258
G1 X147.969 Y117.921 E96.64118
G1 X147.712 Y117.945 E96.64415
G1 X146.133 Y118.284 E96.66276
G1 X145.886 Y118.338 E96.66567
G1 X144.686 Y118.727 E96.68021
G1 X143.668 Y119.151 E96.69291
G1 X143.501 Y119.221 E96.69500
G1 X142.079 Y119.994 E96.71365
G1 X141.851 Y120.118 E96.71664
G1 X140.555 Y121.041 E96.73497
G1 X140.348 Y121.189 E96.73790
G1 X139.265 Y122.177 E96.75479
G1 X136.632 Y121.218 E96.78707
G1 X135.601 Y122.496 E96.80599
G1 X135.463 Y122.668 E96.80853
G1 X134.789 Y123.821 E96.82392
G1 X134.678 Y124.011 E96.82646
G1 X133.918 Y125.803 E96.84888
G1 X133.422 Y127.420 E96.86837
G1 X132.825 Y129.908 E96.89785
G1 X137.903 Y131.866 E96.96055
G1 X138.179 Y131.973 E96.96396
G1 X138.031 Y133.082 E96.97685
G1 X137.997 Y133.325 E96.97968
G1 X137.960 Y134.312 E96.99106
G1 X137.954 Y134.471 E96.99289
G1 X137.966 Y134.821 E96.99693
G1 X135.774 Y134.027 E97.02379
G1 X134.544 Y133.581 E97.03886
G1 X134.862 Y135.960 E97.06652
G1 X134.896 Y136.207 E97.06939
G1 X135.289 Y137.742 E97.08765
G1 X135.352 Y137.988 E97.09057
G1 X135.943 Y139.498 E97.10925
G1 X136.039 Y139.740 E97.11225
G1 X136.894 Y141.298 E97.13273
G1 X137.031 Y141.547 E97.13600
G1 X138.062 Y142.946 E97.15603
G1 X138.227 Y143.169 E97.15922
G1 X139.454 Y144.441 E97.17959
G1 X139.651 Y144.644 E97.18284
G1 X141.042 Y145.745 E97.20328
G1 X141.265 Y145.921 E97.20656
G1 X142.800 Y146.832 E97.22712
G1 X143.044 Y146.976 E97.23039
G1 X144.955 Y147.788 E97.25431
G1 X146.759 Y148.297 E97.27591
G1 X148.083 Y148.517 E97.29137
G1 X148.295 Y148.552 E97.29384
G1 X149.855 Y148.652 E97.31186
G1 X151.466 Y148.575 E97.33044
G1 X151.724 Y148.563 E97.33341
G1 X153.335 Y148.285 E97.35225
G1 X153.590 Y148.241 E97.35523
G1 X154.883 Y147.865 E97.37074
G1 X155.089 Y147.804 E97.37322
G1 X156.359 Y147.289 E97.38901
G1 X156.563 Y147.206 E97.39155
G1 X157.986 Y146.431 E97.41022
G1 X158.213 Y146.306 E97.41320
G1 X159.506 Y145.380 E97.43152
G1 X159.711 Y145.232 E97.43444
G1 X160.793 Y144.245 E97.45131
G1 X162.657 Y144.923 E97.47416
G1 X163.307 Y145.160 E97.48214
G1 X164.292 Y144.006 E97.49962
G1 X164.417 Y143.860 E97.50183
G1 X165.089 Y142.875 E97.51557
G1 X165.771 Y141.738 E97.53084
G1 X166.176 Y141.052 E97.54002
G0 F10500 X163.304 Y145.147
G0 X152.247 Y157.124
G1 F3300 X151.730 Y156.765 E97.54727
G1 X151.206 Y156.513 E97.55397
G1 X150.640 Y156.338 E97.56080
G1 X150.058 Y156.253 E97.56758
G1 X149.476 Y156.256 E97.57428
G1 X148.898 Y156.348 E97.58102
G1 X148.340 Y156.527 E97.58778
G1 X147.857 Y156.762 E97.59397
G1 X147.472 Y157.016 E97.59928
G1 X147.051 Y157.383 E97.60571
G1 X146.699 Y157.785 E97.61187
G1 X146.367 Y158.306 E97.61899
G1 X146.122 Y158.878 E97.62616
G1 X145.973 Y159.476 E97.63326
G1 X145.931 Y159.820 E97.63725
G1 X145.919 Y160.123 E97.64074
G1 X145.960 Y160.673 E97.64710
G1 X146.014 Y160.967 E97.65054
G1 X146.177 Y161.508 E97.65705
G1 X146.426 Y162.032 E97.66374
G1 X146.751 Y162.515 E97.67044
G1 X147.144 Y162.943 E97.67714
G1 X147.434 Y163.185 E97.68149
G1 X147.918 Y163.502 E97.68816
G1 X148.262 Y163.674 E97.69259
G1 X148.719 Y163.838 E97.69818
G1 X149.316 Y163.960 E97.70520
G1 X149.933 Y163.986 E97.71232
G1 X150.551 Y163.913 E97.71949
G1 X151.153 Y163.741 E97.72670
G1 X151.721 Y163.473 E97.73394
G1 X152.195 Y163.151 E97.74054
G1 X152.617 Y162.762 E97.74715
G1 X152.980 Y162.313 E97.75380
G1 X153.273 Y161.810 E97.76051
G1 X153.488 Y161.267 E97.76724
G1 X153.617 Y160.707 E97.77386
G1 X153.662 Y160.121 E97.78063
G1 X153.633 Y159.645 E97.78613
G1 X153.539 Y159.149 E97.79194
G1 X153.352 Y158.597 E97.79866
G1 X153.070 Y158.057 E97.80568
G1 X152.697 Y157.559 E97.81285
G1 X152.247 Y157.124 E97.82006
G0 F10500 X152.024 Y157.395
;TYPE:WALL-OUTER
G1 F2700 X151.553 Y157.068 E97.82666
G1 X151.078 Y156.840 E97.83273
G1 X150.563 Y156.681 E97.83894
G1 X150.033 Y156.603 E97.84511
G1 X149.505 Y156.606 E97.85120
G1 X148.979 Y156.689 E97.85733
G1 X148.471 Y156.852 E97.86348
G1 X148.031 Y157.067 E97.86912
G1 X147.684 Y157.295 E97.87391
G1 X147.299 Y157.631 E97.87979
G1 X146.980 Y157.996 E97.88538
G1 X146.678 Y158.470 E97.89185
G1 X146.455 Y158.990 E97.89837
G1 X146.318 Y159.539 E97.90489
G1 X146.280 Y159.848 E97.90848
G1 X146.270 Y160.117 E97.91158
G1 X146.307 Y160.628 E97.91748
G1 X146.355 Y160.884 E97.92048
G1 X146.504 Y161.382 E97.92647
G1 X146.731 Y161.858 E97.93255
G1 X147.026 Y162.298 E97.93865
G1 X147.386 Y162.689 E97.94478
G1 X147.643 Y162.904 E97.94864
G1 X148.093 Y163.198 E97.95483
G1 X148.400 Y163.351 E97.95878
G1 X148.814 Y163.500 E97.96385
G1 X149.359 Y163.611 E97.97026
G1 X149.920 Y163.635 E97.97673
G1 X150.482 Y163.569 E97.98325
G1 X151.030 Y163.412 E97.98982
G1 X151.547 Y163.168 E97.99640
G1 X151.977 Y162.876 E98.00239
G1 X152.361 Y162.522 E98.00841
G1 X152.691 Y162.114 E98.01446
G1 X152.957 Y161.657 E98.02055
G1 X153.153 Y161.162 E98.02668
G1 X153.270 Y160.654 E98.03269
G1 X153.311 Y160.118 E98.03888
G1 X153.285 Y159.688 E98.04384
G1 X153.200 Y159.238 E98.04912
G1 X153.029 Y158.735 E98.05524
G1 X152.773 Y158.244 E98.06162
G1 X152.434 Y157.791 E98.06814
G1 X152.024 Y157.395 E98.07471
G0 F10500 X152.181 Y157.170
G0 X153.374 Y158.588
G0 X155.036 Y161.908
G0 X155.288 Y162.017
G1 F2700 X154.063 Y164.571 E98.10734
G1 X145.829 Y164.571 E98.20221
G1 X140.592 Y154.267 E98.33538
G1 X140.665 Y154.267 E98.33622
G1 X140.720 Y153.984 E98.33954
G1 X140.468 Y153.882 E98.34268
G1 X138.496 Y152.852 E98.36831
G1 X136.616 Y151.624 E98.39418
G1 X134.885 Y150.233 E98.41977
G1 X133.298 Y148.679 E98.44536
G1 X131.876 Y146.982 E98.47087
G1 X130.768 Y145.359 E98.49351
G1 X130.046 Y144.148 E98.50975
G1 X129.457 Y142.993 E98.52469
G1 X128.578 Y140.845 E98.55143
G1 X128.467 Y140.570 E98.55485
G1 X127.892 Y138.536 E98.57920
G1 X127.813 Y138.260 E98.58251
G1 X127.453 Y136.144 E98.60724
G1 X127.404 Y135.858 E98.61058
G1 X127.276 Y133.916 E98.63300
G1 X127.257 Y133.644 E98.63614
G1 X127.318 Y131.690 E98.65867
G1 X129.897 Y132.629 E98.69029
G1 X130.235 Y130.542 E98.71465
G1 X130.727 Y128.523 E98.73859
G1 X124.872 Y126.392 E98.81038
G1 X124.216 Y126.153 E98.81842
G1 X124.814 Y124.225 E98.84168
G1 X124.903 Y123.939 E98.84513
G1 X125.767 Y121.941 E98.87021
G1 X125.891 Y121.655 E98.87380
G1 X126.642 Y120.283 E98.89182
G1 X127.658 Y118.697 E98.91352
G1 X130.851 Y119.844 E98.95261
G1 X131.442 Y120.056 E98.95985
G1 X132.738 Y118.413 E98.98396
G1 X132.909 Y118.196 E98.98714
G1 X134.466 Y116.579 E99.01300
G1 X136.150 Y115.146 E99.03848
G1 X137.992 Y113.868 E99.06431
G1 X139.162 Y113.187 E99.07991
G1 X140.405 Y112.561 E99.09594
G1 X142.406 Y111.755 E99.12080
G1 X142.686 Y111.642 E99.12428
G1 X144.723 Y111.066 E99.14866
G1 X145.000 Y110.987 E99.15198
G1 X147.411 Y110.576 E99.18016
G1 X149.553 Y110.448 E99.20489
G1 X149.851 Y110.430 E99.20833
G1 X152.000 Y110.531 E99.23311
G1 X152.300 Y110.546 E99.23657
G1 X154.436 Y110.880 E99.26148
G1 X154.735 Y110.927 E99.26497
G1 X156.829 Y111.490 E99.28995
G1 X157.124 Y111.570 E99.29347
G1 X159.425 Y112.465 E99.32192
G1 X161.419 Y113.486 E99.34773
G1 X163.300 Y114.693 E99.37348
G1 X164.827 Y115.900 E99.39591
G1 X165.044 Y116.071 E99.39909
G1 X166.447 Y117.424 E99.42154
G1 X166.648 Y117.618 E99.42476
G1 X167.909 Y119.098 E99.44717
G1 X168.079 Y119.298 E99.45019
G1 X169.200 Y120.911 E99.47282
G1 X169.360 Y121.141 E99.47605
G1 X169.962 Y122.177 E99.48985
G1 X170.606 Y123.432 E99.50611
G1 X170.686 Y123.589 E99.50814
G1 X171.487 Y125.577 E99.53283
G1 X171.598 Y125.852 E99.53625
G1 X172.172 Y127.882 E99.56055
G1 X172.250 Y128.153 E99.56380
G1 X172.660 Y130.562 E99.59196
G1 X172.786 Y132.501 E99.61434
G1 X172.805 Y132.772 E99.61747
G1 X172.742 Y134.732 E99.64007
G1 X170.193 Y133.805 E99.67132
G1 X169.883 Y136.082 E99.69779
G1 X169.845 Y136.358 E99.70100
G1 X169.346 Y138.380 E99.72500
G1 X169.274 Y138.666 E99.72840
G1 X168.734 Y140.230 E99.74746
G1 X167.817 Y142.380 E99.77439
G1 X173.199 Y144.350 E99.84042
G1 X173.752 Y144.553 E99.84721
G1 X172.945 Y146.063 E99.86694
G1 X171.971 Y147.567 E99.88758
G1 X168.640 Y146.359 E99.92840
G1 X167.175 Y148.217 E99.95566
G1 X165.610 Y149.841 E99.98165
G1 X163.924 Y151.276 E100.00716
G1 X162.080 Y152.555 E100.03301
G1 X160.908 Y153.238 E100.04864
G1 X159.823 Y153.784 E100.06264
G1 X159.090 Y154.085 E100.07177
G1 X155.288 Y162.017 E100.17311
G0 F10500 X155.036 Y161.908
G0 X153.312 Y148.213
G0 X153.276 Y147.940
G1 F2700 X153.511 Y147.900 E100.17586
G1 X154.785 Y147.529 E100.19115
G1 X154.974 Y147.473 E100.19342
G1 X156.227 Y146.965 E100.20899
G1 X156.413 Y146.889 E100.21131
G1 X157.818 Y146.124 E100.22974
G1 X158.026 Y146.009 E100.23248
G1 X159.301 Y145.096 E100.25055
G1 X159.490 Y144.960 E100.25323
G1 X160.630 Y143.919 E100.27102
G1 X160.714 Y143.844 E100.27231
G1 X162.776 Y144.594 E100.29759
G1 X163.198 Y144.748 E100.30277
G1 X164.026 Y143.779 E100.31745
G1 X164.139 Y143.647 E100.31946
G1 X164.794 Y142.686 E100.33286
G1 X165.470 Y141.559 E100.34800
G1 X165.661 Y141.237 E100.35231
G1 X160.073 Y139.203 E100.42083
G1 X159.486 Y138.989 E100.42802
G1 X160.156 Y137.573 E100.44607
G1 X160.269 Y137.335 E100.44911
G1 X160.807 Y135.650 E100.46949
G1 X160.887 Y135.400 E100.47251
G1 X161.176 Y133.829 E100.49092
G1 X161.219 Y133.597 E100.49363
G1 X161.311 Y132.330 E100.50827
G1 X161.324 Y132.142 E100.51044
G1 X161.295 Y130.941 E100.52428
G1 X164.366 Y132.052 E100.56191
G1 X165.110 Y132.321 E100.57102
G1 X164.868 Y130.515 E100.59202
G1 X164.837 Y130.289 E100.59465
G1 X164.443 Y128.772 E100.61270
G1 X164.385 Y128.547 E100.61538
G1 X163.798 Y127.057 E100.63383
G1 X163.711 Y126.836 E100.63657
G1 X162.740 Y125.070 E100.65979
G1 X161.571 Y123.484 E100.68249
G1 X160.180 Y122.043 E100.70556
G1 X158.602 Y120.795 E100.72874
G1 X156.863 Y119.764 E100.75204
G1 X155.235 Y119.071 E100.77242
G1 X154.994 Y118.969 E100.77544
G1 X153.229 Y118.471 E100.79657
G1 X151.651 Y118.226 E100.81497
G1 X151.418 Y118.189 E100.81768
G1 X149.587 Y118.129 E100.83879
G1 X148.001 Y118.270 E100.85714
G1 X147.765 Y118.292 E100.85987
G1 X146.207 Y118.626 E100.87822
G1 X145.977 Y118.676 E100.88094
G1 X144.807 Y119.056 E100.89511
G1 X143.803 Y119.474 E100.90764
G1 X143.653 Y119.537 E100.90951
G1 X142.246 Y120.301 E100.92796
G1 X142.037 Y120.415 E100.93070
G1 X140.758 Y121.326 E100.94880
G1 X140.569 Y121.462 E100.95148
G1 X139.428 Y122.503 E100.96927
G1 X139.344 Y122.578 E100.97057
G1 X136.747 Y121.633 E101.00241
G1 X135.874 Y122.716 E101.01844
G1 X135.752 Y122.867 E101.02067
G1 X135.091 Y123.998 E101.03577
G1 X134.991 Y124.168 E101.03804
G1 X134.247 Y125.923 E101.06000
G1 X133.759 Y127.517 E101.07921
G1 X133.235 Y129.691 E101.10497
G1 X138.029 Y131.539 E101.16417
G1 X138.563 Y131.745 E101.17076
G1 X138.378 Y133.130 E101.18686
G1 X138.346 Y133.356 E101.18949
G1 X138.310 Y134.327 E101.20069
G1 X138.304 Y134.472 E101.20236
G1 X138.335 Y135.327 E101.21222
G1 X135.655 Y134.356 E101.24506
G1 X134.967 Y134.107 E101.25349
G1 X135.209 Y135.913 E101.27448
G1 X135.240 Y136.140 E101.27712
G1 X135.628 Y137.655 E101.29514
G1 X135.686 Y137.881 E101.29783
G1 X136.269 Y139.370 E101.31625
