;This Gcode has been generated specifically for the LulzBot TAZ
	;Sliced at: Sat 04-04-2015 16:20:52
	;Basic settings: Layer height: 0.14 Walls: 1.05 Fill: 20
	;Filament Diameter: 2.85
	;Print time: #P_TIME#
	;M190 S0 ;Uncomment to add your own bed temperature line
	;M109 S0 ;Uncomment to add your own temperature line
	G21        ;metric values
	G90        ;absolute positioning
	M82        ;set extruder to absolute mode
	M107       ;start with the fan off
	G28 X0 Y0  ;move X/Y to min endstops
	G28 Z0     ;move Z to min endstops
	G1 Z15.0 F10500 ;move the platform down 15mm
	G92 E0                  ;zero the extruded length
	G1 F200 E0              ;extrude 3mm of feed stock
	G92 E0                  ;zero the extruded length again
	G1 F10500
	M203 X192 Y208 Z3 ;speed limits

;Layer count: 34
;LAYER:0
M106 S255
G0 F10500 X126.275 Y114.594 Z0.300
;TYPE:SKIRT
G1 F1800 X130.293 Y116.038 E0.08774
G1 X132.132 Y114.111 E0.14248
G1 X134.085 Y112.448 E0.19520
G1 X136.163 Y111.007 E0.24716
G1 X137.549 Y110.201 E0.28011
G1 X139.003 Y109.468 E0.31358
G1 X141.319 Y108.536 E0.36488
G1 X141.575 Y108.431 E0.37057
G1 X144.140 Y107.705 E0.42535
G1 X147.014 Y107.201 E0.48531
G1 X149.537 Y107.049 E0.53726
G1 X149.826 Y107.031 E0.54321
G1 X152.362 Y107.151 E0.59538
G1 X152.651 Y107.166 E0.60133
G1 X155.152 Y107.558 E0.65335
G1 X155.437 Y107.602 E0.65928
G1 X158.058 Y108.307 E0.71506
G1 X160.815 Y109.364 E0.77574
G1 X163.110 Y110.539 E0.82872
G1 X165.266 Y111.923 E0.88137
G1 X167.187 Y113.440 E0.93167
G1 X168.920 Y115.095 E0.98092
G1 X169.115 Y115.283 E0.98649
G1 X170.703 Y117.146 E1.03679
G1 X172.151 Y119.212 E1.08864
G1 X172.997 Y120.644 E1.12282
G1 X173.680 Y121.992 E1.15388
G1 X173.774 Y122.177 E1.15814
G1 X174.706 Y124.488 E1.20935
G1 X174.814 Y124.756 E1.21529
G1 X175.533 Y127.297 E1.26956
G1 X176.034 Y130.157 E1.32923
G1 X176.184 Y132.446 E1.37637
G1 X176.201 Y132.709 E1.38178
G1 X175.983 Y139.521 E1.52184
G1 X172.841 Y138.378 E1.59055
G1 X172.594 Y139.378 E1.61172
G1 X172.532 Y139.628 E1.61702
G1 X172.266 Y140.396 E1.63372
G1 X174.831 Y141.335 E1.68985
G1 X178.577 Y142.714 E1.77188
G1 X175.867 Y147.793 E1.89019
G1 X173.352 Y151.679 E1.98531
G1 X169.786 Y150.385 E2.06327
G1 X169.733 Y150.452 E2.06503
G1 X167.938 Y152.315 E2.11819
G1 X165.989 Y153.974 E2.17079
G1 X163.910 Y155.416 E2.22279
G1 X162.522 Y156.224 E2.25579
G1 X161.819 Y156.578 E2.27197
G1 X161.819 Y158.577 E2.31305
G1 X161.619 Y158.777 E2.31886
G1 X161.619 Y158.977 E2.32297
G1 X161.419 Y159.177 E2.32878
G1 X161.419 Y159.377 E2.33289
G1 X161.219 Y159.577 E2.33871
G1 X161.219 Y159.777 E2.34282
G1 X161.019 Y159.977 E2.34863
G1 X161.019 Y160.177 E2.35274
G1 X160.819 Y160.377 E2.35855
G1 X160.819 Y160.577 E2.36266
G1 X160.619 Y160.777 E2.36847
G1 X160.619 Y160.977 E2.37258
G1 X160.419 Y161.177 E2.37840
G1 X160.419 Y161.377 E2.38251
G1 X160.219 Y161.577 E2.38832
G1 X160.219 Y161.777 E2.39243
G1 X160.019 Y161.977 E2.39824
G1 X160.019 Y162.177 E2.40235
G1 X159.819 Y162.377 E2.40817
G1 X159.819 Y162.577 E2.41228
G1 X159.619 Y162.777 E2.41809
G1 X159.619 Y162.977 E2.42220
G1 X159.419 Y163.177 E2.42801
G1 X159.419 Y163.377 E2.43212
G1 X159.219 Y163.577 E2.43793
G1 X159.219 Y163.777 E2.44204
G1 X159.019 Y163.977 E2.44786
G1 X159.019 Y164.177 E2.45197
G1 X158.819 Y164.377 E2.45778
G1 X158.819 Y164.577 E2.46189
G1 X158.619 Y164.777 E2.46770
G1 X158.619 Y165.177 E2.47592
G1 X158.219 Y165.577 E2.48755
G1 X158.219 Y165.777 E2.49166
G1 X155.524 Y168.472 E2.56998
G1 X145.568 Y168.472 E2.77458
G1 X143.486 Y167.779 E2.81968
G1 X141.283 Y165.577 E2.88369
G1 X141.283 Y165.377 E2.88780
G1 X141.083 Y165.177 E2.89361
G1 X141.083 Y164.977 E2.89772
G1 X140.883 Y164.777 E2.90353
G1 X140.883 Y164.577 E2.90764
G1 X140.683 Y164.377 E2.91346
G1 X140.683 Y164.177 E2.91757
G1 X140.483 Y163.977 E2.92338
G1 X140.483 Y163.777 E2.92749
G1 X140.283 Y163.577 E2.93330
G1 X140.283 Y163.377 E2.93741
G1 X140.083 Y163.177 E2.94322
G1 X140.083 Y162.977 E2.94733
G1 X139.883 Y162.777 E2.95315
G1 X139.883 Y162.577 E2.95726
G1 X139.683 Y162.377 E2.96307
G1 X139.683 Y162.177 E2.96718
G1 X139.483 Y161.977 E2.97299
G1 X139.483 Y161.777 E2.97710
G1 X139.283 Y161.577 E2.98291
G1 X139.283 Y161.377 E2.98702
G1 X139.083 Y161.177 E2.99284
G1 X139.083 Y160.977 E2.99695
G1 X138.883 Y160.777 E3.00276
G1 X138.883 Y160.577 E3.00687
G1 X138.683 Y160.377 E3.01268
G1 X138.683 Y160.177 E3.01679
G1 X138.483 Y159.977 E3.02260
G1 X138.483 Y159.777 E3.02671
G1 X138.283 Y159.577 E3.03253
G1 X138.283 Y159.377 E3.03664
G1 X138.083 Y159.177 E3.04245
G1 X138.083 Y158.977 E3.04656
G1 X137.883 Y158.777 E3.05237
G1 X137.883 Y158.577 E3.05648
G1 X137.683 Y158.377 E3.06230
G1 X137.683 Y158.176 E3.06643
G1 X136.269 Y156.763 E3.10751
G1 X136.855 Y155.823 E3.13027
G1 X136.767 Y155.777 E3.13231
G1 X134.628 Y154.379 E3.18482
G1 X132.632 Y152.776 E3.23743
G1 X130.805 Y150.986 E3.29000
G1 X129.163 Y149.027 E3.34253
G1 X127.864 Y147.125 E3.38986
G1 X127.735 Y146.934 E3.39460
G1 X127.012 Y145.677 E3.42440
G1 X126.320 Y144.303 E3.45601
G1 X125.369 Y141.956 E3.50805
G1 X125.255 Y141.678 E3.51423
G1 X124.576 Y139.278 E3.56549
G1 X124.498 Y139.005 E3.57132
G1 X124.050 Y136.370 E3.62625
G1 X123.879 Y133.978 E3.67553
G1 X123.861 Y133.709 E3.68107
G1 X123.986 Y129.679 E3.76393
G1 X123.203 Y129.394 E3.78105
G1 X120.021 Y128.233 E3.85066
G1 X121.633 Y123.027 E3.96266
G1 X121.721 Y122.751 E3.96861
G1 X122.785 Y120.287 E4.02377
G1 X123.785 Y118.433 E4.06706
G1 X126.275 Y114.594 E4.16109
G1 F1500 E2.66109
G0 F10500 X128.032 Y119.805
;TYPE:WALL-INNER
G1 F1500 E4.16109
G1 F1800 X130.837 Y120.813 E4.22235
G1 X131.752 Y121.144 E4.24234
G1 X133.532 Y118.888 E4.30140
G1 X135.093 Y117.251 E4.34788
G1 X136.724 Y115.863 E4.39189
G1 X138.474 Y114.649 E4.43566
G1 X139.609 Y113.988 E4.46266
G1 X140.776 Y113.401 E4.48950
G1 X142.933 Y112.532 E4.53729
G1 X145.099 Y111.913 E4.58359
G1 X147.522 Y111.488 E4.63414
G1 X149.799 Y111.351 E4.68102
G1 X149.854 Y111.348 E4.68215
G1 X152.145 Y111.456 E4.72928
G1 X152.207 Y111.459 E4.73056
G1 X154.485 Y111.816 E4.77794
G1 X156.723 Y112.411 E4.82553
G1 X159.058 Y113.307 E4.87693
G1 X160.959 Y114.280 E4.92082
G1 X162.760 Y115.436 E4.96480
G1 X164.357 Y116.698 E5.00663
G1 X165.938 Y118.207 E5.05154
G1 X165.976 Y118.244 E5.05263
G1 X167.289 Y119.785 E5.09424
G1 X168.528 Y121.551 E5.13857
G1 X169.211 Y122.709 E5.16620
G1 X169.838 Y123.945 E5.19468
G1 X170.708 Y126.097 E5.24238
G1 X171.325 Y128.257 E5.28855
G1 X171.748 Y130.671 E5.33891
G1 X171.883 Y132.734 E5.38140
G1 X171.887 Y132.794 E5.38263
G1 X171.866 Y133.438 E5.39588
G1 X169.438 Y132.555 E5.44897
G1 X168.948 Y136.142 E5.52337
G1 X168.412 Y138.337 E5.56980
G1 X167.827 Y140.045 E5.60690
G1 X166.588 Y142.907 E5.67099
G1 X172.445 Y145.051 E5.79917
G1 X172.153 Y145.599 E5.81193
G1 X171.598 Y146.457 E5.83293
G1 X168.330 Y145.271 E5.90438
G1 X166.484 Y147.612 E5.96564
G1 X164.986 Y149.167 E6.01001
G1 X163.350 Y150.559 E6.05416
G1 X161.604 Y151.770 E6.09783
G1 X160.453 Y152.441 E6.12521
G1 X159.305 Y153.019 E6.15162
G1 X157.138 Y153.892 E6.19963
G1 X157.087 Y153.913 E6.20076
G1 X154.970 Y154.512 E6.24598
G1 X152.530 Y154.940 E6.29689
G1 X151.242 Y155.045 E6.32344
G1 X149.793 Y155.077 E6.35323
G1 X147.487 Y154.922 E6.40072
G1 X147.430 Y154.919 E6.40190
G1 X145.240 Y154.533 E6.44760
G1 X142.905 Y153.871 E6.49747
G1 X140.853 Y153.048 E6.54291
G1 X138.999 Y152.081 E6.58588
G1 X137.163 Y150.887 E6.63089
G1 X135.497 Y149.549 E6.67480
G1 X133.972 Y148.055 E6.71867
G1 X132.606 Y146.425 E6.76238
G1 X131.426 Y144.698 E6.80536
G1 X130.804 Y143.624 E6.83087
G1 X130.249 Y142.524 E6.85619
G1 X129.356 Y140.319 E6.90508
G1 X129.335 Y140.269 E6.90619
G1 X128.723 Y138.104 E6.95243
G1 X128.334 Y135.848 E6.99947
G1 X128.178 Y133.682 E7.04410
G1 X128.175 Y133.622 E7.04533
G1 X128.195 Y132.985 E7.05843
G1 X130.625 Y133.870 E7.11158
G1 X131.134 Y130.727 E7.17701
G1 X131.812 Y127.942 E7.23591
G1 X125.352 Y125.590 E7.37720
G1 X125.746 Y124.315 E7.40462
G1 X126.666 Y122.170 E7.45258
G1 X127.496 Y120.632 E7.48850
G1 X128.032 Y119.805 E7.50875
G0 F10500 X134.240 Y123.636
G1 F1800 X134.170 Y123.757 E7.51163
G1 X133.441 Y125.476 E7.55000
G1 X133.386 Y125.605 E7.55288
G1 X132.829 Y127.419 E7.59188
G1 X132.158 Y130.258 E7.65183
G1 X137.557 Y132.341 E7.77075
G1 X137.443 Y133.193 E7.78841
G1 X137.406 Y134.016 E7.80534
G1 X135.707 Y133.400 E7.84248
G1 X133.856 Y132.724 E7.88298
G1 X134.327 Y136.231 E7.95570
G1 X134.789 Y138.076 E7.99478
G1 X135.490 Y139.896 E8.03487
G1 X136.470 Y141.704 E8.07713
G1 X136.552 Y141.852 E8.08060
G1 X137.737 Y143.461 E8.12167
G1 X139.152 Y144.944 E8.16379
G1 X139.270 Y145.066 E8.16728
G1 X140.813 Y146.286 E8.20771
G1 X140.942 Y146.388 E8.21109
G1 X142.644 Y147.398 E8.25176
G1 X142.788 Y147.484 E8.25520
G1 X144.767 Y148.324 E8.29939
G1 X146.636 Y148.851 E8.33929
G1 X148.099 Y149.094 E8.36977
G1 X149.719 Y149.211 E8.40315
G1 X149.846 Y149.220 E8.40576
G1 X151.639 Y149.135 E8.44265
G1 X151.791 Y149.127 E8.44578
G1 X153.573 Y148.820 E8.48294
G1 X153.719 Y148.794 E8.48599
G1 X155.205 Y148.362 E8.51779
G1 X156.678 Y147.771 E8.55041
G1 X156.805 Y147.720 E8.55322
G1 X158.381 Y146.860 E8.59012
G1 X158.515 Y146.787 E8.59325
G1 X159.997 Y145.725 E8.63072
G1 X160.919 Y144.894 E8.65623
G1 X162.654 Y145.525 E8.69417
G1 X163.482 Y145.828 E8.71229
G1 X164.827 Y144.254 E8.75484
G1 X165.625 Y143.097 E8.78372
G1 X166.312 Y141.936 E8.81144
G1 X167.005 Y140.751 E8.83965
G1 X160.745 Y138.471 E8.97657
G1 X161.049 Y137.830 E8.99115
G1 X161.123 Y137.676 E8.99466
G1 X161.727 Y135.782 E9.03551
G1 X161.778 Y135.624 E9.03892
G1 X162.101 Y133.865 E9.07568
G1 X162.129 Y133.718 E9.07875
G1 X162.233 Y132.286 E9.10826
G1 X162.235 Y132.256 E9.10888
G1 X164.350 Y133.021 E9.15510
G1 X166.220 Y133.697 E9.19596
G1 X165.750 Y130.196 E9.26855
G1 X165.281 Y128.349 E9.30771
G1 X164.598 Y126.587 E9.34655
G1 X164.539 Y126.441 E9.34978
G1 X163.514 Y124.575 E9.39354
G1 X162.273 Y122.891 E9.43653
G1 X160.797 Y121.362 E9.48020
G1 X159.123 Y120.038 E9.52406
G1 X157.279 Y118.944 E9.56812
G1 X155.418 Y118.152 E9.60969
G1 X155.185 Y118.070 E9.61476
G1 X153.425 Y117.573 E9.65235
G1 X151.652 Y117.298 E9.68922
G1 X151.503 Y117.275 E9.69232
G1 X149.561 Y117.210 E9.73225
G1 X147.776 Y117.370 E9.76908
G1 X147.625 Y117.384 E9.77219
G1 X145.826 Y117.771 E9.81001
G1 X144.492 Y118.194 E9.83877
G1 X143.313 Y118.686 E9.86502
G1 X141.684 Y119.563 E9.90304
G1 X141.549 Y119.637 E9.90621
G1 X140.062 Y120.696 E9.94372
G1 X139.140 Y121.528 E9.96925
G1 X136.445 Y120.547 E10.02818
G1 X135.091 Y122.226 E10.07251
G1 X134.995 Y122.344 E10.07564
G1 X134.240 Y123.636 E10.10639
G0 F10500 X134.617 Y123.857
G1 F1800 X134.561 Y123.953 E10.10867
G1 X133.846 Y125.642 E10.14636
G1 X133.796 Y125.756 E10.14892
G1 X133.251 Y127.533 E10.18712
G1 X132.671 Y129.988 E10.23896
G1 X138.036 Y132.057 E10.35713
G1 X137.879 Y133.232 E10.38149
G1 X137.827 Y134.394 E10.40539
G1 X137.824 Y134.472 E10.40700
G1 X137.830 Y134.634 E10.41033
G1 X135.558 Y133.811 E10.45999
G1 X134.386 Y133.383 E10.48563
G1 X134.757 Y136.148 E10.54296
G1 X135.206 Y137.944 E10.58101
G1 X135.888 Y139.713 E10.61997
G1 X136.854 Y141.495 E10.66162
G1 X136.921 Y141.616 E10.66447
G1 X138.072 Y143.179 E10.70436
G1 X139.467 Y144.641 E10.74588
G1 X139.564 Y144.741 E10.74875
G1 X141.083 Y145.942 E10.78854
G1 X141.190 Y146.028 E10.79136
G1 X142.867 Y147.022 E10.83143
G1 X142.986 Y147.093 E10.83427
G1 X144.912 Y147.911 E10.87728
G1 X146.731 Y148.424 E10.91611
G1 X148.179 Y148.664 E10.94628
G1 X148.278 Y148.681 E10.94834
G1 X149.746 Y148.775 E10.97857
G1 X149.851 Y148.782 E10.98073
G1 X151.616 Y148.699 E11.01705
G1 X151.741 Y148.692 E11.01962
G1 X153.498 Y148.389 E11.05626
G1 X155.062 Y147.948 E11.08965
G1 X156.515 Y147.366 E11.12182
G1 X156.618 Y147.324 E11.12411
G1 X158.172 Y146.477 E11.16048
G1 X158.282 Y146.417 E11.16305
G1 X159.723 Y145.384 E11.19949
G1 X160.820 Y144.394 E11.22986
G1 X162.805 Y145.116 E11.27326
G1 X163.347 Y145.313 E11.28511
G1 X164.480 Y143.987 E11.32096
G1 X165.257 Y142.861 E11.34907
G1 X165.936 Y141.714 E11.37646
G1 X166.364 Y140.982 E11.39389
G1 X160.145 Y138.718 E11.52990
G1 X160.655 Y137.641 E11.55439
G1 X160.716 Y137.514 E11.55728
G1 X161.311 Y135.648 E11.59753
G1 X161.354 Y135.517 E11.60037
G1 X161.672 Y133.782 E11.63661
G1 X161.696 Y133.661 E11.63915
G1 X161.797 Y132.254 E11.66814
G1 X161.805 Y132.154 E11.67020
G1 X161.792 Y131.631 E11.68095
G1 X164.498 Y132.610 E11.74009
G1 X165.691 Y133.041 E11.76616
G1 X165.320 Y130.279 E11.82343
G1 X164.864 Y128.482 E11.86153
G1 X164.192 Y126.748 E11.89974
G1 X164.144 Y126.628 E11.90240
G1 X163.145 Y124.810 E11.94503
G1 X161.938 Y123.173 E11.98683
G1 X160.503 Y121.686 E12.02929
G1 X158.875 Y120.399 E12.07194
G1 X157.081 Y119.334 E12.11482
G1 X155.260 Y118.560 E12.15548
G1 X153.332 Y118.001 E12.19673
G1 X151.585 Y117.730 E12.23306
G1 X151.462 Y117.711 E12.23562
G1 X149.574 Y117.648 E12.27444
G1 X147.816 Y117.805 E12.31071
G1 X147.692 Y117.817 E12.31327
G1 X145.938 Y118.194 E12.35014
G1 X144.643 Y118.604 E12.37806
G1 X143.501 Y119.081 E12.40349
G1 X141.893 Y119.947 E12.44102
G1 X141.782 Y120.008 E12.44363
G1 X140.336 Y121.037 E12.48010
G1 X139.237 Y122.029 E12.51052
G1 X136.589 Y121.064 E12.56844
G1 X135.430 Y122.501 E12.60638
G1 X135.356 Y122.593 E12.60881
G1 X134.617 Y123.857 E12.63890
G0 F10500 X131.605 Y120.626
G1 F1800 X133.205 Y118.596 E12.69202
G1 X134.792 Y116.933 E12.73926
G1 X136.456 Y115.517 E12.78416
G1 X138.244 Y114.277 E12.82887
G1 X139.388 Y113.611 E12.85608
G1 X140.597 Y113.002 E12.88390
G1 X142.768 Y112.128 E12.93199
G1 X145.003 Y111.485 E12.97979
G1 X147.464 Y111.054 E13.03113
G1 X149.773 Y110.915 E13.07867
G1 X149.857 Y110.910 E13.08040
G1 X152.168 Y111.019 E13.12794
G1 X152.250 Y111.023 E13.12963
G1 X154.553 Y111.384 E13.17753
G1 X156.858 Y111.995 E13.22654
G1 X159.238 Y112.908 E13.27893
G1 X161.180 Y113.902 E13.32376
G1 X163.013 Y115.079 E13.36852
G1 X164.644 Y116.367 E13.41123
G1 X166.240 Y117.891 E13.45658
G1 X167.641 Y119.525 E13.50082
G1 X168.891 Y121.308 E13.54557
G1 X169.597 Y122.503 E13.57409
G1 X170.228 Y123.748 E13.60277
G1 X171.114 Y125.934 E13.65125
G1 X171.753 Y128.159 E13.69882
G1 X172.182 Y130.614 E13.75004
G1 X172.319 Y132.705 E13.79310
G1 X172.324 Y132.779 E13.79462
G1 X172.283 Y134.054 E13.82084
G1 X169.798 Y133.151 E13.87517
G1 X169.381 Y136.201 E13.93844
G1 X168.835 Y138.445 E13.98590
G1 X168.817 Y138.520 E13.98748
G1 X168.235 Y140.204 E14.02410
G1 X167.173 Y142.656 E14.07901
G1 X173.067 Y144.814 E14.20800
G1 X172.528 Y145.823 E14.23151
G1 X171.775 Y146.986 E14.25998
G1 X168.478 Y145.790 E14.33206
G1 X166.815 Y147.898 E14.38723
G1 X165.280 Y149.490 E14.43268
G1 X163.618 Y150.905 E14.47754
G1 X161.834 Y152.143 E14.52216
G1 X160.674 Y152.818 E14.54974
G1 X159.502 Y153.409 E14.57672
G1 X157.302 Y154.297 E14.62547
G1 X157.222 Y154.329 E14.62724
G1 X155.066 Y154.940 E14.67330
G1 X152.599 Y155.372 E14.72477
G1 X151.253 Y155.482 E14.75252
G1 X149.785 Y155.514 E14.78269
G1 X147.458 Y155.358 E14.83062
G1 X147.383 Y155.354 E14.83217
G1 X145.133 Y154.958 E14.87912
G1 X142.782 Y154.290 E14.92934
G1 X142.617 Y154.234 E14.93292
G1 X140.673 Y153.447 E14.97602
G1 X138.797 Y152.468 E15.01951
G1 X136.910 Y151.244 E15.06573
G1 X135.204 Y149.873 E15.11071
G1 X133.654 Y148.355 E15.15529
G1 X132.252 Y146.682 E15.20015
G1 X131.065 Y144.945 E15.24339
G1 X131.019 Y144.877 E15.24507
G1 X130.425 Y143.843 E15.26958
G1 X129.849 Y142.700 E15.29588
G1 X128.951 Y140.484 E15.34502
G1 X128.920 Y140.407 E15.34673
G1 X128.302 Y138.223 E15.39337
G1 X127.899 Y135.900 E15.44182
G1 X127.742 Y133.711 E15.48692
G1 X127.738 Y133.637 E15.48845
G1 X127.778 Y132.368 E15.51454
G1 X130.278 Y133.278 E15.56921
G1 X130.707 Y130.634 E15.62426
G1 X131.295 Y128.219 E15.67534
G1 X124.811 Y125.859 E15.81714
G1 X125.330 Y124.184 E15.85318
G1 X126.271 Y121.985 E15.90233
G1 X127.125 Y120.401 E15.93931
G1 X127.855 Y119.277 E15.96685
G1 X130.983 Y120.400 E16.03515
G1 X131.605 Y120.626 E16.04875
G0 F10500 X131.457 Y120.107
;TYPE:WALL-OUTER
G1 F1800 X132.875 Y118.310 E16.09580
G1 X134.495 Y116.611 E16.14404
G1 X136.183 Y115.175 E16.18958
G1 X138.008 Y113.908 E16.23524
G1 X139.181 Y113.226 E16.26312
G1 X140.428 Y112.598 E16.29182
G1 X142.603 Y111.723 E16.34000
G1 X144.905 Y111.059 E16.38923
G1 X147.415 Y110.619 E16.44160
G1 X149.746 Y110.479 E16.48959
G1 X149.851 Y110.473 E16.49175
G1 X152.191 Y110.583 E16.53989
G1 X152.300 Y110.589 E16.54214
G1 X154.620 Y110.952 E16.59039
G1 X154.716 Y110.967 E16.59239
G1 X156.996 Y111.580 E16.64091
G1 X159.418 Y112.509 E16.69422
G1 X161.396 Y113.521 E16.73988
G1 X163.267 Y114.723 E16.78558
G1 X164.923 Y116.030 E16.82893
G1 X166.543 Y117.577 E16.87497
G1 X166.611 Y117.642 E16.87690
G1 X167.985 Y119.254 E16.92043
G1 X169.256 Y121.067 E16.96593
G1 X169.985 Y122.302 E16.99540
G1 X170.618 Y123.550 E17.02416
G1 X171.519 Y125.771 E17.07341
G1 X171.556 Y125.863 E17.07545
G1 X172.179 Y128.062 E17.12242
G1 X172.617 Y130.566 E17.17466
G1 X172.755 Y132.676 E17.21812
G1 X172.762 Y132.774 E17.22013
G1 X172.701 Y134.671 E17.25914
G1 X170.158 Y133.747 E17.31474
G1 X169.814 Y136.261 E17.36689
G1 X169.259 Y138.550 E17.41529
G1 X169.238 Y138.639 E17.41717
G1 X168.646 Y140.353 E17.45444
G1 X167.758 Y142.404 E17.50037
G1 X173.647 Y144.561 E17.62925
G1 X173.689 Y144.576 E17.63017
G1 X172.905 Y146.046 E17.66440
G1 X171.953 Y147.516 E17.70039
G1 X168.625 Y146.308 E17.77315
G1 X167.140 Y148.191 E17.82244
G1 X165.581 Y149.808 E17.86859
G1 X163.891 Y151.247 E17.91421
G1 X162.064 Y152.515 E17.95991
G1 X160.889 Y153.199 E17.98785
G1 X159.700 Y153.798 E18.01521
G1 X157.466 Y154.702 E18.06474
G1 X155.164 Y155.366 E18.11397
G1 X152.644 Y155.807 E18.16655
G1 X151.282 Y155.919 E18.19463
G1 X149.776 Y155.952 E18.22559
G1 X147.429 Y155.794 E18.27393
G1 X147.333 Y155.788 E18.27591
G1 X145.037 Y155.384 E18.32382
G1 X142.651 Y154.707 E18.37479
G1 X140.485 Y153.842 E18.42272
G1 X138.596 Y152.856 E18.46651
G1 X138.503 Y152.807 E18.46867
G1 X136.655 Y151.600 E18.51403
G1 X134.917 Y150.204 E18.55984
G1 X133.326 Y148.645 E18.60562
G1 X131.906 Y146.950 E18.65106
G1 X130.704 Y145.191 E18.69484
G1 X130.035 Y144.041 E18.72218
G1 X129.451 Y142.880 E18.74889
G1 X128.547 Y140.650 E18.79834
G1 X127.882 Y138.343 E18.84768
G1 X127.464 Y135.948 E18.89764
G1 X127.306 Y133.740 E18.94313
G1 X127.300 Y133.643 E18.94513
G1 X127.360 Y131.751 E18.98403
G1 X129.931 Y132.687 E19.04026
G1 X130.274 Y130.566 E19.08441
G1 X130.778 Y128.496 E19.12820
G1 X124.380 Y126.166 E19.26812
G1 X124.270 Y126.126 E19.27053
G1 X124.912 Y124.053 E19.31513
G1 X124.946 Y123.948 E19.31740
G1 X125.879 Y121.789 E19.36573
G1 X126.739 Y120.194 E19.40297
G1 X127.676 Y118.749 E19.43836
G1 X131.132 Y119.990 E19.51382
G1 X131.457 Y120.107 E19.52092
G0 F10500 X131.706 Y120.304
G0 X135.530 Y122.569
G0 X135.769 Y122.777
G1 F1800 X135.716 Y122.843 E19.52266
G1 X134.995 Y124.077 E19.55203
G1 X134.953 Y124.149 E19.55375
G1 X134.246 Y125.817 E19.59098
G1 X134.207 Y125.908 E19.59301
G1 X133.672 Y127.648 E19.63042
G1 X133.184 Y129.717 E19.67411
G1 X138.427 Y131.739 E19.78959
G1 X138.515 Y131.773 E19.79153
G1 X138.315 Y133.271 E19.82258
G1 X138.263 Y134.412 E19.84606
G1 X138.261 Y134.473 E19.84731
G1 X138.290 Y135.266 E19.86362
G1 X135.410 Y134.222 E19.92657
G1 X134.915 Y134.041 E19.93740
G1 X135.187 Y136.066 E19.97939
G1 X135.624 Y137.812 E20.01638
G1 X136.286 Y139.530 E20.05422
G1 X137.238 Y141.285 E20.09525
G1 X137.290 Y141.381 E20.09749
G1 X138.408 Y142.897 E20.13620
G1 X139.782 Y144.338 E20.17712
G1 X141.354 Y145.600 E20.21855
G1 X141.439 Y145.667 E20.22077
G1 X143.090 Y146.647 E20.26023
G1 X143.183 Y146.702 E20.26245
G1 X145.057 Y147.498 E20.30429
G1 X146.826 Y147.997 E20.34206
G1 X148.249 Y148.233 E20.37171
G1 X148.329 Y148.247 E20.37337
G1 X149.774 Y148.339 E20.40313
G1 X149.856 Y148.344 E20.40482
G1 X151.593 Y148.263 E20.44055
G1 X151.691 Y148.257 E20.44257
G1 X153.423 Y147.959 E20.47869
G1 X153.521 Y147.942 E20.48073
G1 X154.919 Y147.534 E20.51066
G1 X156.352 Y146.960 E20.54238
G1 X156.431 Y146.928 E20.54413
G1 X157.962 Y146.093 E20.57997
G1 X159.448 Y145.043 E20.61737
G1 X160.722 Y143.893 E20.65264
G1 X162.954 Y144.705 E20.70145
G1 X163.211 Y144.799 E20.70707
G1 X164.133 Y143.720 E20.73624
G1 X164.889 Y142.626 E20.76356
G1 X165.559 Y141.493 E20.79061
G1 X165.722 Y141.214 E20.79725
G1 X159.608 Y138.987 E20.93098
G1 X159.545 Y138.964 E20.93235
G1 X160.261 Y137.451 E20.96675
G1 X160.309 Y137.352 E20.96901
G1 X160.896 Y135.513 E21.00869
G1 X160.929 Y135.410 E21.01091
G1 X161.243 Y133.699 E21.04666
G1 X161.361 Y132.221 E21.07713
G1 X161.367 Y132.143 E21.07873
G1 X161.339 Y131.002 E21.10219
G1 X164.647 Y132.199 E21.17449
G1 X165.162 Y132.385 E21.18574
G1 X164.890 Y130.363 E21.22767
G1 X164.447 Y128.616 E21.26470
G1 X163.786 Y126.909 E21.30232
G1 X163.748 Y126.816 E21.30439
G1 X162.776 Y125.046 E21.34588
G1 X161.604 Y123.456 E21.38648
G1 X160.209 Y122.011 E21.42775
G1 X158.627 Y120.760 E21.46920
G1 X156.883 Y119.725 E21.51088
G1 X155.102 Y118.968 E21.55065
G1 X153.239 Y118.429 E21.59050
G1 X151.518 Y118.162 E21.62629
G1 X151.421 Y118.147 E21.62831
G1 X149.586 Y118.086 E21.66604
G1 X147.856 Y118.240 E21.70173
G1 X147.759 Y118.249 E21.70374
G1 X146.050 Y118.617 E21.73966
G1 X144.793 Y119.015 E21.76676
G1 X143.689 Y119.476 E21.79134
G1 X142.101 Y120.331 E21.82841
G1 X142.014 Y120.379 E21.83045
G1 X140.610 Y121.379 E21.86587
G1 X139.336 Y122.529 E21.90114
G1 X136.733 Y121.582 E21.95807
G1 X135.769 Y122.777 E21.98962
G0 F10500 X134.877 Y122.209
;TYPE:FILL
G1 F1800 X132.784 Y120.115 E22.05046
G0 F10500 X133.056 Y119.770
G1 F1800 X135.154 Y121.867 E22.11142
G0 F10500 X135.430 Y121.525
G1 F1800 X133.329 Y119.424 E22.17248
G0 F10500 X133.602 Y119.079
G1 F1800 X135.705 Y121.183 E22.23362
G0 F10500 X135.982 Y120.841
G1 F1800 X133.897 Y118.756 E22.29421
G0 F10500 X134.198 Y118.440
G1 F1800 X136.258 Y120.499 E22.35407
G0 F10500 X136.905 Y120.529
G1 F1800 X134.500 Y118.123 E22.42398
G0 F10500 X134.802 Y117.807
G1 F1800 X137.875 Y120.881 E22.51330
G0 F10500 X138.846 Y121.234
G1 F1800 X135.103 Y117.490 E22.62210
G0 F10500 X135.426 Y117.195
G1 F1800 X139.340 Y121.109 E22.73585
G0 F10500 X139.665 Y120.816
G1 F1800 X135.760 Y116.911 E22.84934
G0 F10500 X136.094 Y116.628
G1 F1800 X139.994 Y120.527 E22.96267
G0 F10500 X136.608 Y121.130
G0 X134.645 Y122.594
G1 F1800 X132.511 Y120.461 E23.02468
G0 F10500 X132.238 Y120.806
G1 F1800 X134.417 Y122.984 E23.08799
G0 F10500 X134.189 Y123.375
G1 F1800 X131.966 Y121.152 E23.15260
G0 F10500 X131.399 Y121.203
G1 F1800 X133.972 Y123.776 E23.22738
G0 F10500 X133.788 Y124.210
G1 F1800 X130.433 Y120.855 E23.32488
G0 F10500 X129.469 Y120.508
G1 F1800 X133.604 Y124.643 E23.44506
G0 F10500 X133.420 Y125.077
G1 F1800 X128.504 Y120.162 E23.58791
G0 F10500 X127.960 Y120.235
G1 F1800 X133.235 Y125.511 E23.74124
G0 F10500 X133.087 Y125.980
G1 F1800 X127.716 Y120.610 E23.89732
G0 F10500 X127.492 Y121.004
G1 F1800 X132.941 Y126.453 E24.05568
G0 F10500 X132.796 Y126.926
G1 F1800 X127.275 Y121.405 E24.21614
G0 F10500 X127.059 Y121.806
G1 F1800 X132.652 Y127.400 E24.37870
G0 F10500 X132.534 Y127.900
G1 F1800 X126.842 Y122.208 E24.54413
G0 F10500 X126.653 Y122.637
G1 F1800 X131.748 Y127.732 E24.69220
G0 F10500 X131.984 Y127.967
G1 F1800 X132.357 Y128.650 E24.70475
G1 X131.802 Y128.713 E24.71739
G1 X132.121 Y129.650 E24.73010
G1 X131.621 Y129.459 E24.74110
G0 F10500 X131.500 Y129.956
G1 F1800 X134.210 Y132.666 E24.81986
G0 F10500 X133.683 Y132.757
G1 F1800 X131.379 Y130.453 E24.88682
G0 F10500 X131.271 Y130.963
G1 F1800 X133.779 Y133.471 E24.95971
G0 F10500 X133.875 Y134.185
G1 F1800 X131.185 Y131.495 E25.03789
G0 F10500 X131.099 Y132.027
G1 F1800 X133.971 Y134.899 E25.12135
G0 F10500 X134.068 Y135.613
G1 F1800 X131.014 Y132.559 E25.21011
G0 F10500 X130.927 Y133.091
G1 F1800 X134.174 Y136.338 E25.30448
G0 F10500 X134.380 Y137.162
G1 F1800 X130.842 Y133.624 E25.40730
G0 F10500 X130.673 Y134.073
G1 F1800 X134.586 Y137.986 E25.52103
G0 F10500 X134.942 Y138.959
G1 F1800 X129.701 Y133.718 E25.67334
G0 F10500 X128.728 Y133.364
G1 F1800 X135.329 Y139.965 E25.86519
G0 F10500 X136.060 Y141.314
G1 F1800 X128.349 Y133.603 E26.08929
G0 F10500 X128.394 Y134.266
G1 F1800 X137.331 Y143.203 E26.34903
G0 F10500 X139.967 Y145.839
G1 F1800 X148.973 Y154.845 E26.61077
G0 F10500 X148.310 Y154.800
G1 F1800 X128.442 Y134.932 E27.18819
G0 F10500 X128.490 Y135.598
G1 F1800 X147.648 Y154.755 E27.74496
G0 F10500 X146.926 Y154.652
G1 F1800 X128.592 Y136.318 E28.27780
G0 F10500 X128.721 Y137.065
G1 F1800 X146.175 Y154.519 E28.78506
G0 F10500 X145.425 Y154.387
G1 F1800 X128.850 Y137.812 E29.26678
G0 F10500 X129.054 Y138.634
G1 F1800 X144.584 Y154.164 E29.71812
G0 F10500 X143.722 Y153.920
G1 F1800 X129.298 Y139.496 E30.13732
G0 F10500 X135.184 Y133.022
G1 F1800 X132.892 Y130.729 E30.20395
G0 F10500 X133.897 Y131.117
G1 F1800 X136.156 Y133.376 E30.26960
G0 F10500 X137.125 Y133.727
G1 F1800 X134.903 Y131.505 E30.33418
G0 F10500 X135.909 Y131.893
G1 F1800 X137.265 Y133.249 E30.37359
G0 F10500 X137.332 Y132.697
G1 F1800 X136.915 Y132.281 E30.38570
G0 F10500 X132.751 Y129.946
G0 X130.777 Y127.378
G1 F1800 X126.468 Y123.069 E30.51093
G0 F10500 X126.282 Y123.502
G1 F1800 X129.805 Y127.024 E30.61330
G0 F10500 X128.833 Y126.671
G1 F1800 X126.097 Y123.935 E30.69282
G0 F10500 X125.911 Y124.367
G1 F1800 X127.861 Y126.317 E30.74949
G0 F10500 X126.890 Y125.964
G1 F1800 X125.765 Y124.838 E30.78220
G0 F10500 X125.619 Y125.311
G1 F1800 X125.918 Y125.609 E30.79087
G0 F10500 X136.428 Y116.343
G1 F1800 X140.355 Y120.271 E30.90502
G0 F10500 X140.716 Y120.013
G1 F1800 X136.762 Y116.059 E31.01993
G0 F10500 X137.120 Y115.800
G1 F1800 X141.077 Y119.757 E31.13494
G0 F10500 X141.439 Y119.500
G1 F1800 X137.485 Y115.546 E31.24985
G0 F10500 X137.851 Y115.294
G1 F1800 X141.837 Y119.280 E31.36569
G0 F10500 X142.238 Y119.064
G1 F1800 X138.216 Y115.041 E31.48260
G0 F10500 X138.581 Y114.788
G1 F1800 X142.640 Y118.847 E31.60057
G0 F10500 X143.042 Y118.632
G1 F1800 X138.971 Y114.561 E31.71888
G0 F10500 X139.362 Y114.334
G1 F1800 X143.462 Y118.433 E31.83802
G0 F10500 X143.898 Y118.251
G1 F1800 X139.756 Y114.110 E31.95839
G0 F10500 X140.168 Y113.903
G1 F1800 X144.334 Y118.069 E32.07946
G0 F10500 X144.796 Y117.913
G1 F1800 X140.579 Y113.696 E32.20202
G0 F10500 X140.999 Y113.499
G1 F1800 X145.265 Y117.764 E32.32599
G0 F10500 X145.734 Y117.615
G1 F1800 X141.440 Y113.321 E32.45078
G0 F10500 X141.880 Y113.144
G1 F1800 X146.238 Y117.502 E32.57744
G0 F10500 X146.747 Y117.392
G1 F1800 X142.321 Y112.966 E32.70607
G0 F10500 X142.762 Y112.789
G1 F1800 X147.256 Y117.283 E32.83668
G0 F10500 X147.783 Y117.193
G1 F1800 X143.223 Y112.632 E32.96922
G0 F10500 X143.703 Y112.494
G1 F1800 X148.351 Y117.142 E33.10431
G0 F10500 X148.918 Y117.091
G1 F1800 X144.184 Y112.357 E33.24189
G0 F10500 X144.664 Y112.219
G1 F1800 X149.485 Y117.041 E33.38202
G0 F10500 X150.115 Y117.053
G1 F1800 X145.146 Y112.083 E33.52644
G0 F10500 X145.671 Y111.990
G1 F1800 X150.755 Y117.074 E33.67420
G0 F10500 X151.395 Y117.096
G1 F1800 X146.197 Y111.898 E33.82527
G0 F10500 X146.723 Y111.806
G1 F1800 X152.108 Y117.191 E33.98177
G0 F10500 X152.839 Y117.304
G1 F1800 X147.248 Y111.713 E34.14426
G0 F10500 X147.800 Y111.647
G1 F1800 X153.589 Y117.437 E34.31252
G0 F10500 X154.451 Y117.680
G1 F1800 X148.382 Y111.611 E34.48890
G0 F10500 X148.966 Y111.577
G1 F1800 X155.321 Y117.932 E34.67360
G0 F10500 X156.377 Y118.370
G1 F1800 X149.549 Y111.542 E34.87204
G0 F10500 X150.164 Y111.539
G1 F1800 X157.491 Y118.866 E35.08498
G0 F10500 X159.010 Y119.767
G1 F1800 X150.812 Y111.569 E35.32324
G0 F10500 X151.460 Y111.599
G1 F1800 X171.645 Y131.784 E35.90987
G0 F10500 X171.688 Y132.445
G1 F1800 X163.483 Y124.240 E36.14833
G0 F10500 X164.336 Y125.711
G1 F1800 X171.702 Y133.077 E36.36241
G0 F10500 X170.910 Y132.903
G1 F1800 X164.905 Y126.898 E36.53693
G0 F10500 X165.296 Y127.907
G1 F1800 X169.938 Y132.549 E36.67184
G0 F10500 X169.270 Y132.499
G1 F1800 X165.576 Y128.805 E36.77920
G0 F10500 X165.786 Y129.633
G1 F1800 X169.195 Y133.042 E36.87828
G0 F10500 X169.120 Y133.585
G1 F1800 X165.955 Y130.420 E36.97026
G0 F10500 X166.051 Y131.134
G1 F1800 X169.046 Y134.129 E37.05730
G0 F10500 X168.972 Y134.673
G1 F1800 X166.147 Y131.848 E37.13941
G0 F10500 X166.243 Y132.562
G1 F1800 X168.897 Y135.216 E37.21654
G0 F10500 X168.823 Y135.760
G1 F1800 X166.339 Y133.276 E37.28873
G0 F10500 X166.390 Y133.945
G1 F1800 X168.731 Y136.286 E37.35677
G0 F10500 X168.610 Y136.783
G1 F1800 X165.422 Y133.595 E37.44942
G0 F10500 X164.454 Y133.245
G1 F1800 X168.488 Y137.279 E37.56666
G0 F10500 X168.367 Y137.776
G1 F1800 X163.486 Y132.895 E37.70851
G0 F10500 X162.517 Y132.545
G1 F1800 X168.246 Y138.273 E37.87500
G0 F10500 X168.089 Y138.735
G1 F1800 X162.355 Y133.000 E38.04166
G0 F10500 X162.313 Y133.576
G1 F1800 X167.932 Y139.196 E38.20498
G0 F10500 X167.775 Y139.656
G1 F1800 X162.232 Y134.113 E38.36608
G0 F10500 X162.136 Y134.635
G1 F1800 X167.609 Y140.108 E38.52514
G0 F10500 X167.422 Y140.539
G1 F1800 X162.041 Y135.158 E38.68152
G0 F10500 X161.943 Y135.678
G1 F1800 X166.730 Y140.465 E38.82065
G0 F10500 X167.136 Y140.871
G1 F1800 X167.071 Y141.115 E38.82351
G1 X166.863 Y141.526 E38.82756
G1 X166.656 Y141.936 E38.83281
G1 X166.581 Y142.479 E38.83928
G1 X166.222 Y142.429 E38.84673
G0 F10500 X165.992 Y142.817
G1 F1800 X168.256 Y145.081 E38.91253
G0 F10500 X167.983 Y145.427
G1 F1800 X165.762 Y143.205 E38.97709
G0 F10500 X165.509 Y143.570
G1 F1800 X167.711 Y145.772 E39.04109
G0 F10500 X167.438 Y146.117
G1 F1800 X165.257 Y143.936 E39.10447
G0 F10500 X165.004 Y144.302
G1 F1800 X167.166 Y146.463 E39.16729
G0 F10500 X166.894 Y146.809
G1 F1800 X164.724 Y144.640 E39.23034
G0 F10500 X164.440 Y144.973
G1 F1800 X166.621 Y147.154 E39.29373
G0 F10500 X166.348 Y147.500
G1 F1800 X164.155 Y145.306 E39.35748
G0 F10500 X163.870 Y145.639
G1 F1800 X166.045 Y147.815 E39.42070
G0 F10500 X165.742 Y148.129
G1 F1800 X163.585 Y145.973 E39.48338
G0 F10500 X162.737 Y145.743
G1 F1800 X165.438 Y148.444 E39.56188
G0 F10500 X165.135 Y148.759
G1 F1800 X161.766 Y145.389 E39.65980
G0 F10500 X160.902 Y145.144
G1 F1800 X164.828 Y149.070 E39.77391
G0 F10500 X164.494 Y149.353
G1 F1800 X160.577 Y145.437 E39.88773
G0 F10500 X160.253 Y145.730
G1 F1800 X164.160 Y149.637 E40.00128
G0 F10500 X163.826 Y149.922
G1 F1800 X159.908 Y146.004 E40.11515
G0 F10500 X159.548 Y146.262
G1 F1800 X163.492 Y150.206 E40.22977
G0 F10500 X163.151 Y150.482
G1 F1800 X159.188 Y146.520 E40.34493
G0 F10500 X158.828 Y146.778
G1 F1800 X162.786 Y150.736 E40.45996
G0 F10500 X162.421 Y150.989
G1 F1800 X158.452 Y147.019 E40.57533
G0 F10500 X158.052 Y147.238
G1 F1800 X162.056 Y151.242 E40.69170
G0 F10500 X161.691 Y151.495
G1 F1800 X157.652 Y147.455 E40.80909
G0 F10500 X157.252 Y147.674
G1 F1800 X161.314 Y151.735 E40.92713
G0 F10500 X160.924 Y151.963
G1 F1800 X156.851 Y147.890 E41.04551
G0 F10500 X156.409 Y148.066
G1 F1800 X160.533 Y152.191 E41.16538
G0 F10500 X160.131 Y152.406
G1 F1800 X155.968 Y148.244 E41.28635
G0 F10500 X155.527 Y148.421
G1 F1800 X159.719 Y152.613 E41.40818
G0 F10500 X159.309 Y152.820
G1 F1800 X155.071 Y148.582 E41.53135
G0 F10500 X154.592 Y148.722
G1 F1800 X158.874 Y153.003 E41.65578
G0 F10500 X158.433 Y153.181
G1 F1800 X154.113 Y148.861 E41.78133
G0 F10500 X153.623 Y148.989
G1 F1800 X157.993 Y153.358 E41.90832
G0 F10500 X157.552 Y153.536
G1 F1800 X153.096 Y149.080 E42.03783
G0 F10500 X152.569 Y149.171
G1 F1800 X157.112 Y153.713 E42.16985
G0 F10500 X156.637 Y153.857
G1 F1800 X152.042 Y149.261 E42.30340
G0 F10500 X151.480 Y149.318
G1 F1800 X156.156 Y153.993 E42.43929
G0 F10500 X155.674 Y154.130
G1 F1800 X150.890 Y149.345 E42.57834
G0 F10500 X150.299 Y149.373
G1 F1800 X155.192 Y154.266 E42.72054
G0 F10500 X154.690 Y154.382
G1 F1800 X149.693 Y149.384 E42.86578
G0 F10500 X149.026 Y149.336
G1 F1800 X154.164 Y154.474 E43.01511
G0 F10500 X153.639 Y154.567
G1 F1800 X148.360 Y149.287 E43.16855
G0 F10500 X147.650 Y149.196
G1 F1800 X153.113 Y154.659 E43.32732
G0 F10500 X152.587 Y154.751
G1 F1800 X146.910 Y149.074 E43.49231
G0 F10500 X146.100 Y148.882
G1 F1800 X152.023 Y154.805 E43.66445
G0 F10500 X151.452 Y154.852
G1 F1800 X145.239 Y148.638 E43.84503
G0 F10500 X144.295 Y148.312
G1 F1800 X150.859 Y154.877 E44.03581
G0 F10500 X150.255 Y154.891
G1 F1800 X143.221 Y147.857 E44.24024
G0 F10500 X141.914 Y147.168
G1 F1800 X149.636 Y154.890 E44.46466
G0 F10500 X142.841 Y153.657
G1 F1800 X129.573 Y140.389 E44.85027
G0 F10500 X129.994 Y141.428
G1 F1800 X141.808 Y153.242 E45.19362
G0 F10500 X140.738 Y152.790
G1 F1800 X130.419 Y142.471 E45.49352
G0 F10500 X131.079 Y143.749
G1 F1800 X139.445 Y152.115 E45.73666
G0 F10500 X137.808 Y151.096
G1 F1800 X132.129 Y145.417 E45.90170
G0 F10500 X148.281 Y148.663
G0 X151.738 Y148.673
G0 X156.609 Y147.308
G0 X159.711 Y145.369
G0 X163.329 Y145.250
G0 X165.920 Y141.705
G0 X166.232 Y141.031
G0 X161.165 Y137.990
G1 F1800 X161.868 Y138.694 E45.92215
G0 F10500 X162.841 Y139.048
G1 F1800 X161.344 Y137.552 E45.96564
G0 F10500 X161.494 Y137.083
G1 F1800 X163.813 Y139.402 E46.03304
G0 F10500 X164.785 Y139.756
G1 F1800 X161.643 Y136.615 E46.12434
G0 F10500 X161.793 Y136.147
G1 F1800 X165.757 Y140.111 E46.23954
G0 F10500 X167.058 Y143.265
G1 F1800 X169.188 Y145.396 E46.30146
G0 F10500 X170.158 Y145.748
G1 F1800 X168.033 Y143.622 E46.36324
G0 F10500 X169.008 Y143.979
G1 F1800 X171.129 Y146.100 E46.42488
G0 F10500 X171.669 Y146.023
G1 F1800 X169.984 Y144.337 E46.47386
G0 F10500 X170.959 Y144.694
G1 F1800 X171.912 Y145.647 E46.50156
G0 F10500 X172.138 Y145.255
G1 F1800 X171.934 Y145.051 E46.50749
G0 F10500 X167.282 Y142.609
G0 X169.874 Y133.277
G0 X171.601 Y131.122
G1 F1800 X152.109 Y111.630 E47.07398
G0 F10500 X152.831 Y111.734
G1 F1800 X171.527 Y130.430 E47.61734
G0 F10500 X171.396 Y129.681
G1 F1800 X153.563 Y111.848 E48.13562
G0 F10500 X154.296 Y111.963
G1 F1800 X171.264 Y128.931 E48.62876
G0 F10500 X171.115 Y128.164
G1 F1800 X155.116 Y112.165 E49.09373
G0 F10500 X155.958 Y112.389
G1 F1800 X170.868 Y127.299 E49.52706
G0 F10500 X170.621 Y126.434
G1 F1800 X156.826 Y112.639 E49.92798
G0 F10500 X157.829 Y113.023
G1 F1800 X170.257 Y125.452 E50.28919
G0 F10500 X169.837 Y124.414
G1 F1800 X158.832 Y113.409 E50.60903
G0 F10500 X160.055 Y114.014
G1 F1800 X169.287 Y123.245 E50.87732
G0 F10500 X168.487 Y121.828
G1 F1800 X161.485 Y114.826 E51.08082
G0 F10500 X163.606 Y116.329
G1 F1800 X167.038 Y119.761 E51.18056
G1 F1500 E49.68056
G0 F10500 X159.159 Y154.607
;TYPE:SUPPORT
G1 F1500 E51.18056
G1 F1800 X159.159 Y157.478 E51.23956
G0 F10500 X158.844 Y157.993
G1 F1800 X150.924 Y157.993 E51.40232
G0 F10500 X150.997 Y157.792
G1 F1800 X150.997 Y158.331 E51.41340
G0 F10500 X151.624 Y159.159
G1 F1800 X158.278 Y159.159 E51.55014
G0 F10500 X157.993 Y159.644
G1 F1800 X157.993 Y154.937 E51.64687
G0 F10500 X156.827 Y155.267
G1 F1800 X156.827 Y162.010 E51.78545
G0 F10500 X157.146 Y161.491
G1 F1800 X151.141 Y161.491 E51.90885
G0 F10500 X150.997 Y161.748
G1 F1800 X150.997 Y165.814 E51.99241
G0 F10500 X149.831 Y165.814
G1 F1800 X149.831 Y162.096 E52.06882
G0 F10500 X148.665 Y161.815
G1 F1800 X148.665 Y165.814 E52.15100
G0 F10500 X147.499 Y165.814
G1 F1800 X147.499 Y156.181 E52.34896
G0 F10500 X148.270 Y156.827
G1 F1800 X140.341 Y156.827 E52.51191
G0 F10500 X140.503 Y157.438
G1 F1800 X140.503 Y154.345 E52.57547
G0 F10500 X140.341 Y154.495
G1 F1800 X140.939 Y154.495 E52.58776
G0 F10500 X141.669 Y154.747
G1 F1800 X141.669 Y159.804 E52.69168
G0 F10500 X141.341 Y159.159
G1 F1800 X147.878 Y159.159 E52.82602
G0 F10500 X148.665 Y158.172
G1 F1800 X148.665 Y158.085 E52.82781
G0 F10500 X148.637 Y157.993
G1 F1800 X140.741 Y157.993 E52.99008
G0 F10500 X141.401 Y157.834
G0 X141.001 Y155.661
G0 X140.341 Y155.661
G1 F1800 X144.702 Y155.661 E53.07970
G0 F10500 X145.167 Y155.771
G1 F1800 X145.167 Y165.538 E53.28042
G0 F10500 X144.453 Y164.989
G1 F1800 X155.249 Y164.989 E53.50228
G0 F10500 X155.661 Y164.376
G1 F1800 X155.661 Y155.597 E53.68269
G0 F10500 X155.436 Y155.661
G1 F1800 X159.161 Y155.661 E53.75924
G0 F10500 X159.161 Y156.827
G1 F1800 X151.352 Y156.827 E53.91972
G0 F10500 X152.163 Y156.206
G1 F1800 X152.163 Y165.814 E54.11717
G0 F10500 X153.329 Y165.814
G1 F1800 X153.329 Y156.051 E54.31781
G0 F10500 X154.495 Y155.846
G1 F1800 X154.495 Y165.743 E54.52120
G0 F10500 X154.130 Y165.176
G0 X155.301 Y163.823
G0 X155.961 Y163.823
G1 F1800 X143.688 Y163.823 E54.77341
G0 F10500 X144.001 Y164.537
G1 F1800 X144.001 Y155.463 E54.95989
G0 F10500 X142.835 Y155.132
G1 F1800 X142.835 Y162.170 E55.10452
G0 F10500 X143.122 Y162.657
G1 F1800 X156.561 Y162.657 E55.38070
G0 F10500 X155.901 Y162.434
G0 X157.124 Y159.981
G0 X157.712 Y160.325
G1 F1800 X151.741 Y160.325 E55.50341
G0 F10500 X152.401 Y160.325
G0 X152.285 Y161.140
G0 X151.211 Y162.489
G0 X149.764 Y162.855
G0 X147.997 Y162.340
G0 X147.753 Y161.957
G0 X148.219 Y161.491
G1 F1800 X142.541 Y161.491 E55.62009
G0 F10500 X141.941 Y160.325
G1 F1800 X147.561 Y160.325 E55.73559
G0 F10500 X146.901 Y160.325
G0 X146.218 Y156.625
G0 X146.333 Y155.976
G1 F1800 X146.333 Y165.814 E55.93776
;LAYER:1
G1 F1500 E54.43776
G0 F10500 X147.545 Y155.144 Z0.440
;TYPE:WALL-INNER
G1 F1500 E55.93776
G1 F2040 X147.407 Y155.134 E55.93883
G1 X145.208 Y154.747 E55.95598
G1 X145.073 Y154.723 E55.95703
G1 X142.902 Y154.095 E55.97439
G1 X140.767 Y153.248 E55.99203
G1 X138.955 Y152.302 E56.00773
G1 X137.029 Y151.057 E56.02535
G1 X135.351 Y149.710 E56.04187
G1 X133.817 Y148.207 E56.05837
G1 X132.428 Y146.551 E56.07497
G1 X131.283 Y144.872 E56.09058
G1 X130.622 Y143.745 E56.10062
G1 X130.588 Y143.686 E56.10114
G1 X130.070 Y142.650 E56.11004
G1 X129.181 Y140.467 E56.12814
G1 X129.131 Y140.343 E56.12917
G1 X128.533 Y138.229 E56.14604
G1 X128.497 Y138.105 E56.14704
G1 X128.123 Y135.907 E56.16416
G1 X128.099 Y135.764 E56.16527
G1 X127.967 Y133.758 E56.18072
G1 X127.958 Y133.635 E56.18166
G1 X127.988 Y132.679 E56.18901
G1 X130.453 Y133.576 E56.20916
G1 X130.921 Y130.683 E56.23167
G1 X131.556 Y128.080 E56.25225
G1 X125.083 Y125.723 E56.30516
G1 X125.519 Y124.316 E56.31647
G1 X125.561 Y124.180 E56.31757
G1 X126.458 Y122.107 E56.33492
G1 X126.516 Y121.974 E56.33603
G1 X127.290 Y120.559 E56.34842
G1 X127.945 Y119.543 E56.35770
G1 X130.801 Y120.569 E56.38101
G1 X131.679 Y120.886 E56.38818
G1 X133.357 Y118.759 E56.40899
G1 X134.946 Y117.090 E56.42669
G1 X136.580 Y115.700 E56.44317
G1 X138.367 Y114.460 E56.45988
G1 X139.500 Y113.801 E56.46995
G1 X140.684 Y113.204 E56.48013
G1 X142.783 Y112.358 E56.49751
G1 X142.911 Y112.306 E56.49857
G1 X144.992 Y111.717 E56.51519
G1 X147.493 Y111.272 E56.53470
G1 X149.717 Y111.139 E56.55181
G1 X149.854 Y111.130 E56.55287
G1 X152.089 Y111.236 E56.57005
G1 X152.233 Y111.243 E56.57116
G1 X154.449 Y111.590 E56.58839
G1 X154.584 Y111.611 E56.58944
G1 X156.764 Y112.197 E56.60678
G1 X156.901 Y112.235 E56.60787
G1 X159.145 Y113.107 E56.62636
G1 X161.070 Y114.093 E56.64297
G1 X162.885 Y115.258 E56.65954
G1 X164.479 Y116.517 E56.67514
G1 X164.583 Y116.600 E56.67616
G1 X166.041 Y118.004 E56.69171
G1 X166.133 Y118.093 E56.69269
G1 X167.448 Y119.637 E56.70827
G1 X168.674 Y121.381 E56.72464
G1 X169.383 Y122.574 E56.73530
G1 X170.000 Y123.785 E56.74574
G1 X170.884 Y125.955 E56.76374
G1 X170.934 Y126.079 E56.76477
G1 X171.531 Y128.188 E56.78160
G1 X171.567 Y128.312 E56.78260
G1 X171.964 Y130.649 E56.80080
G1 X172.096 Y132.656 E56.81625
G1 X172.104 Y132.775 E56.81717
G1 X172.073 Y133.744 E56.82462
G1 X169.617 Y132.851 E56.84469
G1 X169.174 Y136.101 E56.86988
G1 X169.155 Y136.233 E56.87091
G1 X168.638 Y138.326 E56.88747
G1 X168.605 Y138.459 E56.88852
G1 X168.049 Y140.070 E56.90161
G1 X166.880 Y142.783 E56.92430
G1 X172.754 Y144.933 E56.97234
G1 X172.338 Y145.713 E56.97913
G1 X171.686 Y146.720 E56.98835
G1 X168.403 Y145.529 E57.01517
G1 X166.643 Y147.760 E57.03700
G1 X165.130 Y149.330 E57.05375
G1 X163.494 Y150.722 E57.07025
G1 X161.705 Y151.964 E57.08698
G1 X160.577 Y152.621 E57.09700
G1 X159.475 Y153.175 E57.10648
G1 X157.283 Y154.067 E57.12465
G1 X157.157 Y154.119 E57.12570
G1 X155.077 Y154.708 E57.14230
G1 X152.570 Y155.154 E57.16186
G1 X151.288 Y155.259 E57.17174
G1 X149.783 Y155.294 E57.18331
G1 X147.545 Y155.144 E57.20053
G0 F10500 X148.141 Y148.881
G1 F2040 X149.684 Y148.991 E57.21242
G1 X149.849 Y149.002 E57.21369
G1 X151.573 Y148.921 E57.22694
G1 X151.763 Y148.911 E57.22840
G1 X153.485 Y148.615 E57.24183
G1 X153.670 Y148.582 E57.24327
G1 X155.091 Y148.169 E57.25464
G1 X156.600 Y147.570 E57.26711
G1 X158.273 Y146.673 E57.28169
G1 X159.776 Y145.616 E57.29580
G1 X159.930 Y145.505 E57.29726
G1 X160.873 Y144.646 E57.30706
G1 X162.657 Y145.295 E57.32164
G1 X163.414 Y145.573 E57.32783
G1 X164.600 Y144.185 E57.34185
G1 X164.696 Y144.073 E57.34299
G1 X165.422 Y143.010 E57.35287
G1 X166.105 Y141.859 E57.36316
G1 X166.689 Y140.867 E57.37200
G1 X160.447 Y138.594 E57.42302
G1 X160.832 Y137.781 E57.42993
G1 X160.921 Y137.594 E57.43152
G1 X161.505 Y135.767 E57.44625
G1 X161.567 Y135.570 E57.44784
G1 X161.881 Y133.867 E57.46114
G1 X161.914 Y133.687 E57.46255
G1 X162.014 Y132.311 E57.47314
G1 X162.025 Y132.160 E57.47431
G1 X162.020 Y131.947 E57.47594
G1 X164.316 Y132.778 E57.49470
G1 X165.957 Y133.373 E57.50811
G1 X165.550 Y130.335 E57.53165
G1 X165.525 Y130.153 E57.53306
G1 X165.099 Y128.509 E57.54611
G1 X165.051 Y128.328 E57.54754
G1 X164.415 Y126.716 E57.56085
G1 X164.345 Y126.538 E57.56232
G1 X163.331 Y124.692 E57.57850
G1 X162.107 Y123.031 E57.59435
G1 X160.651 Y121.523 E57.61045
G1 X159.000 Y120.217 E57.62662
G1 X157.180 Y119.138 E57.64287
G1 X155.417 Y118.388 E57.65759
G1 X155.227 Y118.307 E57.65917
G1 X153.379 Y117.785 E57.67392
G1 X151.670 Y117.520 E57.68721
G1 X151.483 Y117.491 E57.68866
G1 X149.568 Y117.428 E57.70338
G1 X147.846 Y117.581 E57.71666
G1 X147.658 Y117.599 E57.71811
G1 X145.933 Y117.970 E57.73166
G1 X144.568 Y118.397 E57.74264
G1 X143.477 Y118.853 E57.75173
G1 X143.350 Y118.906 E57.75278
G1 X141.832 Y119.730 E57.76605
G1 X141.666 Y119.820 E57.76750
G1 X140.280 Y120.808 E57.78057
G1 X140.128 Y120.917 E57.78201
G1 X139.185 Y121.776 E57.79181
G1 X136.516 Y120.804 E57.81363
G1 X135.286 Y122.331 E57.82869
G1 X135.174 Y122.468 E57.83005
G1 X134.453 Y123.704 E57.84104
G1 X134.365 Y123.851 E57.84235
G1 X133.664 Y125.507 E57.85617
G1 X133.590 Y125.681 E57.85762
G1 X133.054 Y127.424 E57.87162
G1 X132.412 Y130.123 E57.89293
G1 X137.796 Y132.199 E57.93726
G1 X137.672 Y133.121 E57.94440
G1 X137.648 Y133.295 E57.94575
G1 X137.610 Y134.320 E57.95363
G1 X135.728 Y133.638 E57.96900
G1 X134.120 Y133.055 E57.98214
G1 X134.527 Y136.094 E58.00569
G1 X134.552 Y136.275 E58.00710
G1 X134.972 Y137.918 E58.02012
G1 X135.020 Y138.099 E58.02156
G1 X135.651 Y139.710 E58.03485
G1 X135.721 Y139.889 E58.03633
G1 X136.635 Y141.553 E58.05091
G1 X136.735 Y141.735 E58.05250
G1 X137.838 Y143.231 E58.06678
G1 X137.959 Y143.396 E58.06835
G1 X139.271 Y144.754 E58.08286
G1 X139.415 Y144.904 E58.08445
G1 X140.902 Y146.079 E58.09901
G1 X141.065 Y146.209 E58.10061
G1 X142.707 Y147.183 E58.11528
G1 X142.885 Y147.289 E58.11687
G1 X144.839 Y148.119 E58.13317
G1 X146.683 Y148.639 E58.14789
G1 X148.141 Y148.881 E58.15924
G0 F10500 X148.182 Y148.533
G1 F2040 X149.709 Y148.642 E58.17100
G1 X149.853 Y148.652 E58.17211
G1 X151.556 Y148.571 E58.18520
G1 X151.724 Y148.563 E58.18650
G1 X153.425 Y148.270 E58.19975
G1 X153.590 Y148.241 E58.20104
G1 X154.978 Y147.837 E58.21214
G1 X156.453 Y147.252 E58.22433
G1 X158.089 Y146.375 E58.23859
G1 X159.574 Y145.330 E58.25254
G1 X159.710 Y145.233 E58.25382
G1 X160.793 Y144.245 E58.26508
G1 X162.778 Y144.966 E58.28130
G1 X163.306 Y145.161 E58.28562
G1 X164.334 Y143.957 E58.29779
G1 X164.417 Y143.860 E58.29877
G1 X165.127 Y142.821 E58.30843
G1 X165.804 Y141.681 E58.31862
G1 X166.174 Y141.052 E58.32422
G1 X159.967 Y138.791 E58.37496
G1 X160.516 Y137.632 E58.38481
G1 X160.595 Y137.465 E58.38623
G1 X161.171 Y135.661 E58.40078
G1 X161.227 Y135.485 E58.40220
G1 X161.536 Y133.805 E58.41532
G1 X161.567 Y133.642 E58.41659
G1 X161.665 Y132.285 E58.42704
G1 X161.674 Y132.151 E58.42807
G1 X161.657 Y131.444 E58.43350
G1 X164.435 Y132.449 E58.45619
G1 X165.533 Y132.847 E58.46517
G1 X165.203 Y130.382 E58.48427
G1 X165.181 Y130.221 E58.48552
G1 X164.760 Y128.597 E58.49840
G1 X164.718 Y128.437 E58.49967
G1 X164.089 Y126.845 E58.51282
G1 X164.027 Y126.687 E58.51412
G1 X163.035 Y124.881 E58.52995
G1 X161.839 Y123.257 E58.54544
G1 X160.415 Y121.783 E58.56119
G1 X158.801 Y120.506 E58.57699
G1 X157.022 Y119.451 E58.59288
G1 X155.280 Y118.710 E58.60742
G1 X155.111 Y118.638 E58.60883
G1 X153.304 Y118.128 E58.62325
G1 X151.617 Y117.866 E58.63637
G1 X151.450 Y117.840 E58.63766
G1 X149.577 Y117.778 E58.65206
G1 X147.879 Y117.929 E58.66515
G1 X147.711 Y117.945 E58.66645
G1 X146.022 Y118.309 E58.67972
G1 X144.688 Y118.726 E58.69046
G1 X143.612 Y119.176 E58.69941
G1 X143.502 Y119.222 E58.70033
G1 X142.000 Y120.037 E58.71346
G1 X141.852 Y120.118 E58.71475
G1 X140.483 Y121.093 E58.72766
G1 X140.348 Y121.189 E58.72893
G1 X139.265 Y122.177 E58.74019
G1 X136.632 Y121.218 E58.76172
G1 X135.557 Y122.551 E58.77487
G1 X135.463 Y122.667 E58.77602
G1 X134.754 Y123.883 E58.78683
G1 X134.678 Y124.010 E58.78797
G1 X133.986 Y125.645 E58.80160
G1 X133.919 Y125.802 E58.80291
G1 X133.392 Y127.516 E58.81669
G1 X132.823 Y129.907 E58.83556
G1 X138.167 Y131.968 E58.87956
G1 X138.179 Y131.973 E58.87966
G1 X138.019 Y133.169 E58.88893
G1 X137.997 Y133.325 E58.89014
G1 X137.958 Y134.370 E58.89817
G1 X137.954 Y134.470 E58.89894
G1 X137.966 Y134.821 E58.90164
G1 X135.609 Y133.967 E58.92089
G1 X134.544 Y133.581 E58.92959
G1 X134.874 Y136.047 E58.94870
G1 X134.896 Y136.207 E58.94994
G1 X135.311 Y137.830 E58.96281
G1 X135.353 Y137.990 E58.96408
G1 X135.976 Y139.582 E58.97721
G1 X136.039 Y139.740 E58.97852
G1 X136.942 Y141.385 E58.99293
G1 X137.031 Y141.546 E58.99435
G1 X138.119 Y143.024 E59.00844
G1 X138.227 Y143.170 E59.00984
G1 X139.523 Y144.512 E59.02417
G1 X139.650 Y144.644 E59.02557
G1 X141.119 Y145.805 E59.03996
G1 X141.264 Y145.920 E59.04138
G1 X142.885 Y146.882 E59.05586
G1 X143.044 Y146.976 E59.05727
G1 X144.955 Y147.788 E59.07322
G1 X146.759 Y148.297 E59.08762
G1 X148.182 Y148.533 E59.09870
G0 F10500 X147.521 Y155.493
G1 F2040 X147.360 Y155.482 E59.09994
G1 X145.147 Y155.092 E59.11720
G1 X144.991 Y155.065 E59.11841
G1 X142.805 Y154.432 E59.13590
G1 X142.656 Y154.389 E59.13709
G1 X140.609 Y153.561 E59.15405
G1 X138.794 Y152.612 E59.16978
G1 X136.825 Y151.343 E59.18777
G1 X135.118 Y149.972 E59.20459
G1 X133.555 Y148.440 E59.22140
G1 X132.155 Y146.770 E59.23814
G1 X130.994 Y145.070 E59.25395
G1 X130.319 Y143.920 E59.26419
G1 X129.745 Y142.782 E59.27398
G1 X128.857 Y140.599 E59.29208
G1 X128.798 Y140.455 E59.29328
G1 X128.196 Y138.324 E59.31029
G1 X128.155 Y138.179 E59.31144
G1 X127.778 Y135.966 E59.32869
G1 X127.751 Y135.807 E59.32993
G1 X127.618 Y133.782 E59.34551
G1 X127.608 Y133.639 E59.34661
G1 X127.653 Y132.184 E59.35780
G1 X130.175 Y133.102 E59.37841
G1 X130.577 Y130.619 E59.39773
G1 X131.141 Y128.302 E59.41605
G1 X124.670 Y125.945 E59.46895
G1 X124.650 Y125.938 E59.46911
G1 X125.184 Y124.212 E59.48299
G1 X125.233 Y124.059 E59.48422
G1 X126.137 Y121.967 E59.50172
G1 X126.200 Y121.822 E59.50294
G1 X126.986 Y120.385 E59.51552
G1 X127.802 Y119.120 E59.52708
G1 X130.920 Y120.240 E59.55253
G1 X131.561 Y120.471 E59.55776
G1 X133.082 Y118.542 E59.57663
G1 X134.704 Y116.837 E59.59471
G1 X136.374 Y115.416 E59.61155
G1 X138.167 Y114.171 E59.62832
G1 X139.336 Y113.492 E59.63870
G1 X140.547 Y112.881 E59.64912
G1 X142.652 Y112.034 E59.66655
G1 X142.803 Y111.973 E59.66780
G1 X144.906 Y111.378 E59.68458
G1 X147.454 Y110.924 E59.70446
G1 X149.696 Y110.790 E59.72172
G1 X149.857 Y110.780 E59.72295
G1 X152.106 Y110.886 E59.74025
G1 X152.258 Y110.893 E59.74142
G1 X154.503 Y111.245 E59.75887
G1 X154.664 Y111.270 E59.76012
G1 X156.856 Y111.860 E59.77756
G1 X157.015 Y111.903 E59.77882
G1 X159.287 Y112.786 E59.79755
G1 X161.235 Y113.784 E59.81436
G1 X163.095 Y114.978 E59.83134
G1 X164.697 Y116.243 E59.84701
G1 X164.813 Y116.335 E59.84815
G1 X166.284 Y117.752 E59.86384
G1 X167.714 Y119.410 E59.88066
G1 X168.970 Y121.193 E59.89741
G1 X169.690 Y122.405 E59.90824
G1 X170.317 Y123.636 E59.91885
G1 X171.208 Y125.823 E59.93699
G1 X171.267 Y125.967 E59.93818
G1 X171.868 Y128.093 E59.95515
G1 X171.909 Y128.238 E59.95631
G1 X172.312 Y130.605 E59.97475
G1 X172.445 Y132.633 E59.99036
G1 X172.454 Y132.766 E59.99139
G1 X172.407 Y134.238 E60.00270
G1 X169.905 Y133.328 E60.02315
G1 X169.520 Y136.150 E60.04502
G1 X169.499 Y136.298 E60.04617
G1 X168.977 Y138.411 E60.06289
G1 X168.941 Y138.560 E60.06407
G1 X168.376 Y140.195 E60.07736
G1 X167.348 Y142.581 E60.09731
G1 X173.252 Y144.743 E60.14560
G1 X172.641 Y145.888 E60.15557
G1 X171.828 Y147.144 E60.16706
G1 X168.522 Y145.944 E60.19408
G1 X166.909 Y147.988 E60.21408
G1 X165.373 Y149.583 E60.23109
G1 X163.700 Y151.006 E60.24796
G1 X161.905 Y152.252 E60.26474
G1 X160.734 Y152.933 E60.27515
G1 X159.613 Y153.498 E60.28479
G1 X157.416 Y154.392 E60.30301
G1 X157.265 Y154.452 E60.30425
G1 X155.163 Y155.047 E60.32103
G1 X152.607 Y155.502 E60.34098
G1 X151.309 Y155.609 E60.35098
G1 X149.778 Y155.644 E60.36274
G1 X147.521 Y155.493 E60.38012
G0 F10500 X147.496 Y155.842
;TYPE:WALL-OUTER
G1 F1920 X147.313 Y155.829 E60.38153
G1 X145.086 Y155.437 E60.39889
G1 X144.917 Y155.407 E60.40021
G1 X142.708 Y154.768 E60.41788
G1 X142.536 Y154.718 E60.41925
G1 X140.468 Y153.882 E60.43638
G1 X138.632 Y152.923 E60.45229
G1 X138.496 Y152.852 E60.45347
G1 X136.616 Y151.624 E60.47072
G1 X134.885 Y150.233 E60.48778
G1 X133.298 Y148.679 E60.50484
G1 X131.876 Y146.982 E60.52184
G1 X130.705 Y145.267 E60.53779
G1 X130.016 Y144.095 E60.54824
G1 X129.967 Y144.010 E60.54899
G1 X129.427 Y142.929 E60.55827
G1 X128.533 Y140.731 E60.57650
G1 X128.466 Y140.566 E60.57787
G1 X127.859 Y138.420 E60.59500
G1 X127.813 Y138.260 E60.59627
G1 X127.433 Y136.025 E60.61369
G1 X127.403 Y135.851 E60.61504
G1 X127.269 Y133.806 E60.63079
G1 X127.257 Y133.643 E60.63204
G1 X127.318 Y131.690 E60.64705
G1 X129.897 Y132.629 E60.66813
G1 X130.235 Y130.542 E60.68437
G1 X130.727 Y128.523 E60.70033
G1 X124.550 Y126.274 E60.75082
G1 X124.217 Y126.153 E60.75354
G1 X124.851 Y124.107 E60.77000
G1 X124.903 Y123.939 E60.77135
G1 X125.817 Y121.826 E60.78903
G1 X125.885 Y121.669 E60.79035
G1 X126.686 Y120.204 E60.80317
G1 X127.659 Y118.697 E60.81695
G1 X131.039 Y119.911 E60.84453
G1 X131.442 Y120.056 E60.84782
G1 X132.807 Y118.325 E60.86476
G1 X132.905 Y118.201 E60.86597
G1 X134.466 Y116.579 E60.88326
G1 X136.150 Y115.146 E60.90024
G1 X137.992 Y113.868 E60.91747
G1 X139.162 Y113.187 E60.92786
G1 X140.405 Y112.561 E60.93855
G1 X142.521 Y111.709 E60.95607
G1 X142.687 Y111.642 E60.95745
G1 X144.830 Y111.036 E60.97455
G1 X147.406 Y110.577 E60.99465
G1 X149.674 Y110.441 E61.01210
G1 X149.851 Y110.430 E61.01347
G1 X152.123 Y110.537 E61.03094
G1 X152.300 Y110.546 E61.03230
G1 X154.558 Y110.899 E61.04985
G1 X154.734 Y110.927 E61.05122
G1 X156.947 Y111.522 E61.06882
G1 X157.123 Y111.570 E61.07022
G1 X159.425 Y112.465 E61.08920
G1 X161.419 Y113.486 E61.10640
G1 X163.300 Y114.693 E61.12357
G1 X164.915 Y115.969 E61.13938
G1 X165.044 Y116.071 E61.14064
G1 X166.527 Y117.501 E61.15647
G1 X166.648 Y117.618 E61.15776
G1 X167.981 Y119.183 E61.17355
G1 X168.079 Y119.298 E61.17471
G1 X169.264 Y121.003 E61.19066
G1 X169.997 Y122.236 E61.20168
G1 X170.633 Y123.484 E61.21243
G1 X171.532 Y125.691 E61.23074
G1 X171.598 Y125.853 E61.23208
G1 X172.205 Y127.997 E61.24920
G1 X172.250 Y128.153 E61.25044
G1 X172.660 Y130.562 E61.26921
G1 X172.794 Y132.610 E61.28498
G1 X172.805 Y132.772 E61.28623
G1 X172.742 Y134.732 E61.30129
G1 X170.193 Y133.805 E61.32212
G1 X169.867 Y136.199 E61.34068
G1 X169.845 Y136.358 E61.34191
G1 X169.317 Y138.495 E61.35882
G1 X169.274 Y138.666 E61.36017
G1 X168.703 Y140.320 E61.37361
G1 X167.816 Y142.380 E61.39084
G1 X173.493 Y144.458 E61.43728
G1 X173.751 Y144.553 E61.43939
G1 X172.945 Y146.063 E61.45253
G1 X171.971 Y147.567 E61.46630
G1 X168.640 Y146.359 E61.49351
G1 X167.175 Y148.217 E61.51169
G1 X165.610 Y149.841 E61.52901
G1 X163.924 Y151.276 E61.54602
G1 X162.080 Y152.555 E61.56325
G1 X160.908 Y153.238 E61.57367
G1 X159.761 Y153.815 E61.58354
G1 X157.547 Y154.716 E61.60190
G1 X157.381 Y154.783 E61.60327
G1 X155.239 Y155.389 E61.62037
G1 X152.653 Y155.850 E61.64054
G1 X151.326 Y155.959 E61.65077
G1 X149.774 Y155.995 E61.66270
G1 X147.496 Y155.842 E61.68023
G0 F10500 X147.505 Y155.568
G0 X148.205 Y148.458
G0 X148.223 Y148.185
G1 F1920 X149.734 Y148.293 E61.69187
G1 X149.857 Y148.301 E61.69281
G1 X151.539 Y148.222 E61.70575
G1 X151.685 Y148.214 E61.70687
G1 X153.365 Y147.925 E61.71996
G1 X153.511 Y147.900 E61.72110
G1 X154.864 Y147.506 E61.73193
G1 X156.305 Y146.934 E61.74384
G1 X157.905 Y146.076 E61.75778
G1 X159.371 Y145.045 E61.77155
G1 X159.489 Y144.960 E61.77266
G1 X160.695 Y143.861 E61.78520
G1 X160.714 Y143.843 E61.78540
G1 X162.899 Y144.638 E61.80326
G1 X163.198 Y144.748 E61.80570
G1 X164.068 Y143.730 E61.81599
G1 X164.139 Y143.647 E61.81683
G1 X164.832 Y142.633 E61.82626
G1 X165.503 Y141.503 E61.83636
G1 X165.659 Y141.237 E61.83872
G1 X159.767 Y139.091 E61.88689
G1 X159.486 Y138.989 E61.88919
G1 X160.199 Y137.482 E61.90199
G1 X160.269 Y137.336 E61.90323
G1 X160.838 Y135.554 E61.91760
G1 X160.887 Y135.400 E61.91884
G1 X161.192 Y133.741 E61.93180
G1 X161.219 Y133.597 E61.93293
G1 X161.316 Y132.259 E61.94323
G1 X161.324 Y132.142 E61.94413
G1 X161.295 Y130.940 E61.95337
G1 X164.554 Y132.120 E61.97999
G1 X165.110 Y132.321 E61.98453
G1 X164.856 Y130.429 E61.99919
G1 X164.837 Y130.289 E62.00028
G1 X164.421 Y128.686 E62.01300
G1 X164.385 Y128.546 E62.01411
G1 X163.764 Y126.973 E62.02710
G1 X163.710 Y126.836 E62.02823
G1 X162.740 Y125.070 E62.04371
G1 X161.571 Y123.484 E62.05884
G1 X160.180 Y122.043 E62.07422
G1 X158.602 Y120.795 E62.08968
G1 X156.863 Y119.764 E62.10520
G1 X155.143 Y119.032 E62.11956
G1 X154.994 Y118.969 E62.12080
G1 X153.229 Y118.471 E62.13489
G1 X151.563 Y118.212 E62.14784
G1 X151.417 Y118.189 E62.14898
G1 X149.587 Y118.129 E62.16304
G1 X147.911 Y118.278 E62.17596
G1 X147.765 Y118.292 E62.17709
G1 X146.111 Y118.648 E62.19009
G1 X144.808 Y119.055 E62.20057
G1 X143.747 Y119.499 E62.20941
G1 X142.166 Y120.345 E62.22318
G1 X142.037 Y120.415 E62.22431
G1 X140.686 Y121.378 E62.23705
G1 X140.569 Y121.462 E62.23816
G1 X139.363 Y122.561 E62.25069
G1 X139.344 Y122.579 E62.25089
G1 X136.747 Y121.633 E62.27212
G1 X135.829 Y122.772 E62.28335
G1 X135.752 Y122.867 E62.28429
G1 X135.055 Y124.062 E62.29492
G1 X134.991 Y124.168 E62.29587
G1 X134.307 Y125.784 E62.30935
G1 X134.248 Y125.923 E62.31051
G1 X133.730 Y127.608 E62.32405
G1 X133.234 Y129.690 E62.34049
G1 X138.293 Y131.641 E62.38214
G1 X138.563 Y131.745 E62.38436
G1 X138.366 Y133.216 E62.39576
G1 X138.346 Y133.356 E62.39685
G1 X138.308 Y134.382 E62.40473
G1 X138.304 Y134.472 E62.40542
G1 X138.335 Y135.327 E62.41199
G1 X135.490 Y134.296 E62.43524
G1 X134.967 Y134.107 E62.43951
G1 X135.221 Y136.000 E62.45418
G1 X135.240 Y136.140 E62.45526
G1 X135.650 Y137.742 E62.46797
G1 X135.686 Y137.881 E62.46907
G1 X136.302 Y139.454 E62.48204
G1 X136.356 Y139.591 E62.48318
G1 X137.249 Y141.216 E62.49742
G1 X137.326 Y141.357 E62.49865
G1 X138.401 Y142.816 E62.51257
G1 X138.495 Y142.943 E62.51379
G1 X139.775 Y144.269 E62.52794
G1 X139.886 Y144.384 E62.52917
G1 X141.337 Y145.531 E62.54338
G1 X141.463 Y145.631 E62.54461
G1 X143.064 Y146.581 E62.55891
G1 X143.203 Y146.663 E62.56015
G1 X145.072 Y147.457 E62.57575
G1 X146.836 Y147.955 E62.58983
G1 X148.223 Y148.185 E62.60063
G0 F10500 X148.207 Y149.024
;TYPE:FILL
G1 F2220 X143.197 Y154.034 E62.65505
G0 F10500 X142.824 Y153.912
G1 F2220 X147.776 Y148.960 E62.70884
G0 F10500 X147.352 Y148.889
G1 F2220 X142.469 Y153.772 E62.76188
G0 F10500 X142.115 Y153.631
G1 F2220 X146.927 Y148.819 E62.81415
G0 F10500 X146.516 Y148.735
G1 F2220 X141.761 Y153.490 E62.86580
G0 F10500 X141.407 Y153.350
G1 F2220 X146.130 Y148.626 E62.91711
G0 F10500 X145.744 Y148.517
G1 F2220 X141.052 Y153.209 E62.96808
G0 F10500 X140.708 Y153.058
G1 F2220 X145.358 Y148.408 E63.01859
G0 F10500 X144.972 Y148.300
G1 F2220 X140.383 Y152.889 E63.06844
G0 F10500 X140.058 Y152.719
G1 F2220 X144.606 Y148.170 E63.11785
G0 F10500 X144.259 Y148.022
G1 F2220 X139.732 Y152.549 E63.16702
G0 F10500 X139.407 Y152.380
G1 F2220 X143.911 Y147.875 E63.21595
G0 F10500 X143.564 Y147.728
G1 F2220 X139.082 Y152.209 E63.26463
G0 F10500 X138.777 Y152.020
G1 F2220 X143.216 Y147.580 E63.31286
G0 F10500 X142.869 Y147.433
G1 F2220 X138.476 Y151.825 E63.36057
G0 F10500 X138.176 Y151.631
G1 F2220 X142.554 Y147.253 E63.40813
G0 F10500 X142.243 Y147.069
G1 F2220 X137.875 Y151.436 E63.45557
G0 F10500 X137.575 Y151.242
G1 F2220 X141.932 Y146.885 E63.50290
G0 F10500 X141.622 Y146.700
G1 F2220 X137.274 Y151.047 E63.55012
G0 F10500 X136.985 Y150.842
G1 F2220 X141.311 Y146.516 E63.59711
G0 F10500 X141.000 Y146.332
G1 F2220 X136.711 Y150.621 E63.64370
G0 F10500 X136.436 Y150.401
G1 F2220 X140.723 Y146.114 E63.69027
G0 F10500 X140.446 Y145.895
G1 F2220 X136.161 Y150.180 E63.73681
G0 F10500 X135.887 Y149.960
G1 F2220 X140.169 Y145.678 E63.78333
G0 F10500 X143.581 Y154.145
G1 F2220 X148.669 Y149.058 E63.83859
G0 F10500 X149.130 Y149.092
G1 F2220 X143.965 Y154.256 E63.89469
G0 F10500 X144.349 Y154.367
G1 F2220 X149.591 Y149.125 E63.95163
G0 F10500 X150.081 Y149.130
G1 F2220 X144.733 Y154.478 E64.00973
G0 F10500 X145.118 Y154.588
G1 F2220 X150.601 Y149.106 E64.06928
G0 F10500 X151.120 Y149.082
G1 F2220 X145.539 Y154.662 E64.12990
G0 F10500 X145.960 Y154.736
G1 F2220 X151.639 Y149.057 E64.19159
G0 F10500 X152.218 Y148.973
G1 F2220 X146.381 Y154.811 E64.25500
G0 F10500 X146.801 Y154.885
G1 F2220 X152.815 Y148.871 E64.32032
G0 F10500 X153.412 Y148.769
G1 F2220 X147.222 Y154.959 E64.38756
G0 F10500 X147.665 Y155.011
G1 F2220 X154.065 Y148.611 E64.45708
G0 F10500 X154.762 Y148.409
G1 F2220 X148.129 Y155.042 E64.52913
G0 F10500 X148.593 Y155.073
G1 F2220 X155.517 Y148.149 E64.60435
G0 F10500 X156.339 Y147.822
G1 F2220 X149.058 Y155.103 E64.68344
G0 F10500 X149.521 Y155.134
G1 F2220 X157.310 Y147.346 E64.76804
G0 F10500 X158.395 Y146.756
G1 F2220 X150.003 Y155.148 E64.85920
G0 F10500 X150.510 Y155.136
G1 F2220 X160.202 Y145.444 E64.96448
G0 F10500 X161.221 Y144.920
G1 F2220 X151.016 Y155.125 E65.07533
G0 F10500 X151.538 Y155.098
G1 F2220 X161.583 Y145.053 E65.18444
G0 F10500 X161.947 Y145.184
G1 F2220 X152.077 Y155.054 E65.29166
G0 F10500 X152.624 Y155.002
G1 F2220 X162.309 Y145.316 E65.39687
G0 F10500 X162.672 Y145.449
G1 F2220 X153.226 Y154.895 E65.49947
G0 F10500 X153.828 Y154.788
G1 F2220 X163.034 Y145.581 E65.59948
G0 F10500 X163.396 Y145.714
G1 F2220 X154.430 Y154.681 E65.69688
G0 F10500 X155.032 Y154.574
G1 F2220 X166.729 Y142.877 E65.82394
G0 F10500 X167.092 Y143.009
G1 F2220 X155.721 Y154.379 E65.94745
G0 F10500 X156.412 Y154.184
G1 F2220 X167.454 Y143.142 E66.06740
G0 F10500 X167.816 Y143.274
G1 F2220 X157.102 Y153.988 E66.18378
G0 F10500 X157.937 Y153.649
G1 F2220 X168.178 Y143.407 E66.29503
G0 F10500 X168.541 Y143.539
G1 F2220 X158.772 Y153.309 E66.40115
G0 F10500 X159.643 Y152.933
G1 F2220 X168.903 Y143.672 E66.50174
G0 F10500 X169.266 Y143.805
G1 F2220 X160.660 Y152.411 E66.59522
G0 F10500 X161.928 Y151.638
G1 F2220 X169.628 Y143.937 E66.67887
G0 F10500 X169.991 Y144.070
G1 F2220 X168.606 Y145.454 E66.69391
G0 F10500 X168.970 Y145.586
G1 F2220 X170.353 Y144.203 E66.70893
G0 F10500 X170.716 Y144.335
G1 F2220 X169.333 Y145.717 E66.72395
G0 F10500 X169.696 Y145.849
G1 F2220 X171.078 Y144.468 E66.73896
G0 F10500 X171.440 Y144.600
G1 F2220 X170.059 Y145.981 E66.75396
G0 F10500 X170.423 Y146.113
G1 F2220 X171.802 Y144.733 E66.76894
G0 F10500 X172.164 Y144.866
G1 F2220 X170.786 Y146.245 E66.78392
G0 F10500 X171.149 Y146.376
G1 F2220 X172.527 Y144.998 E66.79888
G0 F10500 X171.916 Y146.105
G1 F2220 X171.512 Y146.508 E66.80327
G0 F10500 X168.527 Y145.960
G0 X167.071 Y146.989
G1 F2220 X163.688 Y150.372 E66.84002
G0 F10500 X163.939 Y145.171
G1 F2220 X167.027 Y142.083 E66.87356
G0 F10500 X166.274 Y141.847
G1 F2220 X167.777 Y140.344 E66.88989
G0 F10500 X168.081 Y139.545
G1 F2220 X166.848 Y140.777 E66.90327
G0 F10500 X166.486 Y140.645
G1 F2220 X168.342 Y138.789 E66.92343
G0 F10500 X168.552 Y138.084
G1 F2220 X166.123 Y140.513 E66.94982
G0 F10500 X165.760 Y140.381
G1 F2220 X168.714 Y137.427 E66.98191
G0 F10500 X168.876 Y136.770
G1 F2220 X165.397 Y140.248 E67.01969
G0 F10500 X165.035 Y140.116
G1 F2220 X169.028 Y136.123 E67.06307
G0 F10500 X169.107 Y135.549
G1 F2220 X164.671 Y139.985 E67.11125
G0 F10500 X164.308 Y139.852
G1 F2220 X169.185 Y134.976 E67.16422
G0 F10500 X169.263 Y134.403
G1 F2220 X163.946 Y139.720 E67.22198
G0 F10500 X163.583 Y139.588
G1 F2220 X169.341 Y133.830 E67.28453
G0 F10500 X169.419 Y133.257
G1 F2220 X163.220 Y139.456 E67.35186
G0 F10500 X162.858 Y139.324
G1 F2220 X169.497 Y132.684 E67.42399
G0 F10500 X169.516 Y132.665
G1 F2220 X171.778 Y130.403 E67.44856
G0 F10500 X171.706 Y129.980
G1 F2220 X162.494 Y139.192 E67.54862
G0 F10500 X162.131 Y139.060
G1 F2220 X171.635 Y129.556 E67.65186
G0 F10500 X171.563 Y129.133
G1 F2220 X161.769 Y138.928 E67.75825
G0 F10500 X161.406 Y138.795
G1 F2220 X171.491 Y128.711 E67.86780
G0 F10500 X171.414 Y128.292
G1 F2220 X166.125 Y133.581 E67.92525
G0 F10500 X166.124 Y133.582
G1 F2220 X161.043 Y138.663 E67.98044
G0 F10500 X160.680 Y138.531
G1 F2220 X165.761 Y133.450 E68.03563
G0 F10500 X165.397 Y133.319
G1 F2220 X161.030 Y137.686 E68.08307
G0 F10500 X161.273 Y136.948
G1 F2220 X165.034 Y133.187 E68.12392
G0 F10500 X164.671 Y133.055
G1 F2220 X161.506 Y136.220 E68.15830
G0 F10500 X161.720 Y135.512
G1 F2220 X164.308 Y132.924 E68.18642
G0 F10500 X163.944 Y132.792
G1 F2220 X161.831 Y134.905 E68.20937
G0 F10500 X161.944 Y134.297
G1 F2220 X163.581 Y132.661 E68.22715
G0 F10500 X163.217 Y132.529
G1 F2220 X162.054 Y133.693 E68.23978
G0 F10500 X162.092 Y133.159
G1 F2220 X162.854 Y132.397 E68.24806
G0 F10500 X162.491 Y132.266
G1 F2220 X162.131 Y132.625 E68.25197
G0 F10500 X165.447 Y132.739
G0 X165.950 Y132.272
G1 F2220 X171.086 Y127.135 E68.30776
G0 F10500 X170.977 Y126.749
G1 F2220 X165.891 Y131.835 E68.36301
G0 F10500 X165.832 Y131.399
G1 F2220 X170.868 Y126.364 E68.41771
G0 F10500 X170.745 Y125.991
G1 F2220 X165.774 Y130.963 E68.47171
G0 F10500 X165.715 Y130.526
G1 F2220 X170.602 Y125.639 E68.52480
G0 F10500 X170.459 Y125.288
G1 F2220 X165.653 Y130.093 E68.57700
G0 F10500 X165.552 Y129.700
G1 F2220 X170.316 Y124.935 E68.62875
G0 F10500 X170.173 Y124.584
G1 F2220 X165.450 Y129.307 E68.68005
G0 F10500 X165.348 Y128.914
G1 F2220 X170.030 Y124.232 E68.73091
G0 F10500 X169.886 Y123.880
G1 F2220 X165.245 Y128.521 E68.78133
G0 F10500 X165.128 Y128.144
G1 F2220 X169.722 Y123.549 E68.83123
G0 F10500 X169.555 Y123.221
G1 F2220 X164.988 Y127.789 E68.88085
G0 F10500 X164.848 Y127.434
G1 F2220 X169.388 Y122.894 E68.93016
G0 F10500 X169.217 Y122.569
G1 F2220 X164.708 Y127.079 E68.97915
G0 F10500 X164.568 Y126.724
G1 F2220 X169.032 Y122.260 E69.02764
G0 F10500 X168.847 Y121.949
G1 F2220 X164.417 Y126.380 E69.07577
G0 F10500 X164.241 Y126.060
G1 F2220 X168.663 Y121.639 E69.12379
G0 F10500 X168.470 Y121.337
G1 F2220 X164.066 Y125.741 E69.17163
G0 F10500 X163.891 Y125.421
G1 F2220 X168.265 Y121.046 E69.21915
G0 F10500 X168.061 Y120.756
G1 F2220 X163.715 Y125.102 E69.26636
G0 F10500 X163.540 Y124.782
G1 F2220 X167.857 Y120.465 E69.31325
G0 F10500 X167.652 Y120.174
G1 F2220 X163.348 Y124.479 E69.36001
G0 F10500 X163.138 Y124.194
G1 F2220 X167.449 Y119.883 E69.40684
G0 F10500 X167.234 Y119.602
G1 F2220 X162.928 Y123.909 E69.45362
G0 F10500 X162.717 Y123.624
G1 F2220 X167.007 Y119.335 E69.50021
G0 F10500 X166.779 Y119.068
G1 F2220 X162.507 Y123.339 E69.54661
G0 F10500 X162.297 Y123.054
G1 F2220 X166.551 Y118.801 E69.59282
G0 F10500 X166.324 Y118.533
G1 F2220 X162.068 Y122.789 E69.63905
G0 F10500 X161.825 Y122.537
G1 F2220 X166.096 Y118.266 E69.68544
G0 F10500 X165.851 Y118.016
G1 F2220 X161.582 Y122.285 E69.73181
G0 F10500 X161.339 Y122.033
G1 F2220 X165.599 Y117.773 E69.77809
G0 F10500 X165.347 Y117.531
G1 F2220 X161.095 Y121.782 E69.82427
G0 F10500 X160.853 Y121.529
G1 F2220 X165.095 Y117.287 E69.87035
G0 F10500 X164.842 Y117.045
G1 F2220 X160.591 Y121.297 E69.91653
G0 F10500 X160.314 Y121.078
G1 F2220 X164.591 Y116.802 E69.96299
G0 F10500 X164.324 Y116.573
G1 F2220 X160.038 Y120.860 E70.00955
G0 F10500 X171.196 Y127.521
G1 F2220 X166.008 Y132.708 E70.06590
G0 F10500 X166.066 Y133.145
G1 F2220 X171.305 Y127.907 E70.12280
G0 F10500 X171.835 Y130.841
G1 F2220 X169.879 Y132.797 E70.14405
G0 F10500 X170.242 Y132.929
G1 F2220 X171.865 Y131.306 E70.16168
G0 F10500 X171.896 Y131.770
G1 F2220 X170.605 Y133.061 E70.17570
G0 F10500 X170.967 Y133.194
G1 F2220 X171.926 Y132.235 E70.18612
G0 F10500 X171.957 Y132.699
G1 F2220 X171.331 Y133.325 E70.19292
G0 F10500 X171.694 Y133.457
G1 F2220 X171.949 Y133.202 E70.19569
G0 F10500 X169.946 Y133.396
G0 X167.402 Y141.214
G1 F2220 X165.550 Y143.066 E70.21581
G0 F10500 X166.105 Y141.077
G0 X165.205 Y130.217
G0 X164.050 Y126.677
G0 X161.857 Y123.242
G0 X159.761 Y120.641
G1 F2220 X164.048 Y116.355 E70.26237
G0 F10500 X163.771 Y116.136
G1 F2220 X159.485 Y120.423 E70.30893
G0 F10500 X159.209 Y120.203
G1 F2220 X163.495 Y115.918 E70.35548
G0 F10500 X163.218 Y115.699
G1 F2220 X158.914 Y120.003 E70.40223
G0 F10500 X149.826 Y111.272
G1 F2220 X140.922 Y120.177 E70.49896
G0 F10500 X142.250 Y119.344
G1 F2220 X150.302 Y111.291 E70.58643
G0 F10500 X150.774 Y111.314
G1 F2220 X143.323 Y118.765 E70.66737
G0 F10500 X144.174 Y118.409
G1 F2220 X151.248 Y111.336 E70.74420
G0 F10500 X151.721 Y111.358
G1 F2220 X144.948 Y118.130 E70.81777
G0 F10500 X145.668 Y117.905
G1 F2220 X152.192 Y111.381 E70.88864
G0 F10500 X152.623 Y111.445
G1 F2220 X146.326 Y117.742 E70.95704
G0 F10500 X146.957 Y117.606
G1 F2220 X153.051 Y111.512 E71.02323
G0 F10500 X153.478 Y111.580
G1 F2220 X147.588 Y117.470 E71.08721
G0 F10500 X148.138 Y117.415
G1 F2220 X153.907 Y111.646 E71.14988
G0 F10500 X154.335 Y111.713
G1 F2220 X148.682 Y117.366 E71.21129
G0 F10500 X149.225 Y117.318
G1 F2220 X154.744 Y111.799 E71.27124
G0 F10500 X155.134 Y111.903
G1 F2220 X149.744 Y117.294 E71.32979
G0 F10500 X150.224 Y117.309
G1 F2220 X155.525 Y112.008 E71.38737
G0 F10500 X155.915 Y112.113
G1 F2220 X150.702 Y117.325 E71.44400
G0 F10500 X151.182 Y117.341
G1 F2220 X156.305 Y112.217 E71.49965
G0 F10500 X156.696 Y112.322
G1 F2220 X151.643 Y117.374 E71.55453
G0 F10500 X152.072 Y117.441
G1 F2220 X157.065 Y112.448 E71.60877
G0 F10500 X157.421 Y112.586
G1 F2220 X152.501 Y117.507 E71.66222
G0 F10500 X152.929 Y117.574
G1 F2220 X157.778 Y112.725 E71.71489
G0 F10500 X158.134 Y112.864
G1 F2220 X153.358 Y117.640 E71.76677
G0 F10500 X153.749 Y117.744
G1 F2220 X158.490 Y113.002 E71.81827
G0 F10500 X158.847 Y113.141
G1 F2220 X154.134 Y117.854 E71.86947
G0 F10500 X154.520 Y117.963
G1 F2220 X159.193 Y113.289 E71.92024
G0 F10500 X159.521 Y113.457
G1 F2220 X154.905 Y118.072 E71.97037
G0 F10500 X155.289 Y118.183
G1 F2220 X159.847 Y113.625 E72.01988
G0 F10500 X160.175 Y113.793
G1 F2220 X155.637 Y118.330 E72.06917
G0 F10500 X155.984 Y118.478
G1 F2220 X160.502 Y113.960 E72.11825
G0 F10500 X160.829 Y114.129
G1 F2220 X156.332 Y118.626 E72.16710
G0 F10500 X156.679 Y118.774
G1 F2220 X161.144 Y114.308 E72.21560
G0 F10500 X161.445 Y114.502
G1 F2220 X157.026 Y118.921 E72.26361
G0 F10500 X157.360 Y119.083
G1 F2220 X161.747 Y114.695 E72.31127
G0 F10500 X162.049 Y114.888
G1 F2220 X157.670 Y119.267 E72.35883
G0 F10500 X157.981 Y119.451
G1 F2220 X162.351 Y115.082 E72.40630
G0 F10500 X162.652 Y115.275
G1 F2220 X158.292 Y119.636 E72.45366
G0 F10500 X158.603 Y119.819
G1 F2220 X162.942 Y115.481 E72.50079
G0 F10500 X149.299 Y111.304
G1 F2220 X139.031 Y121.572 E72.61233
G0 F10500 X138.668 Y121.440
G1 F2220 X148.773 Y111.335 E72.72209
G0 F10500 X148.247 Y111.367
G1 F2220 X138.305 Y121.308 E72.83008
G0 F10500 X137.943 Y121.176
G1 F2220 X147.720 Y111.398 E72.93629
G0 F10500 X147.149 Y111.474
G1 F2220 X137.580 Y121.043 E73.04023
G0 F10500 X137.217 Y120.911
G1 F2220 X146.547 Y111.581 E73.14158
G0 F10500 X145.945 Y111.688
G1 F2220 X136.854 Y120.779 E73.24033
G0 F10500 X136.492 Y120.647
G1 F2220 X145.342 Y111.796 E73.33647
G0 F10500 X144.699 Y111.944
G1 F2220 X129.471 Y127.172 E73.50189
G0 F10500 X129.109 Y127.040
G1 F2220 X144.009 Y112.140 E73.66374
G0 F10500 X143.319 Y112.335
G1 F2220 X128.746 Y126.907 E73.82203
G0 F10500 X128.383 Y126.775
G1 F2220 X142.561 Y112.598 E73.97604
G0 F10500 X141.732 Y112.932
G1 F2220 X128.020 Y126.643 E74.12498
G0 F10500 X127.658 Y126.511
G1 F2220 X140.903 Y113.265 E74.26886
G0 F10500 X139.938 Y113.736
G1 F2220 X127.294 Y126.379 E74.40620
G0 F10500 X126.932 Y126.247
G1 F2220 X138.825 Y114.354 E74.53539
G0 F10500 X137.347 Y115.336
G1 F2220 X132.069 Y120.614 E74.59272
G0 F10500 X131.658 Y121.026
G1 F2220 X126.569 Y126.115 E74.64800
G0 F10500 X126.206 Y125.983
G1 F2220 X131.294 Y120.895 E74.70327
G0 F10500 X130.930 Y120.764
G1 F2220 X125.843 Y125.850 E74.75852
G0 F10500 X125.481 Y125.718
G1 F2220 X130.566 Y120.633 E74.81376
G0 F10500 X130.202 Y120.502
G1 F2220 X125.341 Y125.363 E74.86656
G0 F10500 X125.563 Y124.646
G1 F2220 X129.837 Y120.372 E74.91299
G0 F10500 X129.473 Y120.241
G1 F2220 X125.850 Y123.863 E74.95234
G0 F10500 X126.227 Y122.992
G1 F2220 X129.109 Y120.110 E74.98364
G0 F10500 X128.745 Y119.979
G1 F2220 X126.604 Y122.120 E75.00690
G0 F10500 X127.183 Y121.046
G1 F2220 X128.380 Y119.848 E75.01991
G0 F10500 X128.016 Y119.718
G1 F2220 X127.966 Y119.768 E75.02045
G0 F10500 X134.164 Y123.965
G1 F2220 X130.560 Y127.568 E75.05959
G0 F10500 X130.198 Y127.436
G1 F2220 X134.792 Y122.841 E75.10950
G0 F10500 X133.800 Y124.823
G1 F2220 X130.923 Y127.700 E75.14075
G0 F10500 X131.286 Y127.832
G1 F2220 X133.443 Y125.676 E75.16418
G0 F10500 X133.223 Y126.390
G1 F2220 X131.649 Y127.965 E75.18128
G0 F10500 X131.593 Y128.515
G1 F2220 X133.004 Y127.104 E75.19661
G0 F10500 X132.824 Y127.779
G1 F2220 X131.433 Y129.170 E75.21172
G0 F10500 X131.274 Y129.824
G1 F2220 X132.669 Y128.429 E75.22687
G0 F10500 X132.515 Y129.078
G1 F2220 X131.114 Y130.479 E75.24209
G0 F10500 X130.997 Y131.091
G1 F2220 X132.360 Y129.728 E75.25689
G0 F10500 X132.339 Y130.244
G1 F2220 X130.901 Y131.683 E75.27252
G0 F10500 X130.805 Y132.273
G1 F2220 X132.697 Y130.382 E75.29307
G0 F10500 X133.054 Y130.519
G1 F2220 X130.710 Y132.863 E75.31853
G0 F10500 X130.613 Y133.455
G1 F2220 X133.411 Y130.657 E75.34892
G0 F10500 X133.769 Y130.794
G1 F2220 X128.322 Y136.241 E75.40809
G0 F10500 X128.394 Y136.664
G1 F2220 X134.126 Y130.932 E75.47035
G0 F10500 X134.483 Y131.070
G1 F2220 X128.466 Y137.087 E75.53571
G0 F10500 X128.538 Y137.510
G1 F2220 X134.840 Y131.208 E75.60417
G0 F10500 X135.197 Y131.346
G1 F2220 X128.610 Y137.933 E75.67572
G0 F10500 X128.707 Y138.331
G1 F2220 X133.979 Y133.059 E75.73299
G0 F10500 X134.128 Y132.909
G1 F2220 X135.554 Y131.484 E75.74847
G0 F10500 X135.912 Y131.621
G1 F2220 X134.492 Y133.041 E75.76390
G0 F10500 X134.855 Y133.172
G1 F2220 X136.269 Y131.759 E75.77925
G0 F10500 X136.626 Y131.897
G1 F2220 X135.219 Y133.304 E75.79454
G0 F10500 X135.582 Y133.436
G1 F2220 X136.983 Y132.035 E75.80975
G0 F10500 X137.340 Y132.173
G1 F2220 X135.945 Y133.568 E75.82491
G0 F10500 X136.308 Y133.699
G1 F2220 X137.630 Y132.378 E75.83926
G0 F10500 X137.553 Y132.950
G1 F2220 X136.672 Y133.831 E75.84883
G0 F10500 X137.035 Y133.962
G1 F2220 X137.489 Y133.756 E75.85386
G1 X137.399 Y134.094 E75.85655
G0 F10500 X134.630 Y133.689
G0 X134.154 Y134.369
G1 F2220 X129.034 Y139.488 E75.91216
G0 F10500 X128.926 Y139.102
G1 F2220 X134.096 Y133.932 E75.96832
G0 F10500 X134.037 Y133.496
G1 F2220 X128.816 Y138.717 E76.02503
G0 F10500 X129.144 Y139.874
G1 F2220 X134.213 Y134.805 E76.08010
G0 F10500 X134.271 Y135.241
G1 F2220 X129.253 Y140.260 E76.13461
G0 F10500 X129.393 Y140.615
G1 F2220 X134.329 Y135.678 E76.18823
G0 F10500 X134.388 Y136.115
G1 F2220 X129.536 Y140.967 E76.24094
G0 F10500 X129.679 Y141.318
G1 F2220 X134.471 Y136.526 E76.29299
G0 F10500 X134.572 Y136.921
G1 F2220 X129.823 Y141.670 E76.34458
G0 F10500 X129.966 Y142.022
G1 F2220 X134.673 Y137.315 E76.39571
G0 F10500 X134.774 Y137.709
G1 F2220 X130.109 Y142.373 E76.44638
G0 F10500 X130.261 Y142.716
G1 F2220 X134.875 Y138.102 E76.49650
G0 F10500 X135.011 Y138.462
G1 F2220 X130.426 Y143.046 E76.54630
G0 F10500 X130.591 Y143.377
G1 F2220 X135.150 Y138.817 E76.59582
G0 F10500 X135.290 Y139.173
G1 F2220 X130.761 Y143.702 E76.64502
G0 F10500 X130.944 Y144.014
G1 F2220 X135.429 Y139.529 E76.69374
G0 F10500 X135.568 Y139.884
G1 F2220 X131.126 Y144.326 E76.74199
G0 F10500 X131.309 Y144.638
G1 F2220 X135.737 Y140.210 E76.79009
G0 F10500 X135.913 Y140.529
G1 F2220 X131.501 Y144.942 E76.83802
G0 F10500 X131.702 Y145.236
G1 F2220 X136.089 Y140.849 E76.88567
G0 F10500 X136.264 Y141.168
G1 F2220 X131.902 Y145.530 E76.93306
G0 F10500 X132.103 Y145.824
G1 F2220 X136.439 Y141.488 E76.98016
G0 F10500 X136.615 Y141.807
G1 F2220 X132.304 Y146.118 E77.02698
G0 F10500 X132.505 Y146.412
G1 F2220 X136.825 Y142.093 E77.07391
G0 F10500 X137.035 Y142.378
G1 F2220 X132.726 Y146.687 E77.12071
G0 F10500 X132.951 Y146.956
G1 F2220 X137.245 Y142.663 E77.16735
G0 F10500 X137.455 Y142.947
G1 F2220 X133.177 Y147.225 E77.21382
G0 F10500 X133.403 Y147.494
G1 F2220 X137.665 Y143.232 E77.26012
G0 F10500 X137.878 Y143.514
G1 F2220 X133.629 Y147.764 E77.30628
G0 F10500 X133.854 Y148.033
G1 F2220 X138.121 Y143.766 E77.35263
G0 F10500 X138.365 Y144.017
G1 F2220 X134.097 Y148.285 E77.39899
G0 F10500 X134.347 Y148.530
G1 F2220 X138.608 Y144.269 E77.44527
G0 F10500 X138.851 Y144.522
G1 F2220 X134.597 Y148.775 E77.49148
G0 F10500 X134.847 Y149.020
G1 F2220 X139.094 Y144.773 E77.53761
G0 F10500 X139.340 Y145.022
G1 F2220 X135.097 Y149.265 E77.58370
G0 F10500 X135.347 Y149.510
G1 F2220 X139.616 Y145.241 E77.63007
G0 F10500 X139.893 Y145.459
G1 F2220 X135.612 Y149.740 E77.67658
G0 F10500 X128.250 Y135.818
G1 F2220 X130.374 Y133.694 E77.69965
G0 F10500 X130.011 Y133.562
G1 F2220 X128.213 Y135.360 E77.71918
G0 F10500 X128.182 Y134.896
G1 F2220 X129.648 Y133.431 E77.73510
G0 F10500 X129.285 Y133.298
G1 F2220 X128.152 Y134.431 E77.74741
G0 F10500 X128.122 Y133.967
G1 F2220 X128.921 Y133.167 E77.75609
G0 F10500 X128.559 Y133.035
G1 F2220 X128.111 Y133.235 E77.76104
G1 X128.196 Y132.902 E77.76368
G0 F10500 X130.137 Y133.038
G0 X131.110 Y128.318
G0 X129.835 Y127.303
G1 F2220 X136.333 Y120.805 E77.83427
G1 F1500 E76.33427
G0 F10500 X141.669 Y155.342
;TYPE:SUPPORT
G1 F1500 E77.83427
G1 F2220 X141.669 Y158.661 E77.85976
G0 F10500 X141.779 Y158.582
G0 X142.930 Y160.733
G0 X142.835 Y160.827
G1 F2220 X142.835 Y155.679 E77.89930
G0 F10500 X144.001 Y156.017
G1 F2220 X144.001 Y163.193 E77.95442
G0 F10500 X144.096 Y163.099
G0 X145.262 Y164.866
G0 X145.167 Y164.960
G1 F2220 X145.167 Y156.304 E78.02091
G0 F10500 X146.333 Y156.510
G1 F2220 X146.333 Y165.289 E78.08834
G0 F10500 X147.499 Y165.289
G1 F2220 X147.499 Y161.311 E78.11889
G0 F10500 X147.404 Y161.406
G0 X147.997 Y162.340
G0 X148.622 Y162.495
G0 X148.665 Y162.368
G1 F2220 X148.665 Y165.289 E78.14133
G0 F10500 X149.831 Y165.289
G1 F2220 X149.831 Y162.624 E78.16180
G0 F10500 X150.997 Y162.314
G1 F2220 X150.997 Y165.289 E78.18465
G0 F10500 X152.163 Y165.289
G1 F2220 X152.163 Y160.752 E78.21950
G0 F10500 X152.258 Y160.847
G0 X155.566 Y162.939
G0 X155.661 Y163.034
G1 F2220 X155.661 Y156.142 E78.27244
G0 F10500 X154.495 Y156.375
G1 F2220 X154.495 Y165.000 E78.33868
G0 F10500 X153.329 Y165.289
G1 F2220 X153.329 Y156.582 E78.40556
G0 F10500 X152.163 Y156.730
G1 F2220 X152.163 Y158.955 E78.42265
G0 F10500 X152.258 Y158.861
G0 X152.485 Y158.968
G0 X152.285 Y161.140
G0 X151.211 Y162.489
G0 X149.764 Y162.855
G0 X147.997 Y162.340
G0 X146.817 Y160.740
G0 X147.017 Y158.968
G0 X147.404 Y158.500
G0 X147.499 Y158.596
G1 F2220 X147.499 Y156.715 E78.43710
G0 F10500 X147.476 Y156.847
G0 X146.817 Y159.568
G0 X147.017 Y161.139
G0 X148.295 Y162.491
G0 X150.235 Y162.869
G0 X151.885 Y161.941
G0 X152.485 Y160.740
G0 X152.285 Y158.567
G0 X156.863 Y155.943
G0 X156.827 Y155.812
G1 F2220 X156.827 Y160.868 E78.47594
G0 F10500 X156.724 Y160.781
G0 X157.899 Y158.406
G0 X157.993 Y158.502
G1 F2220 X157.993 Y155.482 E78.49913
;LAYER:2
G0 F10500 X157.562 Y154.414 Z0.580
G0 X157.351 Y154.040
;TYPE:WALL-INNER
G1 F2400 X157.160 Y154.118 E78.50072
G1 X155.105 Y154.699 E78.51712
G1 X154.914 Y154.754 E78.51865
G1 X152.562 Y155.155 E78.53697
G1 X151.331 Y155.255 E78.54646
G1 X149.781 Y155.294 E78.55837
G1 X147.616 Y155.149 E78.57504
G1 X147.405 Y155.134 E78.57666
G1 X145.276 Y154.760 E78.59326
G1 X145.080 Y154.725 E78.59479
G1 X142.970 Y154.115 E78.61166
G1 X142.767 Y154.057 E78.61328
G1 X140.767 Y153.248 E78.62986
G1 X139.012 Y152.332 E78.64506
G1 X138.851 Y152.248 E78.64646
G1 X137.029 Y151.057 E78.66318
G1 X135.351 Y149.710 E78.67970
G1 X133.817 Y148.207 E78.69620
G1 X132.428 Y146.550 E78.71281
G1 X131.319 Y144.926 E78.72791
G1 X130.652 Y143.796 E78.73799
G1 X130.066 Y142.643 E78.74792
G1 X129.208 Y140.534 E78.76541
G1 X129.129 Y140.337 E78.76704
G1 X128.552 Y138.295 E78.78334
G1 X128.497 Y138.103 E78.78488
G1 X128.134 Y135.975 E78.80146
G1 X128.099 Y135.772 E78.80304
G1 X127.971 Y133.822 E78.81805
G1 X127.958 Y133.637 E78.81947
G1 X127.988 Y132.679 E78.82684
G1 X130.453 Y133.576 E78.84698
G1 X130.921 Y130.683 E78.86949
G1 X131.556 Y128.080 E78.89007
G1 X125.083 Y125.724 E78.94298
G1 X125.499 Y124.382 E78.95378
G1 X125.560 Y124.183 E78.95537
G1 X126.430 Y122.171 E78.97221
G1 X126.514 Y121.977 E78.97384
G1 X127.274 Y120.586 E78.98601
G1 X127.942 Y119.542 E78.99553
G1 X130.695 Y120.531 E79.01800
G1 X131.680 Y120.886 E79.02604
G1 X133.294 Y118.839 E79.04606
G1 X134.951 Y117.086 E79.06459
G1 X136.580 Y115.700 E79.08102
G1 X138.367 Y114.460 E79.09773
G1 X139.500 Y113.801 E79.10779
G1 X140.684 Y113.204 E79.11798
G1 X142.717 Y112.385 E79.13481
G1 X142.908 Y112.307 E79.13640
G1 X144.964 Y111.726 E79.15281
G1 X145.155 Y111.671 E79.15434
G1 X147.498 Y111.272 E79.17259
G1 X149.648 Y111.143 E79.18914
G1 X149.853 Y111.130 E79.19071
G1 X152.017 Y111.232 E79.20735
G1 X152.233 Y111.243 E79.20902
G1 X154.379 Y111.579 E79.22570
G1 X154.584 Y111.611 E79.22729
G1 X156.698 Y112.180 E79.24411
G1 X156.897 Y112.234 E79.24569
G1 X159.145 Y113.107 E79.26422
G1 X161.070 Y114.093 E79.28083
G1 X162.885 Y115.258 E79.29739
G1 X164.431 Y116.479 E79.31253
G1 X164.580 Y116.597 E79.31399
G1 X165.996 Y117.961 E79.32909
G1 X167.405 Y119.587 E79.34561
G1 X167.530 Y119.735 E79.34710
G1 X168.633 Y121.322 E79.36195
G1 X169.369 Y122.551 E79.37295
G1 X169.981 Y123.747 E79.38327
G1 X170.857 Y125.889 E79.40104
G1 X170.936 Y126.083 E79.40265
G1 X171.512 Y128.122 E79.41893
G1 X171.567 Y128.314 E79.42046
G1 X171.964 Y130.649 E79.43865
G1 X172.091 Y132.595 E79.45363
G1 X172.104 Y132.779 E79.45505
G1 X172.073 Y133.744 E79.46246
G1 X169.617 Y132.851 E79.48254
G1 X169.182 Y136.035 E79.50722
G1 X169.153 Y136.242 E79.50883
G1 X168.654 Y138.261 E79.52480
G1 X168.606 Y138.457 E79.52635
G1 X168.058 Y140.040 E79.53922
G1 X167.930 Y140.367 E79.54192
G1 X166.876 Y142.781 E79.56215
G1 X172.753 Y144.934 E79.61022
G1 X172.338 Y145.713 E79.61700
G1 X171.686 Y146.720 E79.62622
G1 X168.403 Y145.529 E79.65304
G1 X166.643 Y147.760 E79.67487
G1 X165.130 Y149.330 E79.69162
G1 X163.494 Y150.722 E79.70811
G1 X161.705 Y151.964 E79.72484
G1 X160.570 Y152.625 E79.73493
G1 X159.474 Y153.177 E79.74436
G1 X157.351 Y154.040 E79.76196
G0 F10500 X155.011 Y148.192
G1 F2400 X155.204 Y148.135 E79.76351
G1 X156.521 Y147.601 E79.77442
G1 X156.714 Y147.523 E79.77602
G1 X158.399 Y146.603 E79.79077
G1 X159.740 Y145.643 E79.80343
G1 X159.931 Y145.505 E79.80524
G1 X160.872 Y144.646 E79.81503
G1 X162.589 Y145.271 E79.82906
G1 X163.415 Y145.572 E79.83582
G1 X164.604 Y144.180 E79.84988
G1 X165.398 Y143.045 E79.86052
G1 X166.086 Y141.892 E79.87083
G1 X166.690 Y140.867 E79.87997
G1 X160.448 Y138.594 E79.93099
G1 X160.808 Y137.833 E79.93746
G1 X160.922 Y137.593 E79.93950
G1 X161.486 Y135.824 E79.95376
G1 X161.567 Y135.572 E79.95580
G1 X161.872 Y133.917 E79.96872
G1 X161.914 Y133.686 E79.97052
G1 X162.011 Y132.351 E79.98081
G1 X162.025 Y132.159 E79.98228
G1 X162.020 Y131.947 E79.98391
G1 X164.209 Y132.739 E80.00179
G1 X165.957 Y133.373 E80.01608
G1 X165.557 Y130.385 E80.03923
G1 X165.525 Y130.153 E80.04103
G1 X165.112 Y128.558 E80.05369
G1 X165.051 Y128.328 E80.05551
G1 X164.434 Y126.764 E80.06843
G1 X164.345 Y126.537 E80.07030
G1 X163.331 Y124.692 E80.08647
G1 X162.107 Y123.031 E80.10232
G1 X160.651 Y121.523 E80.11842
G1 X159.000 Y120.217 E80.13459
G1 X157.180 Y119.138 E80.15084
G1 X155.472 Y118.412 E80.16510
G1 X155.229 Y118.307 E80.16713
G1 X153.379 Y117.785 E80.18189
G1 X151.720 Y117.528 E80.19479
G1 X151.484 Y117.491 E80.19662
G1 X149.568 Y117.428 E80.21135
G1 X147.899 Y117.577 E80.22422
G1 X147.660 Y117.598 E80.22606
G1 X145.984 Y117.959 E80.23923
G1 X144.570 Y118.396 E80.25060
G1 X143.508 Y118.839 E80.25944
G1 X141.879 Y119.705 E80.27361
G1 X141.666 Y119.820 E80.27547
G1 X140.321 Y120.779 E80.28815
G1 X140.128 Y120.916 E80.28997
G1 X139.186 Y121.776 E80.29977
G1 X136.517 Y120.804 E80.32159
G1 X135.308 Y122.301 E80.33637
G1 X135.173 Y122.470 E80.33803
G1 X134.471 Y123.671 E80.34871
G1 X134.365 Y123.853 E80.35033
G1 X133.682 Y125.462 E80.36376
G1 X133.589 Y125.684 E80.36561
G1 X133.071 Y127.372 E80.37917
G1 X132.410 Y130.123 E80.40090
G1 X137.796 Y132.200 E80.44524
G1 X137.680 Y133.071 E80.45199
G1 X137.648 Y133.294 E80.45372
G1 X137.610 Y134.320 E80.46160
G1 X135.822 Y133.672 E80.47621
G1 X134.121 Y133.056 E80.49011
G1 X134.520 Y136.044 E80.51326
G1 X134.552 Y136.275 E80.51505
G1 X134.960 Y137.867 E80.52768
G1 X135.019 Y138.097 E80.52950
G1 X135.632 Y139.662 E80.54241
G1 X135.721 Y139.890 E80.54429
G1 X136.607 Y141.502 E80.55842
G1 X136.735 Y141.735 E80.56046
G1 X137.805 Y143.188 E80.57432
G1 X137.960 Y143.397 E80.57632
G1 X139.233 Y144.715 E80.59039
G1 X139.415 Y144.904 E80.59241
G1 X140.857 Y146.044 E80.60653
G1 X141.065 Y146.209 E80.60857
G1 X142.656 Y147.153 E80.62278
G1 X142.885 Y147.289 E80.62482
G1 X144.839 Y148.119 E80.64113
G1 X146.683 Y148.639 E80.65585
G1 X148.055 Y148.866 E80.66653
G1 X148.254 Y148.900 E80.66808
G1 X149.647 Y148.989 E80.67880
G1 X149.852 Y149.002 E80.68038
G1 X151.521 Y148.923 E80.69321
G1 X151.761 Y148.911 E80.69506
G1 X153.434 Y148.624 E80.70810
G1 X153.670 Y148.582 E80.70994
G1 X155.011 Y148.192 E80.72066
G0 F10500 X154.913 Y147.856
G1 F2400 X155.089 Y147.804 E80.72207
G1 X156.389 Y147.277 E80.73285
G1 X156.564 Y147.206 E80.73430
G1 X158.213 Y146.306 E80.74873
G1 X159.535 Y145.358 E80.76122
G1 X159.710 Y145.232 E80.76288
G1 X160.793 Y144.245 E80.77413
G1 X162.709 Y144.942 E80.78979
G1 X163.307 Y145.160 E80.79468
G1 X164.327 Y143.966 E80.80675
G1 X165.104 Y142.854 E80.81716
G1 X165.785 Y141.714 E80.82736
G1 X166.175 Y141.052 E80.83327
G1 X160.062 Y138.826 E80.88324
G1 X159.967 Y138.791 E80.88401
G1 X160.491 Y137.684 E80.89342
G1 X160.596 Y137.464 E80.89529
G1 X161.152 Y135.716 E80.90938
G1 X161.227 Y135.486 E80.91124
G1 X161.527 Y133.854 E80.92399
G1 X161.567 Y133.642 E80.92564
G1 X161.662 Y132.326 E80.93578
G1 X161.674 Y132.151 E80.93713
G1 X161.657 Y131.444 E80.94256
G1 X164.328 Y132.410 E80.96437
G1 X164.507 Y131.916 E80.96841
G1 X164.328 Y132.409 E80.97244
G1 X165.533 Y132.847 E80.98229
G1 X165.210 Y130.432 E81.00100
G1 X165.181 Y130.221 E81.00264
G1 X164.773 Y128.646 E81.01513
G1 X164.718 Y128.437 E81.01679
G1 X164.108 Y126.892 E81.02955
G1 X164.027 Y126.686 E81.03125
G1 X163.035 Y124.881 E81.04707
G1 X161.839 Y123.257 E81.06256
G1 X160.415 Y121.783 E81.07831
G1 X158.801 Y120.506 E81.09411
G1 X157.022 Y119.451 E81.11000
G1 X155.332 Y118.733 E81.12410
G1 X155.112 Y118.638 E81.12595
G1 X153.304 Y118.128 E81.14037
G1 X151.667 Y117.874 E81.15310
G1 X151.451 Y117.840 E81.15478
G1 X149.577 Y117.778 E81.16918
G1 X147.931 Y117.925 E81.18187
G1 X147.713 Y117.945 E81.18355
G1 X146.073 Y118.298 E81.19644
G1 X144.689 Y118.726 E81.20757
G1 X143.644 Y119.162 E81.21626
G1 X143.501 Y119.223 E81.21746
G1 X142.046 Y120.013 E81.23018
G1 X141.852 Y120.118 E81.23187
G1 X140.524 Y121.064 E81.24439
G1 X140.348 Y121.189 E81.24605
G1 X139.265 Y122.177 E81.25731
G1 X136.632 Y121.218 E81.27884
G1 X135.581 Y122.521 E81.29169
G1 X135.462 Y122.669 E81.29315
G1 X134.773 Y123.848 E81.30364
G1 X134.678 Y124.011 E81.30509
G1 X134.005 Y125.598 E81.31833
G1 X133.918 Y125.803 E81.32004
G1 X133.408 Y127.465 E81.33339
G1 X132.822 Y129.906 E81.35268
G1 X138.016 Y131.910 E81.39544
G1 X138.179 Y131.973 E81.39678
G1 X138.026 Y133.119 E81.40566
G1 X137.997 Y133.325 E81.40726
G1 X137.959 Y134.339 E81.41505
G1 X137.954 Y134.471 E81.41607
G1 X137.966 Y134.821 E81.41876
G1 X135.703 Y134.001 E81.43725
G1 X134.544 Y133.582 E81.44671
G1 X134.867 Y135.997 E81.46543
G1 X134.896 Y136.208 E81.46706
G1 X135.299 Y137.780 E81.47953
G1 X135.353 Y137.989 E81.48119
G1 X135.957 Y139.534 E81.49393
G1 X136.039 Y139.741 E81.49564
G1 X136.914 Y141.334 E81.50960
G1 X137.030 Y141.546 E81.51145
G1 X138.087 Y142.980 E81.52514
G1 X138.228 Y143.170 E81.52695
G1 X139.484 Y144.472 E81.54085
G1 X139.651 Y144.644 E81.54269
G1 X141.075 Y145.770 E81.55663
G1 X141.264 Y145.920 E81.55849
G1 X142.836 Y146.853 E81.57253
G1 X143.044 Y146.976 E81.57439
G1 X144.955 Y147.788 E81.59033
G1 X146.759 Y148.297 E81.60473
G1 X148.114 Y148.522 E81.61528
G1 X148.294 Y148.552 E81.61668
G1 X149.669 Y148.640 E81.62727
G1 X149.855 Y148.652 E81.62870
G1 X151.504 Y148.573 E81.64138
G1 X151.723 Y148.563 E81.64306
G1 X153.374 Y148.279 E81.65593
G1 X153.590 Y148.241 E81.65761
G1 X154.913 Y147.856 E81.66820
G0 F10500 X157.482 Y154.365
G1 F2400 X157.269 Y154.451 E81.66996
G1 X155.201 Y155.036 E81.68647
G1 X154.988 Y155.096 E81.68817
G1 X152.605 Y155.502 E81.70674
G1 X151.350 Y155.605 E81.71641
G1 X149.777 Y155.644 E81.72849
G1 X147.591 Y155.498 E81.74532
G1 X147.360 Y155.482 E81.74710
G1 X145.218 Y155.105 E81.76381
G1 X144.988 Y155.064 E81.76560
G1 X142.873 Y154.452 E81.78251
G1 X142.657 Y154.389 E81.78424
G1 X140.609 Y153.561 E81.80121
G1 X138.851 Y152.643 E81.81644
G1 X138.669 Y152.548 E81.81802
G1 X136.825 Y151.343 E81.83494
G1 X135.118 Y149.972 E81.85176
G1 X133.555 Y148.440 E81.86857
G1 X132.155 Y146.770 E81.88530
G1 X131.030 Y145.123 E81.90062
G1 X130.345 Y143.964 E81.91097
G1 X129.754 Y142.802 E81.92098
G1 X129.702 Y142.696 E81.92189
G1 X128.884 Y140.665 E81.93870
G1 X128.797 Y140.450 E81.94049
G1 X128.215 Y138.390 E81.95693
G1 X128.154 Y138.177 E81.95863
G1 X127.789 Y136.034 E81.97533
G1 X127.751 Y135.815 E81.97703
G1 X127.622 Y133.846 E81.99219
G1 X127.608 Y133.641 E81.99377
G1 X127.653 Y132.184 E82.00496
G1 X130.175 Y133.102 E82.02558
G1 X130.577 Y130.619 E82.04490
G1 X131.141 Y128.301 E82.06322
G1 X124.854 Y126.013 E82.11461
G1 X124.650 Y125.938 E82.11628
G1 X125.164 Y124.279 E82.12962
G1 X125.232 Y124.061 E82.13138
G1 X126.110 Y122.030 E82.14837
G1 X126.200 Y121.822 E82.15011
G1 X126.967 Y120.418 E82.16240
G1 X127.800 Y119.120 E82.17425
G1 X130.813 Y120.202 E82.19884
G1 X131.561 Y120.471 E82.20494
G1 X133.023 Y118.618 E82.22307
G1 X134.711 Y116.831 E82.24195
G1 X136.374 Y115.416 E82.25872
G1 X138.167 Y114.171 E82.27549
G1 X139.336 Y113.492 E82.28588
G1 X140.547 Y112.881 E82.29629
G1 X142.586 Y112.060 E82.31318
G1 X142.799 Y111.974 E82.31494
G1 X144.868 Y111.389 E82.33146
G1 X145.081 Y111.329 E82.33316
G1 X147.455 Y110.924 E82.35165
G1 X149.626 Y110.794 E82.36836
G1 X149.856 Y110.780 E82.37013
G1 X152.035 Y110.882 E82.38688
G1 X152.257 Y110.893 E82.38859
G1 X154.433 Y111.234 E82.40551
G1 X154.664 Y111.270 E82.40731
G1 X156.789 Y111.842 E82.42421
G1 X157.013 Y111.902 E82.42599
G1 X159.287 Y112.786 E82.44473
G1 X161.235 Y113.784 E82.46154
G1 X163.095 Y114.978 E82.47852
G1 X164.648 Y116.205 E82.49372
G1 X164.815 Y116.337 E82.49536
G1 X166.239 Y117.709 E82.51054
G1 X166.381 Y117.846 E82.51206
G1 X167.673 Y119.362 E82.52736
G1 X167.810 Y119.522 E82.52898
G1 X168.928 Y121.133 E82.54404
G1 X169.675 Y122.380 E82.55520
G1 X170.296 Y123.592 E82.56566
G1 X171.181 Y125.757 E82.58363
G1 X171.268 Y125.972 E82.58541
G1 X171.849 Y128.027 E82.60181
G1 X171.910 Y128.240 E82.60352
G1 X172.311 Y130.598 E82.62189
G1 X172.440 Y132.571 E82.63707
G1 X172.454 Y132.766 E82.63858
G1 X172.407 Y134.238 E82.64989
G1 X169.905 Y133.328 E82.67034
G1 X169.529 Y136.084 E82.69170
G1 X169.499 Y136.297 E82.69336
G1 X168.993 Y138.345 E82.70956
G1 X168.939 Y138.565 E82.71130
G1 X168.392 Y140.146 E82.72415
G1 X167.346 Y142.580 E82.74450
G1 X173.204 Y144.726 E82.79242
G1 X173.252 Y144.744 E82.79281
G1 X172.641 Y145.888 E82.80277
G1 X171.828 Y147.144 E82.81426
G1 X168.522 Y145.944 E82.84128
G1 X166.909 Y147.988 E82.86128
G1 X165.373 Y149.583 E82.87829
G1 X163.700 Y151.006 E82.89516
G1 X161.905 Y152.252 E82.91194
G1 X160.734 Y152.933 E82.92234
G1 X159.632 Y153.489 E82.93183
G1 X159.522 Y153.545 E82.93277
G1 X157.482 Y154.365 E82.94966
G0 F10500 X157.613 Y154.690
;TYPE:WALL-OUTER
G1 F2100 X157.385 Y154.782 E82.95155
G1 X155.296 Y155.373 E82.96823
G1 X155.069 Y155.438 E82.97004
G1 X152.649 Y155.850 E82.98889
G1 X151.367 Y155.955 E82.99877
G1 X149.774 Y155.995 E83.01101
G1 X147.566 Y155.847 E83.02801
G1 X147.313 Y155.829 E83.02996
G1 X145.156 Y155.450 E83.04678
G1 X144.916 Y155.407 E83.04865
G1 X142.776 Y154.788 E83.06577
G1 X142.536 Y154.718 E83.06769
G1 X140.468 Y153.882 E83.08482
G1 X138.688 Y152.953 E83.10024
G1 X136.616 Y151.624 E83.11915
G1 X134.885 Y150.233 E83.13621
G1 X133.298 Y148.679 E83.15327
G1 X131.876 Y146.982 E83.17027
G1 X130.741 Y145.320 E83.18573
G1 X130.610 Y145.128 E83.18752
G1 X130.035 Y144.127 E83.19638
G1 X129.442 Y142.961 E83.20643
G1 X129.382 Y142.840 E83.20747
G1 X128.559 Y140.796 E83.22439
G1 X128.466 Y140.566 E83.22630
G1 X127.878 Y138.486 E83.24290
G1 X127.813 Y138.260 E83.24471
G1 X127.444 Y136.093 E83.26159
G1 X127.404 Y135.859 E83.26341
G1 X127.273 Y133.869 E83.27873
G1 X127.257 Y133.644 E83.28046
G1 X127.318 Y131.690 E83.29548
G1 X129.897 Y132.629 E83.31656
G1 X130.235 Y130.542 E83.33280
G1 X130.727 Y128.523 E83.34876
G1 X124.734 Y126.342 E83.39775
G1 X124.217 Y126.153 E83.40198
G1 X124.830 Y124.175 E83.41788
G1 X124.904 Y123.939 E83.41978
G1 X125.789 Y121.891 E83.43692
G1 X125.885 Y121.669 E83.43878
G1 X126.661 Y120.249 E83.45121
G1 X126.744 Y120.097 E83.45254
G1 X127.658 Y118.697 E83.46538
G1 X130.932 Y119.873 E83.49210
G1 X131.442 Y120.056 E83.49626
G1 X132.761 Y118.384 E83.51262
G1 X134.467 Y116.579 E83.53170
G1 X136.150 Y115.146 E83.54867
G1 X137.992 Y113.868 E83.56589
G1 X139.162 Y113.187 E83.57629
G1 X140.405 Y112.561 E83.58698
G1 X142.455 Y111.735 E83.60396
G1 X142.683 Y111.643 E83.60585
G1 X144.773 Y111.052 E83.62253
G1 X145.000 Y110.987 E83.62434
G1 X147.411 Y110.576 E83.64313
G1 X149.605 Y110.445 E83.66001
G1 X149.851 Y110.430 E83.66190
G1 X152.053 Y110.533 E83.67884
G1 X152.300 Y110.546 E83.68074
G1 X154.488 Y110.888 E83.69775
G1 X154.734 Y110.927 E83.69966
G1 X156.880 Y111.504 E83.71673
G1 X157.121 Y111.569 E83.71864
G1 X159.425 Y112.465 E83.73763
G1 X161.419 Y113.486 E83.75484
G1 X163.300 Y114.693 E83.77201
G1 X164.865 Y115.930 E83.78733
G1 X165.044 Y116.071 E83.78908
G1 X166.482 Y117.457 E83.80442
G1 X166.637 Y117.606 E83.80607
G1 X167.939 Y119.134 E83.82149
G1 X168.084 Y119.305 E83.82321
G1 X169.227 Y120.951 E83.83860
G1 X169.977 Y122.203 E83.84981
G1 X170.620 Y123.459 E83.86065
G1 X171.506 Y125.626 E83.87863
G1 X171.599 Y125.856 E83.88054
G1 X172.186 Y127.931 E83.89710
G1 X172.250 Y128.153 E83.89888
G1 X172.660 Y130.562 E83.91765
G1 X172.789 Y132.548 E83.93293
G1 X172.805 Y132.772 E83.93466
G1 X172.742 Y134.732 E83.94972
G1 X170.193 Y133.805 E83.97056
G1 X169.876 Y136.132 E83.98859
G1 X169.845 Y136.358 E83.99035
G1 X169.333 Y138.429 E84.00673
G1 X169.274 Y138.666 E84.00861
G1 X168.718 Y140.273 E84.02167
G1 X168.574 Y140.642 E84.02471
G1 X167.815 Y142.379 E84.03927
G1 X173.324 Y144.397 E84.08434
G1 X173.751 Y144.553 E84.08783
G1 X172.945 Y146.063 E84.10098
G1 X171.971 Y147.567 E84.11474
G1 X168.640 Y146.359 E84.14195
G1 X167.175 Y148.217 E84.16013
G1 X165.610 Y149.841 E84.17745
G1 X163.924 Y151.276 E84.19446
G1 X162.080 Y152.555 E84.21169
G1 X160.908 Y153.238 E84.22211
G1 X159.789 Y153.802 E84.23174
G1 X157.613 Y154.690 E84.24979
G0 F10500 X157.520 Y154.431
G0 X154.881 Y147.787
G0 X154.815 Y147.520
G1 F2100 X156.257 Y146.953 E84.26169
G1 X156.413 Y146.889 E84.26299
G1 X158.026 Y146.009 E84.27710
G1 X159.331 Y145.074 E84.28943
G1 X159.489 Y144.960 E84.29093
G1 X160.658 Y143.894 E84.30308
G1 X160.714 Y143.843 E84.30366
G1 X162.829 Y144.613 E84.32095
G1 X163.198 Y144.748 E84.32397
G1 X164.050 Y143.751 E84.33404
G1 X164.810 Y142.664 E84.34423
G1 X165.484 Y141.535 E84.35433
G1 X165.660 Y141.237 E84.35699
G1 X159.942 Y139.155 E84.40373
G1 X159.486 Y138.989 E84.40745
G1 X160.175 Y137.534 E84.41982
G1 X160.269 Y137.335 E84.42151
G1 X160.820 Y135.609 E84.43543
G1 X160.887 Y135.400 E84.43711
G1 X161.183 Y133.791 E84.44968
G1 X161.219 Y133.597 E84.45119
G1 X161.313 Y132.300 E84.46118
G1 X161.324 Y132.142 E84.46240
G1 X161.295 Y130.940 E84.47163
G1 X164.447 Y132.081 E84.49738
G1 X164.507 Y131.916 E84.49873
G1 X164.447 Y132.080 E84.50007
G1 X165.110 Y132.321 E84.50549
G1 X164.863 Y130.479 E84.51977
G1 X164.837 Y130.289 E84.52124
G1 X164.434 Y128.735 E84.53357
G1 X164.385 Y128.546 E84.53507
G1 X163.783 Y127.021 E84.54766
G1 X163.710 Y126.835 E84.54920
G1 X162.740 Y125.070 E84.56467
G1 X161.571 Y123.484 E84.57980
G1 X160.180 Y122.043 E84.59518
G1 X158.602 Y120.795 E84.61064
G1 X156.863 Y119.764 E84.62617
G1 X155.196 Y119.055 E84.64008
G1 X154.995 Y118.969 E84.64176
G1 X153.229 Y118.471 E84.65585
G1 X151.613 Y118.220 E84.66841
G1 X151.418 Y118.189 E84.66993
G1 X149.587 Y118.129 E84.68400
G1 X147.962 Y118.274 E84.69653
G1 X147.766 Y118.292 E84.69804
G1 X146.162 Y118.637 E84.71065
G1 X144.808 Y119.055 E84.72153
G1 X143.779 Y119.485 E84.73010
G1 X142.213 Y120.320 E84.74373
G1 X142.037 Y120.415 E84.74526
G1 X140.727 Y121.349 E84.75762
G1 X140.569 Y121.462 E84.75911
G1 X139.400 Y122.528 E84.77127
G1 X139.344 Y122.579 E84.77185
G1 X136.747 Y121.633 E84.79308
G1 X135.854 Y122.740 E84.80400
G1 X135.751 Y122.868 E84.80526
G1 X135.075 Y124.025 E84.81556
G1 X134.991 Y124.168 E84.81683
G1 X134.327 Y125.735 E84.82990
G1 X134.247 Y125.923 E84.83147
G1 X133.746 Y127.557 E84.84460
G1 X133.234 Y129.690 E84.86145
G1 X138.142 Y131.583 E84.90185
G1 X138.563 Y131.745 E84.90532
G1 X138.373 Y133.167 E84.91634
G1 X138.309 Y134.351 E84.92545
G1 X138.304 Y134.472 E84.92638
G1 X138.335 Y135.327 E84.93295
G1 X135.584 Y134.330 E84.95542
G1 X134.967 Y134.107 E84.96046
G1 X135.214 Y135.950 E84.97474
G1 X135.240 Y136.140 E84.97622
G1 X135.638 Y137.693 E84.98853
G1 X135.686 Y137.881 E84.99002
G1 X136.283 Y139.406 E85.00260
G1 X136.356 Y139.592 E85.00414
G1 X137.222 Y141.166 E85.01793
G1 X137.326 Y141.357 E85.01960
G1 X138.368 Y142.772 E85.03310
G1 X138.495 Y142.943 E85.03474
G1 X139.736 Y144.229 E85.04847
G1 X139.886 Y144.384 E85.05012
G1 X141.293 Y145.496 E85.06390
G1 X141.463 Y145.631 E85.06556
G1 X143.015 Y146.552 E85.07943
G1 X143.203 Y146.663 E85.08110
G1 X145.072 Y147.457 E85.09670
G1 X146.836 Y147.955 E85.11078
G1 X148.173 Y148.177 E85.12119
G1 X148.335 Y148.204 E85.12245
G1 X149.692 Y148.291 E85.13290
G1 X149.858 Y148.301 E85.13417
G1 X151.487 Y148.224 E85.14670
G1 X151.685 Y148.214 E85.14822
G1 X153.314 Y147.934 E85.16092
G1 X153.511 Y147.900 E85.16245
G1 X154.815 Y147.520 E85.17289
G0 F10500 X155.018 Y148.336
;TYPE:FILL
G1 F2700 X159.625 Y152.942 E85.22292
G0 F10500 X159.954 Y152.777
G1 F2700 X155.388 Y148.211 E85.27252
G0 F10500 X155.740 Y148.068
G1 F2700 X160.284 Y152.612 E85.32188
G0 F10500 X160.607 Y152.440
G1 F2700 X156.093 Y147.926 E85.37092
G0 F10500 X156.445 Y147.783
G1 F2700 X160.920 Y152.258 E85.41953
G0 F10500 X161.233 Y152.076
G1 F2700 X156.794 Y147.637 E85.46774
G0 F10500 X157.114 Y147.462
G1 F2700 X161.546 Y151.894 E85.51589
G0 F10500 X161.843 Y151.696
G1 F2700 X157.434 Y147.287 E85.56378
G0 F10500 X157.754 Y147.112
G1 F2700 X162.135 Y151.493 E85.61137
G0 F10500 X162.427 Y151.290
G1 F2700 X158.075 Y146.938 E85.65864
G0 F10500 X158.395 Y146.763
G1 F2700 X162.719 Y151.087 E85.70561
G0 F10500 X163.012 Y150.885
G1 F2700 X158.692 Y146.565 E85.75254
G0 F10500 X158.980 Y146.359
G1 F2700 X163.304 Y150.682 E85.79950
G0 F10500 X163.580 Y150.463
G1 F2700 X159.269 Y146.152 E85.84633
G0 F10500 X159.557 Y145.946
G1 F2700 X163.847 Y150.236 E85.89293
G0 F10500 X164.115 Y150.009
G1 F2700 X159.845 Y145.738 E85.93932
G0 F10500 X154.634 Y148.447
G1 F2700 X159.287 Y153.100 E85.98986
G0 F10500 X158.935 Y153.243
G1 F2700 X154.251 Y148.558 E86.04075
G0 F10500 X153.867 Y148.670
G1 F2700 X158.584 Y153.387 E86.09199
G0 F10500 X158.232 Y153.529
G1 F2700 X153.463 Y148.761 E86.14379
G0 F10500 X153.041 Y148.833
G1 F2700 X157.879 Y153.672 E86.19634
G0 F10500 X157.528 Y153.816
G1 F2700 X152.618 Y148.906 E86.24968
G0 F10500 X152.196 Y148.978
G1 F2700 X157.176 Y153.959 E86.30378
G0 F10500 X156.796 Y154.074
G1 F2700 X151.773 Y149.051 E86.35834
G0 F10500 X151.301 Y149.073
G1 F2700 X156.411 Y154.183 E86.41385
G0 F10500 X156.025 Y154.292
G1 F2700 X150.827 Y149.095 E86.47031
G0 F10500 X150.355 Y149.118
G1 F2700 X155.639 Y154.402 E86.52771
G0 F10500 X155.253 Y154.511
G1 F2700 X149.882 Y149.140 E86.58605
G0 F10500 X149.359 Y149.111
G1 F2700 X154.866 Y154.619 E86.64587
G0 F10500 X154.444 Y154.691
G1 F2700 X148.829 Y149.076 E86.70687
G0 F10500 X148.299 Y149.041
G1 F2700 X154.020 Y154.763 E86.76902
G0 F10500 X153.597 Y154.835
G1 F2700 X147.713 Y148.950 E86.83294
G0 F10500 X147.119 Y148.852
G1 F2700 X153.174 Y154.907 E86.89871
G0 F10500 X152.752 Y154.979
G1 F2700 X146.505 Y148.732 E86.96657
G0 F10500 X145.816 Y148.538
G1 F2700 X152.311 Y155.033 E87.03712
G0 F10500 X151.854 Y155.071
G1 F2700 X145.126 Y148.343 E87.11020
G0 F10500 X144.349 Y148.061
G1 F2700 X151.396 Y155.108 E87.18675
G0 F10500 X150.917 Y155.124
G1 F2700 X143.489 Y147.696 E87.26744
G0 F10500 X142.549 Y147.252
G1 F2700 X150.434 Y155.136 E87.35309
G0 F10500 X149.951 Y155.149
G1 F2700 X141.332 Y146.529 E87.44671
G0 F10500 X140.141 Y152.763
G1 F2700 X130.431 Y143.053 E87.55219
G0 F10500 X130.012 Y142.139
G1 F2700 X141.107 Y153.234 E87.67271
G0 F10500 X141.937 Y153.569
G1 F2700 X129.672 Y141.304 E87.80594
G0 F10500 X129.333 Y140.470
G1 F2700 X142.766 Y153.903 E87.95186
G0 F10500 X143.471 Y154.113
G1 F2700 X129.108 Y139.750 E88.10787
G0 F10500 X128.913 Y139.060
G1 F2700 X144.167 Y154.314 E88.27357
G0 F10500 X144.863 Y154.515
G1 F2700 X128.718 Y138.370 E88.44895
G0 F10500 X128.575 Y137.732
G1 F2700 X145.498 Y154.655 E88.63277
G0 F10500 X146.099 Y154.761
G1 F2700 X128.473 Y137.135 E88.82424
G0 F10500 X128.371 Y136.538
G1 F2700 X146.699 Y154.866 E89.02333
G0 F10500 X147.300 Y154.973
G1 F2700 X128.270 Y135.942 E89.23005
G0 F10500 X128.214 Y135.391
G1 F2700 X147.845 Y155.022 E89.44329
G0 F10500 X148.376 Y155.058
G1 F2700 X128.179 Y134.861 E89.66268
G0 F10500 X128.144 Y134.331
G1 F2700 X148.906 Y155.093 E89.88821
G0 F10500 X149.437 Y155.129
G1 F2700 X128.110 Y133.802 E90.11987
G0 F10500 X128.107 Y133.305
G1 F2700 X136.630 Y141.827 E90.21245
G0 F10500 X136.020 Y140.722
G1 F2700 X128.204 Y132.907 E90.29734
G0 F10500 X128.981 Y133.189
G1 F2700 X135.500 Y139.708 E90.36816
G0 F10500 X135.181 Y138.894
G1 F2700 X129.759 Y133.472 E90.42705
G0 F10500 X130.537 Y133.754
G1 F2700 X134.872 Y138.090 E90.47415
G0 F10500 X134.702 Y137.424
G1 F2700 X130.630 Y133.352 E90.51838
G0 F10500 X130.698 Y132.926
G1 F2700 X134.532 Y136.759 E90.56002
G0 F10500 X134.390 Y136.123
G1 F2700 X130.768 Y132.500 E90.59937
G0 F10500 X130.837 Y132.074
G1 F2700 X134.314 Y135.551 E90.63714
G0 F10500 X134.237 Y134.980
G1 F2700 X130.905 Y131.648 E90.67334
G0 F10500 X130.975 Y131.222
G1 F2700 X134.160 Y134.408 E90.70794
G0 F10500 X134.084 Y133.836
G1 F2700 X131.043 Y130.796 E90.74097
G0 F10500 X131.135 Y130.392
G1 F2700 X134.008 Y133.265 E90.77217
G0 F10500 X134.157 Y132.919
G1 F2700 X131.231 Y129.994 E90.80395
G0 F10500 X131.328 Y129.596
G1 F2700 X134.932 Y133.200 E90.84310
G0 F10500 X135.709 Y133.481
G1 F2700 X132.557 Y130.330 E90.87733
G0 F10500 X132.282 Y130.054
G1 F2700 X131.426 Y129.199 E90.88663
G0 F10500 X131.523 Y128.800
G1 F2700 X132.378 Y129.655 E90.89591
G0 F10500 X132.473 Y129.256
G1 F2700 X131.620 Y128.402 E90.90519
G0 F10500 X131.717 Y128.004
G1 F2700 X132.569 Y128.857 E90.91445
G0 F10500 X132.665 Y128.458
G1 F2700 X126.520 Y122.313 E90.98120
G0 F10500 X126.676 Y121.973
G1 F2700 X132.761 Y128.059 E91.04730
G0 F10500 X132.857 Y127.660
G1 F2700 X126.850 Y121.653 E91.11255
G0 F10500 X127.025 Y121.333
G1 F2700 X132.957 Y127.265 E91.17699
G0 F10500 X133.073 Y126.886
G1 F2700 X127.200 Y121.012 E91.24079
G0 F10500 X127.374 Y120.692
G1 F2700 X133.189 Y126.507 E91.30395
G0 F10500 X133.305 Y126.128
G1 F2700 X127.565 Y120.388 E91.36631
G0 F10500 X127.758 Y120.086
